MODULE testMotion

PROC test_2()
    !============== layer #: 1 ==============

    ! ===== PASS 1 =====
    MoveL [[44.500,15.500,50.0],[3.73171E-05,0.870747,-0.491731,7.48179E-05],[0,1,-2,0],[9E9,9E9,9E9,9E9,9E9,9E9]],v500,fine,tWeldgun \WObj:=owen_test;
    ! Outer contour 0
    ArcLStart [[44.500,15.500,0.0],[3.73171E-05,0.870747,-0.491731,7.48179E-05],[0,1,-2,0],[9E9,9E9,9E9,9E9,9E9,9E9]],v10,seam1,Ni36_2_7_15_35_240\Weave:=weave1,fine,tWeldgun \WObj:=owen_test;
    ArcL [[44.500,51.500,0.0],[3.73171E-05,0.870747,-0.491731,7.48179E-05],[0,1,-2,0],[9E9,9E9,9E9,9E9,9E9,9E9]],v10,seam1,Ni36_2_7_15_35_240\Weave:=weave1,fine,tWeldgun \WObj:=owen_test;
    ArcL [[80.500,51.500,0.0],[3.73171E-05,0.870747,-0.491731,7.48179E-05],[0,1,-2,0],[9E9,9E9,9E9,9E9,9E9,9E9]],v10,seam1,Ni36_2_7_15_35_240\Weave:=weave1,fine,tWeldgun \WObj:=owen_test;
    ArcL [[80.500,15.500,0.0],[3.73171E-05,0.870747,-0.491731,7.48179E-05],[0,1,-2,0],[9E9,9E9,9E9,9E9,9E9,9E9]],v10,seam1,Ni36_2_7_15_35_240\Weave:=weave1,fine,tWeldgun \WObj:=owen_test;
    ArcLEnd [[44.500,15.500,0.0],[3.73171E-05,0.870747,-0.491731,7.48179E-05],[0,1,-2,0],[9E9,9E9,9E9,9E9,9E9,9E9]],v10,seam1,Ni36_2_7_15_35_240\Weave:=weave1,fine,tWeldgun \WObj:=owen_test;
    MoveL [[44.500,15.500,50.0],[3.73171E-05,0.870747,-0.491731,7.48179E-05],[0,1,-2,0],[9E9,9E9,9E9,9E9,9E9,9E9]],v500,fine,tWeldgun \WObj:=owen_test;
    WaitTime 10.0;

    ! ===== INFILL =====
    MoveL [[50.500,21.500,50.0],[3.73171E-05,0.870747,-0.491731,7.48179E-05],[0,1,-2,0],[9E9,9E9,9E9,9E9,9E9,9E9]],v500,fine,tWeldgun \WObj:=owen_test;
    ArcLStart [[50.500,21.500,0.0],[3.73171E-05,0.870747,-0.491731,7.48179E-05],[0,1,-2,0],[9E9,9E9,9E9,9E9,9E9,9E9]],v10,seam1,Ni36_2_7_15_35_240\Weave:=weave1,fine,tWeldgun \WObj:=owen_test;
    ArcLEnd [[74.500,21.500,0.0],[3.73171E-05,0.870747,-0.491731,7.48179E-05],[0,1,-2,0],[9E9,9E9,9E9,9E9,9E9,9E9]],v10,seam1,Ni36_2_7_15_35_240\Weave:=weave1,fine,tWeldgun \WObj:=owen_test;
    MoveL [[74.500,21.500,50.0],[3.73171E-05,0.870747,-0.491731,7.48179E-05],[0,1,-2,0],[9E9,9E9,9E9,9E9,9E9,9E9]],v500,fine,tWeldgun \WObj:=owen_test;
    WaitTime 10.0;
    MoveL [[50.500,27.500,50.0],[3.73171E-05,0.870747,-0.491731,7.48179E-05],[0,1,-2,0],[9E9,9E9,9E9,9E9,9E9,9E9]],v500,fine,tWeldgun \WObj:=owen_test;
    ArcLStart [[50.500,27.500,0.0],[3.73171E-05,0.870747,-0.491731,7.48179E-05],[0,1,-2,0],[9E9,9E9,9E9,9E9,9E9,9E9]],v10,seam1,Ni36_2_7_15_35_240\Weave:=weave1,fine,tWeldgun \WObj:=owen_test;
    ArcLEnd [[74.500,27.500,0.0],[3.73171E-05,0.870747,-0.491731,7.48179E-05],[0,1,-2,0],[9E9,9E9,9E9,9E9,9E9,9E9]],v10,seam1,Ni36_2_7_15_35_240\Weave:=weave1,fine,tWeldgun \WObj:=owen_test;
    MoveL [[74.500,27.500,50.0],[3.73171E-05,0.870747,-0.491731,7.48179E-05],[0,1,-2,0],[9E9,9E9,9E9,9E9,9E9,9E9]],v500,fine,tWeldgun \WObj:=owen_test;
    WaitTime 10.0;
    MoveL [[50.500,33.500,50.0],[3.73171E-05,0.870747,-0.491731,7.48179E-05],[0,1,-2,0],[9E9,9E9,9E9,9E9,9E9,9E9]],v500,fine,tWeldgun \WObj:=owen_test;
    ArcLStart [[50.500,33.500,0.0],[3.73171E-05,0.870747,-0.491731,7.48179E-05],[0,1,-2,0],[9E9,9E9,9E9,9E9,9E9,9E9]],v10,seam1,Ni36_2_7_15_35_240\Weave:=weave1,fine,tWeldgun \WObj:=owen_test;
    ArcLEnd [[74.500,33.500,0.0],[3.73171E-05,0.870747,-0.491731,7.48179E-05],[0,1,-2,0],[9E9,9E9,9E9,9E9,9E9,9E9]],v10,seam1,Ni36_2_7_15_35_240\Weave:=weave1,fine,tWeldgun \WObj:=owen_test;
    MoveL [[74.500,33.500,50.0],[3.73171E-05,0.870747,-0.491731,7.48179E-05],[0,1,-2,0],[9E9,9E9,9E9,9E9,9E9,9E9]],v500,fine,tWeldgun \WObj:=owen_test;
    WaitTime 10.0;
    MoveL [[50.500,39.500,50.0],[3.73171E-05,0.870747,-0.491731,7.48179E-05],[0,1,-2,0],[9E9,9E9,9E9,9E9,9E9,9E9]],v500,fine,tWeldgun \WObj:=owen_test;
    ArcLStart [[50.500,39.500,0.0],[3.73171E-05,0.870747,-0.491731,7.48179E-05],[0,1,-2,0],[9E9,9E9,9E9,9E9,9E9,9E9]],v10,seam1,Ni36_2_7_15_35_240\Weave:=weave1,fine,tWeldgun \WObj:=owen_test;
    ArcLEnd [[74.500,39.500,0.0],[3.73171E-05,0.870747,-0.491731,7.48179E-05],[0,1,-2,0],[9E9,9E9,9E9,9E9,9E9,9E9]],v10,seam1,Ni36_2_7_15_35_240\Weave:=weave1,fine,tWeldgun \WObj:=owen_test;
    MoveL [[74.500,39.500,50.0],[3.73171E-05,0.870747,-0.491731,7.48179E-05],[0,1,-2,0],[9E9,9E9,9E9,9E9,9E9,9E9]],v500,fine,tWeldgun \WObj:=owen_test;
    WaitTime 10.0;
    MoveL [[50.500,45.500,50.0],[3.73171E-05,0.870747,-0.491731,7.48179E-05],[0,1,-2,0],[9E9,9E9,9E9,9E9,9E9,9E9]],v500,fine,tWeldgun \WObj:=owen_test;
    ArcLStart [[50.500,45.500,0.0],[3.73171E-05,0.870747,-0.491731,7.48179E-05],[0,1,-2,0],[9E9,9E9,9E9,9E9,9E9,9E9]],v10,seam1,Ni36_2_7_15_35_240\Weave:=weave1,fine,tWeldgun \WObj:=owen_test;
    ArcLEnd [[74.500,45.500,0.0],[3.73171E-05,0.870747,-0.491731,7.48179E-05],[0,1,-2,0],[9E9,9E9,9E9,9E9,9E9,9E9]],v10,seam1,Ni36_2_7_15_35_240\Weave:=weave1,fine,tWeldgun \WObj:=owen_test;
    MoveL [[74.500,45.500,50.0],[3.73171E-05,0.870747,-0.491731,7.48179E-05],[0,1,-2,0],[9E9,9E9,9E9,9E9,9E9,9E9]],v500,fine,tWeldgun \WObj:=owen_test;
    WaitTime 10.0;
    WaitTime 60.0;
    !============== layer #: 2 ==============

    ! ===== PASS 1 =====
    MoveL [[44.500,46.800,52.0],[3.73171E-05,0.870747,-0.491731,7.48179E-05],[0,1,-2,0],[9E9,9E9,9E9,9E9,9E9,9E9]],v500,fine,tWeldgun \WObj:=owen_test;
    ! Outer contour 0
    ArcLStart [[44.500,46.800,2.0],[3.73171E-05,0.870747,-0.491731,7.48179E-05],[0,1,-2,0],[9E9,9E9,9E9,9E9,9E9,9E9]],v10,seam1,Ni36_2_7_15_35_240\Weave:=weave1,fine,tWeldgun \WObj:=owen_test;
    ArcL [[44.500,52.800,2.0],[3.73171E-05,0.870747,-0.491731,7.48179E-05],[0,1,-2,0],[9E9,9E9,9E9,9E9,9E9,9E9]],v10,seam1,Ni36_2_7_15_35_240\Weave:=weave1,fine,tWeldgun \WObj:=owen_test;
    ArcL [[80.500,52.800,2.0],[3.73171E-05,0.870747,-0.491731,7.48179E-05],[0,1,-2,0],[9E9,9E9,9E9,9E9,9E9,9E9]],v10,seam1,Ni36_2_7_15_35_240\Weave:=weave1,fine,tWeldgun \WObj:=owen_test;
    ArcL [[80.500,16.800,2.0],[3.73171E-05,0.870747,-0.491731,7.48179E-05],[0,1,-2,0],[9E9,9E9,9E9,9E9,9E9,9E9]],v10,seam1,Ni36_2_7_15_35_240\Weave:=weave1,fine,tWeldgun \WObj:=owen_test;
    ArcL [[44.500,16.800,2.0],[3.73171E-05,0.870747,-0.491731,7.48179E-05],[0,1,-2,0],[9E9,9E9,9E9,9E9,9E9,9E9]],v10,seam1,Ni36_2_7_15_35_240\Weave:=weave1,fine,tWeldgun \WObj:=owen_test;
    ArcL [[44.500,18.000,2.0],[3.73171E-05,0.870747,-0.491731,7.48179E-05],[0,1,-2,0],[9E9,9E9,9E9,9E9,9E9,9E9]],v10,seam1,Ni36_2_7_15_35_240\Weave:=weave1,fine,tWeldgun \WObj:=owen_test;
    ArcLEnd [[44.500,46.800,2.0],[3.73171E-05,0.870747,-0.491731,7.48179E-05],[0,1,-2,0],[9E9,9E9,9E9,9E9,9E9,9E9]],v10,seam1,Ni36_2_7_15_35_240\Weave:=weave1,fine,tWeldgun \WObj:=owen_test;
    MoveL [[44.500,46.800,52.0],[3.73171E-05,0.870747,-0.491731,7.48179E-05],[0,1,-2,0],[9E9,9E9,9E9,9E9,9E9,9E9]],v500,fine,tWeldgun \WObj:=owen_test;
    WaitTime 10.0;

    ! ===== INFILL =====
    MoveL [[50.500,22.800,52.0],[3.73171E-05,0.870747,-0.491731,7.48179E-05],[0,1,-2,0],[9E9,9E9,9E9,9E9,9E9,9E9]],v500,fine,tWeldgun \WObj:=owen_test;
    ArcLStart [[50.500,22.800,2.0],[3.73171E-05,0.870747,-0.491731,7.48179E-05],[0,1,-2,0],[9E9,9E9,9E9,9E9,9E9,9E9]],v10,seam1,Ni36_2_7_15_35_240\Weave:=weave1,fine,tWeldgun \WObj:=owen_test;
    ArcLEnd [[74.500,22.800,2.0],[3.73171E-05,0.870747,-0.491731,7.48179E-05],[0,1,-2,0],[9E9,9E9,9E9,9E9,9E9,9E9]],v10,seam1,Ni36_2_7_15_35_240\Weave:=weave1,fine,tWeldgun \WObj:=owen_test;
    MoveL [[74.500,22.800,52.0],[3.73171E-05,0.870747,-0.491731,7.48179E-05],[0,1,-2,0],[9E9,9E9,9E9,9E9,9E9,9E9]],v500,fine,tWeldgun \WObj:=owen_test;
    WaitTime 10.0;
    MoveL [[50.500,28.800,52.0],[3.73171E-05,0.870747,-0.491731,7.48179E-05],[0,1,-2,0],[9E9,9E9,9E9,9E9,9E9,9E9]],v500,fine,tWeldgun \WObj:=owen_test;
    ArcLStart [[50.500,28.800,2.0],[3.73171E-05,0.870747,-0.491731,7.48179E-05],[0,1,-2,0],[9E9,9E9,9E9,9E9,9E9,9E9]],v10,seam1,Ni36_2_7_15_35_240\Weave:=weave1,fine,tWeldgun \WObj:=owen_test;
    ArcLEnd [[74.500,28.800,2.0],[3.73171E-05,0.870747,-0.491731,7.48179E-05],[0,1,-2,0],[9E9,9E9,9E9,9E9,9E9,9E9]],v10,seam1,Ni36_2_7_15_35_240\Weave:=weave1,fine,tWeldgun \WObj:=owen_test;
    MoveL [[74.500,28.800,52.0],[3.73171E-05,0.870747,-0.491731,7.48179E-05],[0,1,-2,0],[9E9,9E9,9E9,9E9,9E9,9E9]],v500,fine,tWeldgun \WObj:=owen_test;
    WaitTime 10.0;
    MoveL [[50.500,34.800,52.0],[3.73171E-05,0.870747,-0.491731,7.48179E-05],[0,1,-2,0],[9E9,9E9,9E9,9E9,9E9,9E9]],v500,fine,tWeldgun \WObj:=owen_test;
    ArcLStart [[50.500,34.800,2.0],[3.73171E-05,0.870747,-0.491731,7.48179E-05],[0,1,-2,0],[9E9,9E9,9E9,9E9,9E9,9E9]],v10,seam1,Ni36_2_7_15_35_240\Weave:=weave1,fine,tWeldgun \WObj:=owen_test;
    ArcLEnd [[74.500,34.800,2.0],[3.73171E-05,0.870747,-0.491731,7.48179E-05],[0,1,-2,0],[9E9,9E9,9E9,9E9,9E9,9E9]],v10,seam1,Ni36_2_7_15_35_240\Weave:=weave1,fine,tWeldgun \WObj:=owen_test;
    MoveL [[74.500,34.800,52.0],[3.73171E-05,0.870747,-0.491731,7.48179E-05],[0,1,-2,0],[9E9,9E9,9E9,9E9,9E9,9E9]],v500,fine,tWeldgun \WObj:=owen_test;
    WaitTime 10.0;
    MoveL [[50.500,40.800,52.0],[3.73171E-05,0.870747,-0.491731,7.48179E-05],[0,1,-2,0],[9E9,9E9,9E9,9E9,9E9,9E9]],v500,fine,tWeldgun \WObj:=owen_test;
    ArcLStart [[50.500,40.800,2.0],[3.73171E-05,0.870747,-0.491731,7.48179E-05],[0,1,-2,0],[9E9,9E9,9E9,9E9,9E9,9E9]],v10,seam1,Ni36_2_7_15_35_240\Weave:=weave1,fine,tWeldgun \WObj:=owen_test;
    ArcLEnd [[74.500,40.800,2.0],[3.73171E-05,0.870747,-0.491731,7.48179E-05],[0,1,-2,0],[9E9,9E9,9E9,9E9,9E9,9E9]],v10,seam1,Ni36_2_7_15_35_240\Weave:=weave1,fine,tWeldgun \WObj:=owen_test;
    MoveL [[74.500,40.800,52.0],[3.73171E-05,0.870747,-0.491731,7.48179E-05],[0,1,-2,0],[9E9,9E9,9E9,9E9,9E9,9E9]],v500,fine,tWeldgun \WObj:=owen_test;
    WaitTime 10.0;
    MoveL [[50.500,46.800,52.0],[3.73171E-05,0.870747,-0.491731,7.48179E-05],[0,1,-2,0],[9E9,9E9,9E9,9E9,9E9,9E9]],v500,fine,tWeldgun \WObj:=owen_test;
    ArcLStart [[50.500,46.800,2.0],[3.73171E-05,0.870747,-0.491731,7.48179E-05],[0,1,-2,0],[9E9,9E9,9E9,9E9,9E9,9E9]],v10,seam1,Ni36_2_7_15_35_240\Weave:=weave1,fine,tWeldgun \WObj:=owen_test;
    ArcLEnd [[74.500,46.800,2.0],[3.73171E-05,0.870747,-0.491731,7.48179E-05],[0,1,-2,0],[9E9,9E9,9E9,9E9,9E9,9E9]],v10,seam1,Ni36_2_7_15_35_240\Weave:=weave1,fine,tWeldgun \WObj:=owen_test;
    MoveL [[74.500,46.800,52.0],[3.73171E-05,0.870747,-0.491731,7.48179E-05],[0,1,-2,0],[9E9,9E9,9E9,9E9,9E9,9E9]],v500,fine,tWeldgun \WObj:=owen_test;
    WaitTime 10.0;
    WaitTime 60.0;
    !============== layer #: 3 ==============

    ! ===== PASS 1 =====
    MoveL [[68.500,54.100,54.0],[3.73171E-05,0.870747,-0.491731,7.48179E-05],[0,1,-2,0],[9E9,9E9,9E9,9E9,9E9,9E9]],v500,fine,tWeldgun \WObj:=owen_test;
    ! Outer contour 0
    ArcLStart [[68.500,54.100,4.0],[3.73171E-05,0.870747,-0.491731,7.48179E-05],[0,1,-2,0],[9E9,9E9,9E9,9E9,9E9,9E9]],v10,seam1,Ni36_2_7_15_35_240\Weave:=weave1,fine,tWeldgun \WObj:=owen_test;
    ArcL [[80.500,54.100,4.0],[3.73171E-05,0.870747,-0.491731,7.48179E-05],[0,1,-2,0],[9E9,9E9,9E9,9E9,9E9,9E9]],v10,seam1,Ni36_2_7_15_35_240\Weave:=weave1,fine,tWeldgun \WObj:=owen_test;
    ArcL [[80.500,18.100,4.0],[3.73171E-05,0.870747,-0.491731,7.48179E-05],[0,1,-2,0],[9E9,9E9,9E9,9E9,9E9,9E9]],v10,seam1,Ni36_2_7_15_35_240\Weave:=weave1,fine,tWeldgun \WObj:=owen_test;
    ArcL [[44.500,18.100,4.0],[3.73171E-05,0.870747,-0.491731,7.48179E-05],[0,1,-2,0],[9E9,9E9,9E9,9E9,9E9,9E9]],v10,seam1,Ni36_2_7_15_35_240\Weave:=weave1,fine,tWeldgun \WObj:=owen_test;
    ArcL [[44.500,23.500,4.0],[3.73171E-05,0.870747,-0.491731,7.48179E-05],[0,1,-2,0],[9E9,9E9,9E9,9E9,9E9,9E9]],v10,seam1,Ni36_2_7_15_35_240\Weave:=weave1,fine,tWeldgun \WObj:=owen_test;
    ArcL [[44.500,54.100,4.0],[3.73171E-05,0.870747,-0.491731,7.48179E-05],[0,1,-2,0],[9E9,9E9,9E9,9E9,9E9,9E9]],v10,seam1,Ni36_2_7_15_35_240\Weave:=weave1,fine,tWeldgun \WObj:=owen_test;
    ArcLEnd [[68.500,54.100,4.0],[3.73171E-05,0.870747,-0.491731,7.48179E-05],[0,1,-2,0],[9E9,9E9,9E9,9E9,9E9,9E9]],v10,seam1,Ni36_2_7_15_35_240\Weave:=weave1,fine,tWeldgun \WObj:=owen_test;
    MoveL [[68.500,54.100,54.0],[3.73171E-05,0.870747,-0.491731,7.48179E-05],[0,1,-2,0],[9E9,9E9,9E9,9E9,9E9,9E9]],v500,fine,tWeldgun \WObj:=owen_test;
    WaitTime 10.0;

    ! ===== INFILL =====
    MoveL [[50.500,24.100,54.0],[3.73171E-05,0.870747,-0.491731,7.48179E-05],[0,1,-2,0],[9E9,9E9,9E9,9E9,9E9,9E9]],v500,fine,tWeldgun \WObj:=owen_test;
    ArcLStart [[50.500,24.100,4.0],[3.73171E-05,0.870747,-0.491731,7.48179E-05],[0,1,-2,0],[9E9,9E9,9E9,9E9,9E9,9E9]],v10,seam1,Ni36_2_7_15_35_240\Weave:=weave1,fine,tWeldgun \WObj:=owen_test;
    ArcLEnd [[74.500,24.100,4.0],[3.73171E-05,0.870747,-0.491731,7.48179E-05],[0,1,-2,0],[9E9,9E9,9E9,9E9,9E9,9E9]],v10,seam1,Ni36_2_7_15_35_240\Weave:=weave1,fine,tWeldgun \WObj:=owen_test;
    MoveL [[74.500,24.100,54.0],[3.73171E-05,0.870747,-0.491731,7.48179E-05],[0,1,-2,0],[9E9,9E9,9E9,9E9,9E9,9E9]],v500,fine,tWeldgun \WObj:=owen_test;
    WaitTime 10.0;
    MoveL [[50.500,30.100,54.0],[3.73171E-05,0.870747,-0.491731,7.48179E-05],[0,1,-2,0],[9E9,9E9,9E9,9E9,9E9,9E9]],v500,fine,tWeldgun \WObj:=owen_test;
    ArcLStart [[50.500,30.100,4.0],[3.73171E-05,0.870747,-0.491731,7.48179E-05],[0,1,-2,0],[9E9,9E9,9E9,9E9,9E9,9E9]],v10,seam1,Ni36_2_7_15_35_240\Weave:=weave1,fine,tWeldgun \WObj:=owen_test;
    ArcLEnd [[74.500,30.100,4.0],[3.73171E-05,0.870747,-0.491731,7.48179E-05],[0,1,-2,0],[9E9,9E9,9E9,9E9,9E9,9E9]],v10,seam1,Ni36_2_7_15_35_240\Weave:=weave1,fine,tWeldgun \WObj:=owen_test;
    MoveL [[74.500,30.100,54.0],[3.73171E-05,0.870747,-0.491731,7.48179E-05],[0,1,-2,0],[9E9,9E9,9E9,9E9,9E9,9E9]],v500,fine,tWeldgun \WObj:=owen_test;
    WaitTime 10.0;
    MoveL [[50.500,36.100,54.0],[3.73171E-05,0.870747,-0.491731,7.48179E-05],[0,1,-2,0],[9E9,9E9,9E9,9E9,9E9,9E9]],v500,fine,tWeldgun \WObj:=owen_test;
    ArcLStart [[50.500,36.100,4.0],[3.73171E-05,0.870747,-0.491731,7.48179E-05],[0,1,-2,0],[9E9,9E9,9E9,9E9,9E9,9E9]],v10,seam1,Ni36_2_7_15_35_240\Weave:=weave1,fine,tWeldgun \WObj:=owen_test;
    ArcLEnd [[74.500,36.100,4.0],[3.73171E-05,0.870747,-0.491731,7.48179E-05],[0,1,-2,0],[9E9,9E9,9E9,9E9,9E9,9E9]],v10,seam1,Ni36_2_7_15_35_240\Weave:=weave1,fine,tWeldgun \WObj:=owen_test;
    MoveL [[74.500,36.100,54.0],[3.73171E-05,0.870747,-0.491731,7.48179E-05],[0,1,-2,0],[9E9,9E9,9E9,9E9,9E9,9E9]],v500,fine,tWeldgun \WObj:=owen_test;
    WaitTime 10.0;
    MoveL [[50.500,42.100,54.0],[3.73171E-05,0.870747,-0.491731,7.48179E-05],[0,1,-2,0],[9E9,9E9,9E9,9E9,9E9,9E9]],v500,fine,tWeldgun \WObj:=owen_test;
    ArcLStart [[50.500,42.100,4.0],[3.73171E-05,0.870747,-0.491731,7.48179E-05],[0,1,-2,0],[9E9,9E9,9E9,9E9,9E9,9E9]],v10,seam1,Ni36_2_7_15_35_240\Weave:=weave1,fine,tWeldgun \WObj:=owen_test;
    ArcLEnd [[74.500,42.100,4.0],[3.73171E-05,0.870747,-0.491731,7.48179E-05],[0,1,-2,0],[9E9,9E9,9E9,9E9,9E9,9E9]],v10,seam1,Ni36_2_7_15_35_240\Weave:=weave1,fine,tWeldgun \WObj:=owen_test;
    MoveL [[74.500,42.100,54.0],[3.73171E-05,0.870747,-0.491731,7.48179E-05],[0,1,-2,0],[9E9,9E9,9E9,9E9,9E9,9E9]],v500,fine,tWeldgun \WObj:=owen_test;
    WaitTime 10.0;
    MoveL [[50.500,48.100,54.0],[3.73171E-05,0.870747,-0.491731,7.48179E-05],[0,1,-2,0],[9E9,9E9,9E9,9E9,9E9,9E9]],v500,fine,tWeldgun \WObj:=owen_test;
    ArcLStart [[50.500,48.100,4.0],[3.73171E-05,0.870747,-0.491731,7.48179E-05],[0,1,-2,0],[9E9,9E9,9E9,9E9,9E9,9E9]],v10,seam1,Ni36_2_7_15_35_240\Weave:=weave1,fine,tWeldgun \WObj:=owen_test;
    ArcLEnd [[74.500,48.100,4.0],[3.73171E-05,0.870747,-0.491731,7.48179E-05],[0,1,-2,0],[9E9,9E9,9E9,9E9,9E9,9E9]],v10,seam1,Ni36_2_7_15_35_240\Weave:=weave1,fine,tWeldgun \WObj:=owen_test;
    MoveL [[74.500,48.100,54.0],[3.73171E-05,0.870747,-0.491731,7.48179E-05],[0,1,-2,0],[9E9,9E9,9E9,9E9,9E9,9E9]],v500,fine,tWeldgun \WObj:=owen_test;
    WaitTime 10.0;
    WaitTime 60.0;
    !============== layer #: 4 ==============

    ! ===== PASS 1 =====
    MoveL [[80.500,37.400,56.0],[3.73171E-05,0.870747,-0.491731,7.48179E-05],[0,1,-2,0],[9E9,9E9,9E9,9E9,9E9,9E9]],v500,fine,tWeldgun \WObj:=owen_test;
    ! Outer contour 0
    ArcLStart [[80.500,37.400,6.0],[3.73171E-05,0.870747,-0.491731,7.48179E-05],[0,1,-2,0],[9E9,9E9,9E9,9E9,9E9,9E9]],v10,seam1,Ni36_2_7_15_35_240\Weave:=weave1,fine,tWeldgun \WObj:=owen_test;
    ArcL [[80.500,19.400,6.0],[3.73171E-05,0.870747,-0.491731,7.48179E-05],[0,1,-2,0],[9E9,9E9,9E9,9E9,9E9,9E9]],v10,seam1,Ni36_2_7_15_35_240\Weave:=weave1,fine,tWeldgun \WObj:=owen_test;
    ArcL [[44.500,19.400,6.0],[3.73171E-05,0.870747,-0.491731,7.48179E-05],[0,1,-2,0],[9E9,9E9,9E9,9E9,9E9,9E9]],v10,seam1,Ni36_2_7_15_35_240\Weave:=weave1,fine,tWeldgun \WObj:=owen_test;
    ArcL [[44.500,29.000,6.0],[3.73171E-05,0.870747,-0.491731,7.48179E-05],[0,1,-2,0],[9E9,9E9,9E9,9E9,9E9,9E9]],v10,seam1,Ni36_2_7_15_35_240\Weave:=weave1,fine,tWeldgun \WObj:=owen_test;
    ArcL [[44.500,55.400,6.0],[3.73171E-05,0.870747,-0.491731,7.48179E-05],[0,1,-2,0],[9E9,9E9,9E9,9E9,9E9,9E9]],v10,seam1,Ni36_2_7_15_35_240\Weave:=weave1,fine,tWeldgun \WObj:=owen_test;
    ArcL [[80.500,55.400,6.0],[3.73171E-05,0.870747,-0.491731,7.48179E-05],[0,1,-2,0],[9E9,9E9,9E9,9E9,9E9,9E9]],v10,seam1,Ni36_2_7_15_35_240\Weave:=weave1,fine,tWeldgun \WObj:=owen_test;
    ArcLEnd [[80.500,37.400,6.0],[3.73171E-05,0.870747,-0.491731,7.48179E-05],[0,1,-2,0],[9E9,9E9,9E9,9E9,9E9,9E9]],v10,seam1,Ni36_2_7_15_35_240\Weave:=weave1,fine,tWeldgun \WObj:=owen_test;
    MoveL [[80.500,37.400,56.0],[3.73171E-05,0.870747,-0.491731,7.48179E-05],[0,1,-2,0],[9E9,9E9,9E9,9E9,9E9,9E9]],v500,fine,tWeldgun \WObj:=owen_test;
    WaitTime 10.0;

    ! ===== INFILL =====
    MoveL [[50.500,25.400,56.0],[3.73171E-05,0.870747,-0.491731,7.48179E-05],[0,1,-2,0],[9E9,9E9,9E9,9E9,9E9,9E9]],v500,fine,tWeldgun \WObj:=owen_test;
    ArcLStart [[50.500,25.400,6.0],[3.73171E-05,0.870747,-0.491731,7.48179E-05],[0,1,-2,0],[9E9,9E9,9E9,9E9,9E9,9E9]],v10,seam1,Ni36_2_7_15_35_240\Weave:=weave1,fine,tWeldgun \WObj:=owen_test;
    ArcLEnd [[74.500,25.400,6.0],[3.73171E-05,0.870747,-0.491731,7.48179E-05],[0,1,-2,0],[9E9,9E9,9E9,9E9,9E9,9E9]],v10,seam1,Ni36_2_7_15_35_240\Weave:=weave1,fine,tWeldgun \WObj:=owen_test;
    MoveL [[74.500,25.400,56.0],[3.73171E-05,0.870747,-0.491731,7.48179E-05],[0,1,-2,0],[9E9,9E9,9E9,9E9,9E9,9E9]],v500,fine,tWeldgun \WObj:=owen_test;
    WaitTime 10.0;
    MoveL [[50.500,31.400,56.0],[3.73171E-05,0.870747,-0.491731,7.48179E-05],[0,1,-2,0],[9E9,9E9,9E9,9E9,9E9,9E9]],v500,fine,tWeldgun \WObj:=owen_test;
    ArcLStart [[50.500,31.400,6.0],[3.73171E-05,0.870747,-0.491731,7.48179E-05],[0,1,-2,0],[9E9,9E9,9E9,9E9,9E9,9E9]],v10,seam1,Ni36_2_7_15_35_240\Weave:=weave1,fine,tWeldgun \WObj:=owen_test;
    ArcLEnd [[74.500,31.400,6.0],[3.73171E-05,0.870747,-0.491731,7.48179E-05],[0,1,-2,0],[9E9,9E9,9E9,9E9,9E9,9E9]],v10,seam1,Ni36_2_7_15_35_240\Weave:=weave1,fine,tWeldgun \WObj:=owen_test;
    MoveL [[74.500,31.400,56.0],[3.73171E-05,0.870747,-0.491731,7.48179E-05],[0,1,-2,0],[9E9,9E9,9E9,9E9,9E9,9E9]],v500,fine,tWeldgun \WObj:=owen_test;
    WaitTime 10.0;
    MoveL [[50.500,37.400,56.0],[3.73171E-05,0.870747,-0.491731,7.48179E-05],[0,1,-2,0],[9E9,9E9,9E9,9E9,9E9,9E9]],v500,fine,tWeldgun \WObj:=owen_test;
    ArcLStart [[50.500,37.400,6.0],[3.73171E-05,0.870747,-0.491731,7.48179E-05],[0,1,-2,0],[9E9,9E9,9E9,9E9,9E9,9E9]],v10,seam1,Ni36_2_7_15_35_240\Weave:=weave1,fine,tWeldgun \WObj:=owen_test;
    ArcLEnd [[74.500,37.400,6.0],[3.73171E-05,0.870747,-0.491731,7.48179E-05],[0,1,-2,0],[9E9,9E9,9E9,9E9,9E9,9E9]],v10,seam1,Ni36_2_7_15_35_240\Weave:=weave1,fine,tWeldgun \WObj:=owen_test;
    MoveL [[74.500,37.400,56.0],[3.73171E-05,0.870747,-0.491731,7.48179E-05],[0,1,-2,0],[9E9,9E9,9E9,9E9,9E9,9E9]],v500,fine,tWeldgun \WObj:=owen_test;
    WaitTime 10.0;
    MoveL [[50.500,43.400,56.0],[3.73171E-05,0.870747,-0.491731,7.48179E-05],[0,1,-2,0],[9E9,9E9,9E9,9E9,9E9,9E9]],v500,fine,tWeldgun \WObj:=owen_test;
    ArcLStart [[50.500,43.400,6.0],[3.73171E-05,0.870747,-0.491731,7.48179E-05],[0,1,-2,0],[9E9,9E9,9E9,9E9,9E9,9E9]],v10,seam1,Ni36_2_7_15_35_240\Weave:=weave1,fine,tWeldgun \WObj:=owen_test;
    ArcLEnd [[74.500,43.400,6.0],[3.73171E-05,0.870747,-0.491731,7.48179E-05],[0,1,-2,0],[9E9,9E9,9E9,9E9,9E9,9E9]],v10,seam1,Ni36_2_7_15_35_240\Weave:=weave1,fine,tWeldgun \WObj:=owen_test;
    MoveL [[74.500,43.400,56.0],[3.73171E-05,0.870747,-0.491731,7.48179E-05],[0,1,-2,0],[9E9,9E9,9E9,9E9,9E9,9E9]],v500,fine,tWeldgun \WObj:=owen_test;
    WaitTime 10.0;
    MoveL [[50.500,49.400,56.0],[3.73171E-05,0.870747,-0.491731,7.48179E-05],[0,1,-2,0],[9E9,9E9,9E9,9E9,9E9,9E9]],v500,fine,tWeldgun \WObj:=owen_test;
    ArcLStart [[50.500,49.400,6.0],[3.73171E-05,0.870747,-0.491731,7.48179E-05],[0,1,-2,0],[9E9,9E9,9E9,9E9,9E9,9E9]],v10,seam1,Ni36_2_7_15_35_240\Weave:=weave1,fine,tWeldgun \WObj:=owen_test;
    ArcLEnd [[74.500,49.400,6.0],[3.73171E-05,0.870747,-0.491731,7.48179E-05],[0,1,-2,0],[9E9,9E9,9E9,9E9,9E9,9E9]],v10,seam1,Ni36_2_7_15_35_240\Weave:=weave1,fine,tWeldgun \WObj:=owen_test;
    MoveL [[74.500,49.400,56.0],[3.73171E-05,0.870747,-0.491731,7.48179E-05],[0,1,-2,0],[9E9,9E9,9E9,9E9,9E9,9E9]],v500,fine,tWeldgun \WObj:=owen_test;
    WaitTime 10.0;
    WaitTime 60.0;
    !============== layer #: 5 ==============

    ! ===== PASS 1 =====
    MoveL [[68.500,20.700,58.0],[3.73171E-05,0.870747,-0.491731,7.48179E-05],[0,1,-2,0],[9E9,9E9,9E9,9E9,9E9,9E9]],v500,fine,tWeldgun \WObj:=owen_test;
    ! Outer contour 0
    ArcLStart [[68.500,20.700,8.0],[3.73171E-05,0.870747,-0.491731,7.48179E-05],[0,1,-2,0],[9E9,9E9,9E9,9E9,9E9,9E9]],v10,seam1,Ni36_2_7_15_35_240\Weave:=weave1,fine,tWeldgun \WObj:=owen_test;
    ArcL [[44.500,20.700,8.0],[3.73171E-05,0.870747,-0.491731,7.48179E-05],[0,1,-2,0],[9E9,9E9,9E9,9E9,9E9,9E9]],v10,seam1,Ni36_2_7_15_35_240\Weave:=weave1,fine,tWeldgun \WObj:=owen_test;
    ArcL [[44.500,34.500,8.0],[3.73171E-05,0.870747,-0.491731,7.48179E-05],[0,1,-2,0],[9E9,9E9,9E9,9E9,9E9,9E9]],v10,seam1,Ni36_2_7_15_35_240\Weave:=weave1,fine,tWeldgun \WObj:=owen_test;
    ArcL [[44.500,56.700,8.0],[3.73171E-05,0.870747,-0.491731,7.48179E-05],[0,1,-2,0],[9E9,9E9,9E9,9E9,9E9,9E9]],v10,seam1,Ni36_2_7_15_35_240\Weave:=weave1,fine,tWeldgun \WObj:=owen_test;
    ArcL [[80.500,56.700,8.0],[3.73171E-05,0.870747,-0.491731,7.48179E-05],[0,1,-2,0],[9E9,9E9,9E9,9E9,9E9,9E9]],v10,seam1,Ni36_2_7_15_35_240\Weave:=weave1,fine,tWeldgun \WObj:=owen_test;
    ArcL [[80.500,20.700,8.0],[3.73171E-05,0.870747,-0.491731,7.48179E-05],[0,1,-2,0],[9E9,9E9,9E9,9E9,9E9,9E9]],v10,seam1,Ni36_2_7_15_35_240\Weave:=weave1,fine,tWeldgun \WObj:=owen_test;
    ArcLEnd [[68.500,20.700,8.0],[3.73171E-05,0.870747,-0.491731,7.48179E-05],[0,1,-2,0],[9E9,9E9,9E9,9E9,9E9,9E9]],v10,seam1,Ni36_2_7_15_35_240\Weave:=weave1,fine,tWeldgun \WObj:=owen_test;
    MoveL [[68.500,20.700,58.0],[3.73171E-05,0.870747,-0.491731,7.48179E-05],[0,1,-2,0],[9E9,9E9,9E9,9E9,9E9,9E9]],v500,fine,tWeldgun \WObj:=owen_test;
    WaitTime 10.0;

    ! ===== INFILL =====
    MoveL [[50.500,26.700,58.0],[3.73171E-05,0.870747,-0.491731,7.48179E-05],[0,1,-2,0],[9E9,9E9,9E9,9E9,9E9,9E9]],v500,fine,tWeldgun \WObj:=owen_test;
    ArcLStart [[50.500,26.700,8.0],[3.73171E-05,0.870747,-0.491731,7.48179E-05],[0,1,-2,0],[9E9,9E9,9E9,9E9,9E9,9E9]],v10,seam1,Ni36_2_7_15_35_240\Weave:=weave1,fine,tWeldgun \WObj:=owen_test;
    ArcLEnd [[74.500,26.700,8.0],[3.73171E-05,0.870747,-0.491731,7.48179E-05],[0,1,-2,0],[9E9,9E9,9E9,9E9,9E9,9E9]],v10,seam1,Ni36_2_7_15_35_240\Weave:=weave1,fine,tWeldgun \WObj:=owen_test;
    MoveL [[74.500,26.700,58.0],[3.73171E-05,0.870747,-0.491731,7.48179E-05],[0,1,-2,0],[9E9,9E9,9E9,9E9,9E9,9E9]],v500,fine,tWeldgun \WObj:=owen_test;
    WaitTime 10.0;
    MoveL [[50.500,32.700,58.0],[3.73171E-05,0.870747,-0.491731,7.48179E-05],[0,1,-2,0],[9E9,9E9,9E9,9E9,9E9,9E9]],v500,fine,tWeldgun \WObj:=owen_test;
    ArcLStart [[50.500,32.700,8.0],[3.73171E-05,0.870747,-0.491731,7.48179E-05],[0,1,-2,0],[9E9,9E9,9E9,9E9,9E9,9E9]],v10,seam1,Ni36_2_7_15_35_240\Weave:=weave1,fine,tWeldgun \WObj:=owen_test;
    ArcLEnd [[74.500,32.700,8.0],[3.73171E-05,0.870747,-0.491731,7.48179E-05],[0,1,-2,0],[9E9,9E9,9E9,9E9,9E9,9E9]],v10,seam1,Ni36_2_7_15_35_240\Weave:=weave1,fine,tWeldgun \WObj:=owen_test;
    MoveL [[74.500,32.700,58.0],[3.73171E-05,0.870747,-0.491731,7.48179E-05],[0,1,-2,0],[9E9,9E9,9E9,9E9,9E9,9E9]],v500,fine,tWeldgun \WObj:=owen_test;
    WaitTime 10.0;
    MoveL [[50.500,38.700,58.0],[3.73171E-05,0.870747,-0.491731,7.48179E-05],[0,1,-2,0],[9E9,9E9,9E9,9E9,9E9,9E9]],v500,fine,tWeldgun \WObj:=owen_test;
    ArcLStart [[50.500,38.700,8.0],[3.73171E-05,0.870747,-0.491731,7.48179E-05],[0,1,-2,0],[9E9,9E9,9E9,9E9,9E9,9E9]],v10,seam1,Ni36_2_7_15_35_240\Weave:=weave1,fine,tWeldgun \WObj:=owen_test;
    ArcLEnd [[74.500,38.700,8.0],[3.73171E-05,0.870747,-0.491731,7.48179E-05],[0,1,-2,0],[9E9,9E9,9E9,9E9,9E9,9E9]],v10,seam1,Ni36_2_7_15_35_240\Weave:=weave1,fine,tWeldgun \WObj:=owen_test;
    MoveL [[74.500,38.700,58.0],[3.73171E-05,0.870747,-0.491731,7.48179E-05],[0,1,-2,0],[9E9,9E9,9E9,9E9,9E9,9E9]],v500,fine,tWeldgun \WObj:=owen_test;
    WaitTime 10.0;
    MoveL [[50.500,44.700,58.0],[3.73171E-05,0.870747,-0.491731,7.48179E-05],[0,1,-2,0],[9E9,9E9,9E9,9E9,9E9,9E9]],v500,fine,tWeldgun \WObj:=owen_test;
    ArcLStart [[50.500,44.700,8.0],[3.73171E-05,0.870747,-0.491731,7.48179E-05],[0,1,-2,0],[9E9,9E9,9E9,9E9,9E9,9E9]],v10,seam1,Ni36_2_7_15_35_240\Weave:=weave1,fine,tWeldgun \WObj:=owen_test;
    ArcLEnd [[74.500,44.700,8.0],[3.73171E-05,0.870747,-0.491731,7.48179E-05],[0,1,-2,0],[9E9,9E9,9E9,9E9,9E9,9E9]],v10,seam1,Ni36_2_7_15_35_240\Weave:=weave1,fine,tWeldgun \WObj:=owen_test;
    MoveL [[74.500,44.700,58.0],[3.73171E-05,0.870747,-0.491731,7.48179E-05],[0,1,-2,0],[9E9,9E9,9E9,9E9,9E9,9E9]],v500,fine,tWeldgun \WObj:=owen_test;
    WaitTime 10.0;
    MoveL [[50.500,50.700,58.0],[3.73171E-05,0.870747,-0.491731,7.48179E-05],[0,1,-2,0],[9E9,9E9,9E9,9E9,9E9,9E9]],v500,fine,tWeldgun \WObj:=owen_test;
    ArcLStart [[50.500,50.700,8.0],[3.73171E-05,0.870747,-0.491731,7.48179E-05],[0,1,-2,0],[9E9,9E9,9E9,9E9,9E9,9E9]],v10,seam1,Ni36_2_7_15_35_240\Weave:=weave1,fine,tWeldgun \WObj:=owen_test;
    ArcLEnd [[74.500,50.700,8.0],[3.73171E-05,0.870747,-0.491731,7.48179E-05],[0,1,-2,0],[9E9,9E9,9E9,9E9,9E9,9E9]],v10,seam1,Ni36_2_7_15_35_240\Weave:=weave1,fine,tWeldgun \WObj:=owen_test;
    MoveL [[74.500,50.700,58.0],[3.73171E-05,0.870747,-0.491731,7.48179E-05],[0,1,-2,0],[9E9,9E9,9E9,9E9,9E9,9E9]],v500,fine,tWeldgun \WObj:=owen_test;
    WaitTime 10.0;
    WaitTime 60.0;
    !============== layer #: 6 ==============

    ! ===== PASS 1 =====
    MoveL [[44.500,28.000,60.0],[3.73171E-05,0.870747,-0.491731,7.48179E-05],[0,1,-2,0],[9E9,9E9,9E9,9E9,9E9,9E9]],v500,fine,tWeldgun \WObj:=owen_test;
    ! Outer contour 0
    ArcLStart [[44.500,28.000,10.0],[3.73171E-05,0.870747,-0.491731,7.48179E-05],[0,1,-2,0],[9E9,9E9,9E9,9E9,9E9,9E9]],v10,seam1,Ni36_2_7_15_35_240\Weave:=weave1,fine,tWeldgun \WObj:=owen_test;
    ArcL [[44.500,58.000,10.0],[3.73171E-05,0.870747,-0.491731,7.48179E-05],[0,1,-2,0],[9E9,9E9,9E9,9E9,9E9,9E9]],v10,seam1,Ni36_2_7_15_35_240\Weave:=weave1,fine,tWeldgun \WObj:=owen_test;
    ArcL [[80.500,58.000,10.0],[3.73171E-05,0.870747,-0.491731,7.48179E-05],[0,1,-2,0],[9E9,9E9,9E9,9E9,9E9,9E9]],v10,seam1,Ni36_2_7_15_35_240\Weave:=weave1,fine,tWeldgun \WObj:=owen_test;
    ArcL [[80.500,22.000,10.0],[3.73171E-05,0.870747,-0.491731,7.48179E-05],[0,1,-2,0],[9E9,9E9,9E9,9E9,9E9,9E9]],v10,seam1,Ni36_2_7_15_35_240\Weave:=weave1,fine,tWeldgun \WObj:=owen_test;
    ArcL [[44.500,22.000,10.0],[3.73171E-05,0.870747,-0.491731,7.48179E-05],[0,1,-2,0],[9E9,9E9,9E9,9E9,9E9,9E9]],v10,seam1,Ni36_2_7_15_35_240\Weave:=weave1,fine,tWeldgun \WObj:=owen_test;
    ArcLEnd [[44.500,28.000,10.0],[3.73171E-05,0.870747,-0.491731,7.48179E-05],[0,1,-2,0],[9E9,9E9,9E9,9E9,9E9,9E9]],v10,seam1,Ni36_2_7_15_35_240\Weave:=weave1,fine,tWeldgun \WObj:=owen_test;
    MoveL [[44.500,28.000,60.0],[3.73171E-05,0.870747,-0.491731,7.48179E-05],[0,1,-2,0],[9E9,9E9,9E9,9E9,9E9,9E9]],v500,fine,tWeldgun \WObj:=owen_test;
    WaitTime 10.0;

    ! ===== INFILL =====
    MoveL [[50.500,28.000,60.0],[3.73171E-05,0.870747,-0.491731,7.48179E-05],[0,1,-2,0],[9E9,9E9,9E9,9E9,9E9,9E9]],v500,fine,tWeldgun \WObj:=owen_test;
    ArcLStart [[50.500,28.000,10.0],[3.73171E-05,0.870747,-0.491731,7.48179E-05],[0,1,-2,0],[9E9,9E9,9E9,9E9,9E9,9E9]],v10,seam1,Ni36_2_7_15_35_240\Weave:=weave1,fine,tWeldgun \WObj:=owen_test;
    ArcLEnd [[74.500,28.000,10.0],[3.73171E-05,0.870747,-0.491731,7.48179E-05],[0,1,-2,0],[9E9,9E9,9E9,9E9,9E9,9E9]],v10,seam1,Ni36_2_7_15_35_240\Weave:=weave1,fine,tWeldgun \WObj:=owen_test;
    MoveL [[74.500,28.000,60.0],[3.73171E-05,0.870747,-0.491731,7.48179E-05],[0,1,-2,0],[9E9,9E9,9E9,9E9,9E9,9E9]],v500,fine,tWeldgun \WObj:=owen_test;
    WaitTime 10.0;
    MoveL [[50.500,34.000,60.0],[3.73171E-05,0.870747,-0.491731,7.48179E-05],[0,1,-2,0],[9E9,9E9,9E9,9E9,9E9,9E9]],v500,fine,tWeldgun \WObj:=owen_test;
    ArcLStart [[50.500,34.000,10.0],[3.73171E-05,0.870747,-0.491731,7.48179E-05],[0,1,-2,0],[9E9,9E9,9E9,9E9,9E9,9E9]],v10,seam1,Ni36_2_7_15_35_240\Weave:=weave1,fine,tWeldgun \WObj:=owen_test;
    ArcLEnd [[74.500,34.000,10.0],[3.73171E-05,0.870747,-0.491731,7.48179E-05],[0,1,-2,0],[9E9,9E9,9E9,9E9,9E9,9E9]],v10,seam1,Ni36_2_7_15_35_240\Weave:=weave1,fine,tWeldgun \WObj:=owen_test;
    MoveL [[74.500,34.000,60.0],[3.73171E-05,0.870747,-0.491731,7.48179E-05],[0,1,-2,0],[9E9,9E9,9E9,9E9,9E9,9E9]],v500,fine,tWeldgun \WObj:=owen_test;
    WaitTime 10.0;
    MoveL [[50.500,40.000,60.0],[3.73171E-05,0.870747,-0.491731,7.48179E-05],[0,1,-2,0],[9E9,9E9,9E9,9E9,9E9,9E9]],v500,fine,tWeldgun \WObj:=owen_test;
    ArcLStart [[50.500,40.000,10.0],[3.73171E-05,0.870747,-0.491731,7.48179E-05],[0,1,-2,0],[9E9,9E9,9E9,9E9,9E9,9E9]],v10,seam1,Ni36_2_7_15_35_240\Weave:=weave1,fine,tWeldgun \WObj:=owen_test;
    ArcLEnd [[74.500,40.000,10.0],[3.73171E-05,0.870747,-0.491731,7.48179E-05],[0,1,-2,0],[9E9,9E9,9E9,9E9,9E9,9E9]],v10,seam1,Ni36_2_7_15_35_240\Weave:=weave1,fine,tWeldgun \WObj:=owen_test;
    MoveL [[74.500,40.000,60.0],[3.73171E-05,0.870747,-0.491731,7.48179E-05],[0,1,-2,0],[9E9,9E9,9E9,9E9,9E9,9E9]],v500,fine,tWeldgun \WObj:=owen_test;
    WaitTime 10.0;
    MoveL [[50.500,46.000,60.0],[3.73171E-05,0.870747,-0.491731,7.48179E-05],[0,1,-2,0],[9E9,9E9,9E9,9E9,9E9,9E9]],v500,fine,tWeldgun \WObj:=owen_test;
    ArcLStart [[50.500,46.000,10.0],[3.73171E-05,0.870747,-0.491731,7.48179E-05],[0,1,-2,0],[9E9,9E9,9E9,9E9,9E9,9E9]],v10,seam1,Ni36_2_7_15_35_240\Weave:=weave1,fine,tWeldgun \WObj:=owen_test;
    ArcLEnd [[74.500,46.000,10.0],[3.73171E-05,0.870747,-0.491731,7.48179E-05],[0,1,-2,0],[9E9,9E9,9E9,9E9,9E9,9E9]],v10,seam1,Ni36_2_7_15_35_240\Weave:=weave1,fine,tWeldgun \WObj:=owen_test;
    MoveL [[74.500,46.000,60.0],[3.73171E-05,0.870747,-0.491731,7.48179E-05],[0,1,-2,0],[9E9,9E9,9E9,9E9,9E9,9E9]],v500,fine,tWeldgun \WObj:=owen_test;
    WaitTime 10.0;
    MoveL [[50.500,52.000,60.0],[3.73171E-05,0.870747,-0.491731,7.48179E-05],[0,1,-2,0],[9E9,9E9,9E9,9E9,9E9,9E9]],v500,fine,tWeldgun \WObj:=owen_test;
    ArcLStart [[50.500,52.000,10.0],[3.73171E-05,0.870747,-0.491731,7.48179E-05],[0,1,-2,0],[9E9,9E9,9E9,9E9,9E9,9E9]],v10,seam1,Ni36_2_7_15_35_240\Weave:=weave1,fine,tWeldgun \WObj:=owen_test;
    ArcLEnd [[74.500,52.000,10.0],[3.73171E-05,0.870747,-0.491731,7.48179E-05],[0,1,-2,0],[9E9,9E9,9E9,9E9,9E9,9E9]],v10,seam1,Ni36_2_7_15_35_240\Weave:=weave1,fine,tWeldgun \WObj:=owen_test;
    MoveL [[74.500,52.000,60.0],[3.73171E-05,0.870747,-0.491731,7.48179E-05],[0,1,-2,0],[9E9,9E9,9E9,9E9,9E9,9E9]],v500,fine,tWeldgun \WObj:=owen_test;
    WaitTime 10.0;
    WaitTime 60.0;
    !============== layer #: 7 ==============

    ! ===== PASS 1 =====
    MoveL [[44.500,59.300,62.0],[3.73171E-05,0.870747,-0.491731,7.48179E-05],[0,1,-2,0],[9E9,9E9,9E9,9E9,9E9,9E9]],v500,fine,tWeldgun \WObj:=owen_test;
    ! Outer contour 0
    ArcLStart [[44.500,59.300,12.0],[3.73171E-05,0.870747,-0.491731,7.48179E-05],[0,1,-2,0],[9E9,9E9,9E9,9E9,9E9,9E9]],v10,seam1,Ni36_2_7_15_35_240\Weave:=weave1,fine,tWeldgun \WObj:=owen_test;
    ArcL [[80.500,59.300,12.0],[3.73171E-05,0.870747,-0.491731,7.48179E-05],[0,1,-2,0],[9E9,9E9,9E9,9E9,9E9,9E9]],v10,seam1,Ni36_2_7_15_35_240\Weave:=weave1,fine,tWeldgun \WObj:=owen_test;
    ArcL [[80.500,23.300,12.0],[3.73171E-05,0.870747,-0.491731,7.48179E-05],[0,1,-2,0],[9E9,9E9,9E9,9E9,9E9,9E9]],v10,seam1,Ni36_2_7_15_35_240\Weave:=weave1,fine,tWeldgun \WObj:=owen_test;
    ArcL [[44.500,23.300,12.0],[3.73171E-05,0.870747,-0.491731,7.48179E-05],[0,1,-2,0],[9E9,9E9,9E9,9E9,9E9,9E9]],v10,seam1,Ni36_2_7_15_35_240\Weave:=weave1,fine,tWeldgun \WObj:=owen_test;
    ArcLEnd [[44.500,59.300,12.0],[3.73171E-05,0.870747,-0.491731,7.48179E-05],[0,1,-2,0],[9E9,9E9,9E9,9E9,9E9,9E9]],v10,seam1,Ni36_2_7_15_35_240\Weave:=weave1,fine,tWeldgun \WObj:=owen_test;
    MoveL [[44.500,59.300,62.0],[3.73171E-05,0.870747,-0.491731,7.48179E-05],[0,1,-2,0],[9E9,9E9,9E9,9E9,9E9,9E9]],v500,fine,tWeldgun \WObj:=owen_test;
    WaitTime 10.0;

    ! ===== INFILL =====
    MoveL [[50.500,35.300,62.0],[3.73171E-05,0.870747,-0.491731,7.48179E-05],[0,1,-2,0],[9E9,9E9,9E9,9E9,9E9,9E9]],v500,fine,tWeldgun \WObj:=owen_test;
    ArcLStart [[50.500,35.300,12.0],[3.73171E-05,0.870747,-0.491731,7.48179E-05],[0,1,-2,0],[9E9,9E9,9E9,9E9,9E9,9E9]],v10,seam1,Ni36_2_7_15_35_240\Weave:=weave1,fine,tWeldgun \WObj:=owen_test;
    ArcLEnd [[74.500,35.300,12.0],[3.73171E-05,0.870747,-0.491731,7.48179E-05],[0,1,-2,0],[9E9,9E9,9E9,9E9,9E9,9E9]],v10,seam1,Ni36_2_7_15_35_240\Weave:=weave1,fine,tWeldgun \WObj:=owen_test;
    MoveL [[74.500,35.300,62.0],[3.73171E-05,0.870747,-0.491731,7.48179E-05],[0,1,-2,0],[9E9,9E9,9E9,9E9,9E9,9E9]],v500,fine,tWeldgun \WObj:=owen_test;
    WaitTime 10.0;
    MoveL [[50.500,41.300,62.0],[3.73171E-05,0.870747,-0.491731,7.48179E-05],[0,1,-2,0],[9E9,9E9,9E9,9E9,9E9,9E9]],v500,fine,tWeldgun \WObj:=owen_test;
    ArcLStart [[50.500,41.300,12.0],[3.73171E-05,0.870747,-0.491731,7.48179E-05],[0,1,-2,0],[9E9,9E9,9E9,9E9,9E9,9E9]],v10,seam1,Ni36_2_7_15_35_240\Weave:=weave1,fine,tWeldgun \WObj:=owen_test;
    ArcLEnd [[74.500,41.300,12.0],[3.73171E-05,0.870747,-0.491731,7.48179E-05],[0,1,-2,0],[9E9,9E9,9E9,9E9,9E9,9E9]],v10,seam1,Ni36_2_7_15_35_240\Weave:=weave1,fine,tWeldgun \WObj:=owen_test;
    MoveL [[74.500,41.300,62.0],[3.73171E-05,0.870747,-0.491731,7.48179E-05],[0,1,-2,0],[9E9,9E9,9E9,9E9,9E9,9E9]],v500,fine,tWeldgun \WObj:=owen_test;
    WaitTime 10.0;
    MoveL [[50.500,47.300,62.0],[3.73171E-05,0.870747,-0.491731,7.48179E-05],[0,1,-2,0],[9E9,9E9,9E9,9E9,9E9,9E9]],v500,fine,tWeldgun \WObj:=owen_test;
    ArcLStart [[50.500,47.300,12.0],[3.73171E-05,0.870747,-0.491731,7.48179E-05],[0,1,-2,0],[9E9,9E9,9E9,9E9,9E9,9E9]],v10,seam1,Ni36_2_7_15_35_240\Weave:=weave1,fine,tWeldgun \WObj:=owen_test;
    ArcLEnd [[74.500,47.300,12.0],[3.73171E-05,0.870747,-0.491731,7.48179E-05],[0,1,-2,0],[9E9,9E9,9E9,9E9,9E9,9E9]],v10,seam1,Ni36_2_7_15_35_240\Weave:=weave1,fine,tWeldgun \WObj:=owen_test;
    MoveL [[74.500,47.300,62.0],[3.73171E-05,0.870747,-0.491731,7.48179E-05],[0,1,-2,0],[9E9,9E9,9E9,9E9,9E9,9E9]],v500,fine,tWeldgun \WObj:=owen_test;
    WaitTime 10.0;
    MoveL [[50.500,53.300,62.0],[3.73171E-05,0.870747,-0.491731,7.48179E-05],[0,1,-2,0],[9E9,9E9,9E9,9E9,9E9,9E9]],v500,fine,tWeldgun \WObj:=owen_test;
    ArcLStart [[50.500,53.300,12.0],[3.73171E-05,0.870747,-0.491731,7.48179E-05],[0,1,-2,0],[9E9,9E9,9E9,9E9,9E9,9E9]],v10,seam1,Ni36_2_7_15_35_240\Weave:=weave1,fine,tWeldgun \WObj:=owen_test;
    ArcLEnd [[74.500,53.300,12.0],[3.73171E-05,0.870747,-0.491731,7.48179E-05],[0,1,-2,0],[9E9,9E9,9E9,9E9,9E9,9E9]],v10,seam1,Ni36_2_7_15_35_240\Weave:=weave1,fine,tWeldgun \WObj:=owen_test;
    MoveL [[74.500,53.300,62.0],[3.73171E-05,0.870747,-0.491731,7.48179E-05],[0,1,-2,0],[9E9,9E9,9E9,9E9,9E9,9E9]],v500,fine,tWeldgun \WObj:=owen_test;
    WaitTime 10.0;
    WaitTime 60.0;
    !============== layer #: 8 ==============

    ! ===== PASS 1 =====
    MoveL [[74.500,60.600,64.0],[3.73171E-05,0.870747,-0.491731,7.48179E-05],[0,1,-2,0],[9E9,9E9,9E9,9E9,9E9,9E9]],v500,fine,tWeldgun \WObj:=owen_test;
    ! Outer contour 0
    ArcLStart [[74.500,60.600,14.0],[3.73171E-05,0.870747,-0.491731,7.48179E-05],[0,1,-2,0],[9E9,9E9,9E9,9E9,9E9,9E9]],v10,seam1,Ni36_2_7_15_35_240\Weave:=weave1,fine,tWeldgun \WObj:=owen_test;
    ArcL [[80.500,60.600,14.0],[3.73171E-05,0.870747,-0.491731,7.48179E-05],[0,1,-2,0],[9E9,9E9,9E9,9E9,9E9,9E9]],v10,seam1,Ni36_2_7_15_35_240\Weave:=weave1,fine,tWeldgun \WObj:=owen_test;
    ArcL [[80.500,24.600,14.0],[3.73171E-05,0.870747,-0.491731,7.48179E-05],[0,1,-2,0],[9E9,9E9,9E9,9E9,9E9,9E9]],v10,seam1,Ni36_2_7_15_35_240\Weave:=weave1,fine,tWeldgun \WObj:=owen_test;
    ArcL [[44.500,24.600,14.0],[3.73171E-05,0.870747,-0.491731,7.48179E-05],[0,1,-2,0],[9E9,9E9,9E9,9E9,9E9,9E9]],v10,seam1,Ni36_2_7_15_35_240\Weave:=weave1,fine,tWeldgun \WObj:=owen_test;
    ArcL [[44.500,60.600,14.0],[3.73171E-05,0.870747,-0.491731,7.48179E-05],[0,1,-2,0],[9E9,9E9,9E9,9E9,9E9,9E9]],v10,seam1,Ni36_2_7_15_35_240\Weave:=weave1,fine,tWeldgun \WObj:=owen_test;
    ArcLEnd [[74.500,60.600,14.0],[3.73171E-05,0.870747,-0.491731,7.48179E-05],[0,1,-2,0],[9E9,9E9,9E9,9E9,9E9,9E9]],v10,seam1,Ni36_2_7_15_35_240\Weave:=weave1,fine,tWeldgun \WObj:=owen_test;
    MoveL [[74.500,60.600,64.0],[3.73171E-05,0.870747,-0.491731,7.48179E-05],[0,1,-2,0],[9E9,9E9,9E9,9E9,9E9,9E9]],v500,fine,tWeldgun \WObj:=owen_test;
    WaitTime 10.0;

    ! ===== INFILL =====
    MoveL [[50.500,30.600,64.0],[3.73171E-05,0.870747,-0.491731,7.48179E-05],[0,1,-2,0],[9E9,9E9,9E9,9E9,9E9,9E9]],v500,fine,tWeldgun \WObj:=owen_test;
    ArcLStart [[50.500,30.600,14.0],[3.73171E-05,0.870747,-0.491731,7.48179E-05],[0,1,-2,0],[9E9,9E9,9E9,9E9,9E9,9E9]],v10,seam1,Ni36_2_7_15_35_240\Weave:=weave1,fine,tWeldgun \WObj:=owen_test;
    ArcLEnd [[74.500,30.600,14.0],[3.73171E-05,0.870747,-0.491731,7.48179E-05],[0,1,-2,0],[9E9,9E9,9E9,9E9,9E9,9E9]],v10,seam1,Ni36_2_7_15_35_240\Weave:=weave1,fine,tWeldgun \WObj:=owen_test;
    MoveL [[74.500,30.600,64.0],[3.73171E-05,0.870747,-0.491731,7.48179E-05],[0,1,-2,0],[9E9,9E9,9E9,9E9,9E9,9E9]],v500,fine,tWeldgun \WObj:=owen_test;
    WaitTime 10.0;
    MoveL [[50.500,36.600,64.0],[3.73171E-05,0.870747,-0.491731,7.48179E-05],[0,1,-2,0],[9E9,9E9,9E9,9E9,9E9,9E9]],v500,fine,tWeldgun \WObj:=owen_test;
    ArcLStart [[50.500,36.600,14.0],[3.73171E-05,0.870747,-0.491731,7.48179E-05],[0,1,-2,0],[9E9,9E9,9E9,9E9,9E9,9E9]],v10,seam1,Ni36_2_7_15_35_240\Weave:=weave1,fine,tWeldgun \WObj:=owen_test;
    ArcLEnd [[74.500,36.600,14.0],[3.73171E-05,0.870747,-0.491731,7.48179E-05],[0,1,-2,0],[9E9,9E9,9E9,9E9,9E9,9E9]],v10,seam1,Ni36_2_7_15_35_240\Weave:=weave1,fine,tWeldgun \WObj:=owen_test;
    MoveL [[74.500,36.600,64.0],[3.73171E-05,0.870747,-0.491731,7.48179E-05],[0,1,-2,0],[9E9,9E9,9E9,9E9,9E9,9E9]],v500,fine,tWeldgun \WObj:=owen_test;
    WaitTime 10.0;
    MoveL [[50.500,42.600,64.0],[3.73171E-05,0.870747,-0.491731,7.48179E-05],[0,1,-2,0],[9E9,9E9,9E9,9E9,9E9,9E9]],v500,fine,tWeldgun \WObj:=owen_test;
    ArcLStart [[50.500,42.600,14.0],[3.73171E-05,0.870747,-0.491731,7.48179E-05],[0,1,-2,0],[9E9,9E9,9E9,9E9,9E9,9E9]],v10,seam1,Ni36_2_7_15_35_240\Weave:=weave1,fine,tWeldgun \WObj:=owen_test;
    ArcLEnd [[74.500,42.600,14.0],[3.73171E-05,0.870747,-0.491731,7.48179E-05],[0,1,-2,0],[9E9,9E9,9E9,9E9,9E9,9E9]],v10,seam1,Ni36_2_7_15_35_240\Weave:=weave1,fine,tWeldgun \WObj:=owen_test;
    MoveL [[74.500,42.600,64.0],[3.73171E-05,0.870747,-0.491731,7.48179E-05],[0,1,-2,0],[9E9,9E9,9E9,9E9,9E9,9E9]],v500,fine,tWeldgun \WObj:=owen_test;
    WaitTime 10.0;
    MoveL [[50.500,48.600,64.0],[3.73171E-05,0.870747,-0.491731,7.48179E-05],[0,1,-2,0],[9E9,9E9,9E9,9E9,9E9,9E9]],v500,fine,tWeldgun \WObj:=owen_test;
    ArcLStart [[50.500,48.600,14.0],[3.73171E-05,0.870747,-0.491731,7.48179E-05],[0,1,-2,0],[9E9,9E9,9E9,9E9,9E9,9E9]],v10,seam1,Ni36_2_7_15_35_240\Weave:=weave1,fine,tWeldgun \WObj:=owen_test;
    ArcLEnd [[74.500,48.600,14.0],[3.73171E-05,0.870747,-0.491731,7.48179E-05],[0,1,-2,0],[9E9,9E9,9E9,9E9,9E9,9E9]],v10,seam1,Ni36_2_7_15_35_240\Weave:=weave1,fine,tWeldgun \WObj:=owen_test;
    MoveL [[74.500,48.600,64.0],[3.73171E-05,0.870747,-0.491731,7.48179E-05],[0,1,-2,0],[9E9,9E9,9E9,9E9,9E9,9E9]],v500,fine,tWeldgun \WObj:=owen_test;
    WaitTime 10.0;
    MoveL [[50.500,54.600,64.0],[3.73171E-05,0.870747,-0.491731,7.48179E-05],[0,1,-2,0],[9E9,9E9,9E9,9E9,9E9,9E9]],v500,fine,tWeldgun \WObj:=owen_test;
    ArcLStart [[50.500,54.600,14.0],[3.73171E-05,0.870747,-0.491731,7.48179E-05],[0,1,-2,0],[9E9,9E9,9E9,9E9,9E9,9E9]],v10,seam1,Ni36_2_7_15_35_240\Weave:=weave1,fine,tWeldgun \WObj:=owen_test;
    ArcLEnd [[74.500,54.600,14.0],[3.73171E-05,0.870747,-0.491731,7.48179E-05],[0,1,-2,0],[9E9,9E9,9E9,9E9,9E9,9E9]],v10,seam1,Ni36_2_7_15_35_240\Weave:=weave1,fine,tWeldgun \WObj:=owen_test;
    MoveL [[74.500,54.600,64.0],[3.73171E-05,0.870747,-0.491731,7.48179E-05],[0,1,-2,0],[9E9,9E9,9E9,9E9,9E9,9E9]],v500,fine,tWeldgun \WObj:=owen_test;
    WaitTime 10.0;
    WaitTime 60.0;
    !============== layer #: 9 ==============

    ! ===== PASS 1 =====
    MoveL [[80.500,37.900,66.0],[3.73171E-05,0.870747,-0.491731,7.48179E-05],[0,1,-2,0],[9E9,9E9,9E9,9E9,9E9,9E9]],v500,fine,tWeldgun \WObj:=owen_test;
    ! Outer contour 0
    ArcLStart [[80.500,37.900,16.0],[3.73171E-05,0.870747,-0.491731,7.48179E-05],[0,1,-2,0],[9E9,9E9,9E9,9E9,9E9,9E9]],v10,seam1,Ni36_2_7_15_35_240\Weave:=weave1,fine,tWeldgun \WObj:=owen_test;
    ArcL [[80.500,25.900,16.0],[3.73171E-05,0.870747,-0.491731,7.48179E-05],[0,1,-2,0],[9E9,9E9,9E9,9E9,9E9,9E9]],v10,seam1,Ni36_2_7_15_35_240\Weave:=weave1,fine,tWeldgun \WObj:=owen_test;
    ArcL [[44.500,25.900,16.0],[3.73171E-05,0.870747,-0.491731,7.48179E-05],[0,1,-2,0],[9E9,9E9,9E9,9E9,9E9,9E9]],v10,seam1,Ni36_2_7_15_35_240\Weave:=weave1,fine,tWeldgun \WObj:=owen_test;
    ArcL [[44.500,61.900,16.0],[3.73171E-05,0.870747,-0.491731,7.48179E-05],[0,1,-2,0],[9E9,9E9,9E9,9E9,9E9,9E9]],v10,seam1,Ni36_2_7_15_35_240\Weave:=weave1,fine,tWeldgun \WObj:=owen_test;
    ArcL [[80.500,61.900,16.0],[3.73171E-05,0.870747,-0.491731,7.48179E-05],[0,1,-2,0],[9E9,9E9,9E9,9E9,9E9,9E9]],v10,seam1,Ni36_2_7_15_35_240\Weave:=weave1,fine,tWeldgun \WObj:=owen_test;
    ArcLEnd [[80.500,37.900,16.0],[3.73171E-05,0.870747,-0.491731,7.48179E-05],[0,1,-2,0],[9E9,9E9,9E9,9E9,9E9,9E9]],v10,seam1,Ni36_2_7_15_35_240\Weave:=weave1,fine,tWeldgun \WObj:=owen_test;
    MoveL [[80.500,37.900,66.0],[3.73171E-05,0.870747,-0.491731,7.48179E-05],[0,1,-2,0],[9E9,9E9,9E9,9E9,9E9,9E9]],v500,fine,tWeldgun \WObj:=owen_test;
    WaitTime 10.0;

    ! ===== INFILL =====
    MoveL [[50.500,31.900,66.0],[3.73171E-05,0.870747,-0.491731,7.48179E-05],[0,1,-2,0],[9E9,9E9,9E9,9E9,9E9,9E9]],v500,fine,tWeldgun \WObj:=owen_test;
    ArcLStart [[50.500,31.900,16.0],[3.73171E-05,0.870747,-0.491731,7.48179E-05],[0,1,-2,0],[9E9,9E9,9E9,9E9,9E9,9E9]],v10,seam1,Ni36_2_7_15_35_240\Weave:=weave1,fine,tWeldgun \WObj:=owen_test;
    ArcLEnd [[74.500,31.900,16.0],[3.73171E-05,0.870747,-0.491731,7.48179E-05],[0,1,-2,0],[9E9,9E9,9E9,9E9,9E9,9E9]],v10,seam1,Ni36_2_7_15_35_240\Weave:=weave1,fine,tWeldgun \WObj:=owen_test;
    MoveL [[74.500,31.900,66.0],[3.73171E-05,0.870747,-0.491731,7.48179E-05],[0,1,-2,0],[9E9,9E9,9E9,9E9,9E9,9E9]],v500,fine,tWeldgun \WObj:=owen_test;
    WaitTime 10.0;
    MoveL [[50.500,37.900,66.0],[3.73171E-05,0.870747,-0.491731,7.48179E-05],[0,1,-2,0],[9E9,9E9,9E9,9E9,9E9,9E9]],v500,fine,tWeldgun \WObj:=owen_test;
    ArcLStart [[50.500,37.900,16.0],[3.73171E-05,0.870747,-0.491731,7.48179E-05],[0,1,-2,0],[9E9,9E9,9E9,9E9,9E9,9E9]],v10,seam1,Ni36_2_7_15_35_240\Weave:=weave1,fine,tWeldgun \WObj:=owen_test;
    ArcLEnd [[74.500,37.900,16.0],[3.73171E-05,0.870747,-0.491731,7.48179E-05],[0,1,-2,0],[9E9,9E9,9E9,9E9,9E9,9E9]],v10,seam1,Ni36_2_7_15_35_240\Weave:=weave1,fine,tWeldgun \WObj:=owen_test;
    MoveL [[74.500,37.900,66.0],[3.73171E-05,0.870747,-0.491731,7.48179E-05],[0,1,-2,0],[9E9,9E9,9E9,9E9,9E9,9E9]],v500,fine,tWeldgun \WObj:=owen_test;
    WaitTime 10.0;
    MoveL [[50.500,43.900,66.0],[3.73171E-05,0.870747,-0.491731,7.48179E-05],[0,1,-2,0],[9E9,9E9,9E9,9E9,9E9,9E9]],v500,fine,tWeldgun \WObj:=owen_test;
    ArcLStart [[50.500,43.900,16.0],[3.73171E-05,0.870747,-0.491731,7.48179E-05],[0,1,-2,0],[9E9,9E9,9E9,9E9,9E9,9E9]],v10,seam1,Ni36_2_7_15_35_240\Weave:=weave1,fine,tWeldgun \WObj:=owen_test;
    ArcLEnd [[74.500,43.900,16.0],[3.73171E-05,0.870747,-0.491731,7.48179E-05],[0,1,-2,0],[9E9,9E9,9E9,9E9,9E9,9E9]],v10,seam1,Ni36_2_7_15_35_240\Weave:=weave1,fine,tWeldgun \WObj:=owen_test;
    MoveL [[74.500,43.900,66.0],[3.73171E-05,0.870747,-0.491731,7.48179E-05],[0,1,-2,0],[9E9,9E9,9E9,9E9,9E9,9E9]],v500,fine,tWeldgun \WObj:=owen_test;
    WaitTime 10.0;
    MoveL [[50.500,49.900,66.0],[3.73171E-05,0.870747,-0.491731,7.48179E-05],[0,1,-2,0],[9E9,9E9,9E9,9E9,9E9,9E9]],v500,fine,tWeldgun \WObj:=owen_test;
    ArcLStart [[50.500,49.900,16.0],[3.73171E-05,0.870747,-0.491731,7.48179E-05],[0,1,-2,0],[9E9,9E9,9E9,9E9,9E9,9E9]],v10,seam1,Ni36_2_7_15_35_240\Weave:=weave1,fine,tWeldgun \WObj:=owen_test;
    ArcLEnd [[74.500,49.900,16.0],[3.73171E-05,0.870747,-0.491731,7.48179E-05],[0,1,-2,0],[9E9,9E9,9E9,9E9,9E9,9E9]],v10,seam1,Ni36_2_7_15_35_240\Weave:=weave1,fine,tWeldgun \WObj:=owen_test;
    MoveL [[74.500,49.900,66.0],[3.73171E-05,0.870747,-0.491731,7.48179E-05],[0,1,-2,0],[9E9,9E9,9E9,9E9,9E9,9E9]],v500,fine,tWeldgun \WObj:=owen_test;
    WaitTime 10.0;
    MoveL [[50.500,55.900,66.0],[3.73171E-05,0.870747,-0.491731,7.48179E-05],[0,1,-2,0],[9E9,9E9,9E9,9E9,9E9,9E9]],v500,fine,tWeldgun \WObj:=owen_test;
    ArcLStart [[50.500,55.900,16.0],[3.73171E-05,0.870747,-0.491731,7.48179E-05],[0,1,-2,0],[9E9,9E9,9E9,9E9,9E9,9E9]],v10,seam1,Ni36_2_7_15_35_240\Weave:=weave1,fine,tWeldgun \WObj:=owen_test;
    ArcLEnd [[74.500,55.900,16.0],[3.73171E-05,0.870747,-0.491731,7.48179E-05],[0,1,-2,0],[9E9,9E9,9E9,9E9,9E9,9E9]],v10,seam1,Ni36_2_7_15_35_240\Weave:=weave1,fine,tWeldgun \WObj:=owen_test;
    MoveL [[74.500,55.900,66.0],[3.73171E-05,0.870747,-0.491731,7.48179E-05],[0,1,-2,0],[9E9,9E9,9E9,9E9,9E9,9E9]],v500,fine,tWeldgun \WObj:=owen_test;
    WaitTime 10.0;
    WaitTime 60.0;
    !============== layer #: 10 ==============

    ! ===== PASS 1 =====
    MoveL [[62.500,27.200,68.0],[3.73171E-05,0.870747,-0.491731,7.48179E-05],[0,1,-2,0],[9E9,9E9,9E9,9E9,9E9,9E9]],v500,fine,tWeldgun \WObj:=owen_test;
    ! Outer contour 0
    ArcLStart [[62.500,27.200,18.0],[3.73171E-05,0.870747,-0.491731,7.48179E-05],[0,1,-2,0],[9E9,9E9,9E9,9E9,9E9,9E9]],v10,seam1,Ni36_2_7_15_35_240\Weave:=weave1,fine,tWeldgun \WObj:=owen_test;
    ArcL [[44.500,27.200,18.0],[3.73171E-05,0.870747,-0.491731,7.48179E-05],[0,1,-2,0],[9E9,9E9,9E9,9E9,9E9,9E9]],v10,seam1,Ni36_2_7_15_35_240\Weave:=weave1,fine,tWeldgun \WObj:=owen_test;
    ArcL [[44.500,63.200,18.0],[3.73171E-05,0.870747,-0.491731,7.48179E-05],[0,1,-2,0],[9E9,9E9,9E9,9E9,9E9,9E9]],v10,seam1,Ni36_2_7_15_35_240\Weave:=weave1,fine,tWeldgun \WObj:=owen_test;
    ArcL [[80.500,63.200,18.0],[3.73171E-05,0.870747,-0.491731,7.48179E-05],[0,1,-2,0],[9E9,9E9,9E9,9E9,9E9,9E9]],v10,seam1,Ni36_2_7_15_35_240\Weave:=weave1,fine,tWeldgun \WObj:=owen_test;
    ArcL [[80.500,27.200,18.0],[3.73171E-05,0.870747,-0.491731,7.48179E-05],[0,1,-2,0],[9E9,9E9,9E9,9E9,9E9,9E9]],v10,seam1,Ni36_2_7_15_35_240\Weave:=weave1,fine,tWeldgun \WObj:=owen_test;
    ArcLEnd [[62.500,27.200,18.0],[3.73171E-05,0.870747,-0.491731,7.48179E-05],[0,1,-2,0],[9E9,9E9,9E9,9E9,9E9,9E9]],v10,seam1,Ni36_2_7_15_35_240\Weave:=weave1,fine,tWeldgun \WObj:=owen_test;
    MoveL [[62.500,27.200,68.0],[3.73171E-05,0.870747,-0.491731,7.48179E-05],[0,1,-2,0],[9E9,9E9,9E9,9E9,9E9,9E9]],v500,fine,tWeldgun \WObj:=owen_test;
    WaitTime 10.0;

    ! ===== INFILL =====
    MoveL [[50.500,33.200,68.0],[3.73171E-05,0.870747,-0.491731,7.48179E-05],[0,1,-2,0],[9E9,9E9,9E9,9E9,9E9,9E9]],v500,fine,tWeldgun \WObj:=owen_test;
    ArcLStart [[50.500,33.200,18.0],[3.73171E-05,0.870747,-0.491731,7.48179E-05],[0,1,-2,0],[9E9,9E9,9E9,9E9,9E9,9E9]],v10,seam1,Ni36_2_7_15_35_240\Weave:=weave1,fine,tWeldgun \WObj:=owen_test;
    ArcLEnd [[74.500,33.200,18.0],[3.73171E-05,0.870747,-0.491731,7.48179E-05],[0,1,-2,0],[9E9,9E9,9E9,9E9,9E9,9E9]],v10,seam1,Ni36_2_7_15_35_240\Weave:=weave1,fine,tWeldgun \WObj:=owen_test;
    MoveL [[74.500,33.200,68.0],[3.73171E-05,0.870747,-0.491731,7.48179E-05],[0,1,-2,0],[9E9,9E9,9E9,9E9,9E9,9E9]],v500,fine,tWeldgun \WObj:=owen_test;
    WaitTime 10.0;
    MoveL [[50.500,39.200,68.0],[3.73171E-05,0.870747,-0.491731,7.48179E-05],[0,1,-2,0],[9E9,9E9,9E9,9E9,9E9,9E9]],v500,fine,tWeldgun \WObj:=owen_test;
    ArcLStart [[50.500,39.200,18.0],[3.73171E-05,0.870747,-0.491731,7.48179E-05],[0,1,-2,0],[9E9,9E9,9E9,9E9,9E9,9E9]],v10,seam1,Ni36_2_7_15_35_240\Weave:=weave1,fine,tWeldgun \WObj:=owen_test;
    ArcLEnd [[74.500,39.200,18.0],[3.73171E-05,0.870747,-0.491731,7.48179E-05],[0,1,-2,0],[9E9,9E9,9E9,9E9,9E9,9E9]],v10,seam1,Ni36_2_7_15_35_240\Weave:=weave1,fine,tWeldgun \WObj:=owen_test;
    MoveL [[74.500,39.200,68.0],[3.73171E-05,0.870747,-0.491731,7.48179E-05],[0,1,-2,0],[9E9,9E9,9E9,9E9,9E9,9E9]],v500,fine,tWeldgun \WObj:=owen_test;
    WaitTime 10.0;
    MoveL [[50.500,45.200,68.0],[3.73171E-05,0.870747,-0.491731,7.48179E-05],[0,1,-2,0],[9E9,9E9,9E9,9E9,9E9,9E9]],v500,fine,tWeldgun \WObj:=owen_test;
    ArcLStart [[50.500,45.200,18.0],[3.73171E-05,0.870747,-0.491731,7.48179E-05],[0,1,-2,0],[9E9,9E9,9E9,9E9,9E9,9E9]],v10,seam1,Ni36_2_7_15_35_240\Weave:=weave1,fine,tWeldgun \WObj:=owen_test;
    ArcLEnd [[74.500,45.200,18.0],[3.73171E-05,0.870747,-0.491731,7.48179E-05],[0,1,-2,0],[9E9,9E9,9E9,9E9,9E9,9E9]],v10,seam1,Ni36_2_7_15_35_240\Weave:=weave1,fine,tWeldgun \WObj:=owen_test;
    MoveL [[74.500,45.200,68.0],[3.73171E-05,0.870747,-0.491731,7.48179E-05],[0,1,-2,0],[9E9,9E9,9E9,9E9,9E9,9E9]],v500,fine,tWeldgun \WObj:=owen_test;
    WaitTime 10.0;
    MoveL [[50.500,51.200,68.0],[3.73171E-05,0.870747,-0.491731,7.48179E-05],[0,1,-2,0],[9E9,9E9,9E9,9E9,9E9,9E9]],v500,fine,tWeldgun \WObj:=owen_test;
    ArcLStart [[50.500,51.200,18.0],[3.73171E-05,0.870747,-0.491731,7.48179E-05],[0,1,-2,0],[9E9,9E9,9E9,9E9,9E9,9E9]],v10,seam1,Ni36_2_7_15_35_240\Weave:=weave1,fine,tWeldgun \WObj:=owen_test;
    ArcLEnd [[74.500,51.200,18.0],[3.73171E-05,0.870747,-0.491731,7.48179E-05],[0,1,-2,0],[9E9,9E9,9E9,9E9,9E9,9E9]],v10,seam1,Ni36_2_7_15_35_240\Weave:=weave1,fine,tWeldgun \WObj:=owen_test;
    MoveL [[74.500,51.200,68.0],[3.73171E-05,0.870747,-0.491731,7.48179E-05],[0,1,-2,0],[9E9,9E9,9E9,9E9,9E9,9E9]],v500,fine,tWeldgun \WObj:=owen_test;
    WaitTime 10.0;
    MoveL [[50.500,57.200,68.0],[3.73171E-05,0.870747,-0.491731,7.48179E-05],[0,1,-2,0],[9E9,9E9,9E9,9E9,9E9,9E9]],v500,fine,tWeldgun \WObj:=owen_test;
    ArcLStart [[50.500,57.200,18.0],[3.73171E-05,0.870747,-0.491731,7.48179E-05],[0,1,-2,0],[9E9,9E9,9E9,9E9,9E9,9E9]],v10,seam1,Ni36_2_7_15_35_240\Weave:=weave1,fine,tWeldgun \WObj:=owen_test;
    ArcLEnd [[74.500,57.200,18.0],[3.73171E-05,0.870747,-0.491731,7.48179E-05],[0,1,-2,0],[9E9,9E9,9E9,9E9,9E9,9E9]],v10,seam1,Ni36_2_7_15_35_240\Weave:=weave1,fine,tWeldgun \WObj:=owen_test;
    MoveL [[74.500,57.200,68.0],[3.73171E-05,0.870747,-0.491731,7.48179E-05],[0,1,-2,0],[9E9,9E9,9E9,9E9,9E9,9E9]],v500,fine,tWeldgun \WObj:=owen_test;
    WaitTime 10.0;
    WaitTime 60.0;
ENDPROC
ENDMODULE
