MODULE testMotion

PROC test_1()
    !============== layer #: 1 ==============

    ! ===== PASS 1 =====
    MoveL [[44.500,58.000,50.0],[3.73171E-05,0.870747,-0.491731,7.48179E-05],[0,1,-2,0],[9E9,9E9,9E9,9E9,9E9,9E9]],v500,fine,tWeldgun \WObj:=owen_test;
    ! Outer contour 0
    ArcLStart [[44.500,58.000,0.0],[3.73171E-05,0.870747,-0.491731,7.48179E-05],[0,1,-2,0],[9E9,9E9,9E9,9E9,9E9,9E9]],v10,seam1,Ni36_2_7_15_35_240\Weave:=weave1,fine,tWeldgun \WObj:=owen_test;
    ArcL [[44.500,94.000,0.0],[3.73171E-05,0.870747,-0.491731,7.48179E-05],[0,1,-2,0],[9E9,9E9,9E9,9E9,9E9,9E9]],v10,seam1,Ni36_2_7_15_35_240\Weave:=weave1,fine,tWeldgun \WObj:=owen_test;
    ArcL [[80.500,94.000,0.0],[3.73171E-05,0.870747,-0.491731,7.48179E-05],[0,1,-2,0],[9E9,9E9,9E9,9E9,9E9,9E9]],v10,seam1,Ni36_2_7_15_35_240\Weave:=weave1,fine,tWeldgun \WObj:=owen_test;
    ArcL [[80.500,58.000,0.0],[3.73171E-05,0.870747,-0.491731,7.48179E-05],[0,1,-2,0],[9E9,9E9,9E9,9E9,9E9,9E9]],v10,seam1,Ni36_2_7_15_35_240\Weave:=weave1,fine,tWeldgun \WObj:=owen_test;
    ArcLEnd [[44.500,58.000,0.0],[3.73171E-05,0.870747,-0.491731,7.48179E-05],[0,1,-2,0],[9E9,9E9,9E9,9E9,9E9,9E9]],v10,seam1,Ni36_2_7_15_35_240\Weave:=weave1,fine,tWeldgun \WObj:=owen_test;
    MoveL [[44.500,58.000,50.0],[3.73171E-05,0.870747,-0.491731,7.48179E-05],[0,1,-2,0],[9E9,9E9,9E9,9E9,9E9,9E9]],v500,fine,tWeldgun \WObj:=owen_test;
    WaitTime 10.0;

    ! ===== INFILL =====
    MoveL [[56.500,70.000,50.0],[3.73171E-05,0.870747,-0.491731,7.48179E-05],[0,1,-2,0],[9E9,9E9,9E9,9E9,9E9,9E9]],v500,fine,tWeldgun \WObj:=owen_test;
    ArcLStart [[56.500,70.000,0.0],[3.73171E-05,0.870747,-0.491731,7.48179E-05],[0,1,-2,0],[9E9,9E9,9E9,9E9,9E9,9E9]],v10,seam1,Ni36_2_7_15_35_240\Weave:=weave1,fine,tWeldgun \WObj:=owen_test;
    ArcLEnd [[68.500,70.000,0.0],[3.73171E-05,0.870747,-0.491731,7.48179E-05],[0,1,-2,0],[9E9,9E9,9E9,9E9,9E9,9E9]],v10,seam1,Ni36_2_7_15_35_240\Weave:=weave1,fine,tWeldgun \WObj:=owen_test;
    MoveL [[68.500,70.000,50.0],[3.73171E-05,0.870747,-0.491731,7.48179E-05],[0,1,-2,0],[9E9,9E9,9E9,9E9,9E9,9E9]],v500,fine,tWeldgun \WObj:=owen_test;
    WaitTime 10.0;
    MoveL [[56.500,82.000,50.0],[3.73171E-05,0.870747,-0.491731,7.48179E-05],[0,1,-2,0],[9E9,9E9,9E9,9E9,9E9,9E9]],v500,fine,tWeldgun \WObj:=owen_test;
    ArcLStart [[56.500,82.000,0.0],[3.73171E-05,0.870747,-0.491731,7.48179E-05],[0,1,-2,0],[9E9,9E9,9E9,9E9,9E9,9E9]],v10,seam1,Ni36_2_7_15_35_240\Weave:=weave1,fine,tWeldgun \WObj:=owen_test;
    ArcLEnd [[68.500,82.000,0.0],[3.73171E-05,0.870747,-0.491731,7.48179E-05],[0,1,-2,0],[9E9,9E9,9E9,9E9,9E9,9E9]],v10,seam1,Ni36_2_7_15_35_240\Weave:=weave1,fine,tWeldgun \WObj:=owen_test;
    MoveL [[68.500,82.000,50.0],[3.73171E-05,0.870747,-0.491731,7.48179E-05],[0,1,-2,0],[9E9,9E9,9E9,9E9,9E9,9E9]],v500,fine,tWeldgun \WObj:=owen_test;
    WaitTime 10.0;
    WaitTime 60.0;
    !============== layer #: 2 ==============

    ! ===== PASS 1 =====
    MoveL [[44.500,58.960,52.0],[3.73171E-05,0.870747,-0.491731,7.48179E-05],[0,1,-2,0],[9E9,9E9,9E9,9E9,9E9,9E9]],v500,fine,tWeldgun \WObj:=owen_test;
    ! Outer contour 0
    ArcLStart [[44.500,58.960,2.0],[3.73171E-05,0.870747,-0.491731,7.48179E-05],[0,1,-2,0],[9E9,9E9,9E9,9E9,9E9,9E9]],v10,seam1,Ni36_2_7_15_35_240\Weave:=weave1,fine,tWeldgun \WObj:=owen_test;
    ArcL [[44.500,94.960,2.0],[3.73171E-05,0.870747,-0.491731,7.48179E-05],[0,1,-2,0],[9E9,9E9,9E9,9E9,9E9,9E9]],v10,seam1,Ni36_2_7_15_35_240\Weave:=weave1,fine,tWeldgun \WObj:=owen_test;
    ArcL [[80.500,94.960,2.0],[3.73171E-05,0.870747,-0.491731,7.48179E-05],[0,1,-2,0],[9E9,9E9,9E9,9E9,9E9,9E9]],v10,seam1,Ni36_2_7_15_35_240\Weave:=weave1,fine,tWeldgun \WObj:=owen_test;
    ArcL [[80.500,58.960,2.0],[3.73171E-05,0.870747,-0.491731,7.48179E-05],[0,1,-2,0],[9E9,9E9,9E9,9E9,9E9,9E9]],v10,seam1,Ni36_2_7_15_35_240\Weave:=weave1,fine,tWeldgun \WObj:=owen_test;
    ArcLEnd [[44.500,58.960,2.0],[3.73171E-05,0.870747,-0.491731,7.48179E-05],[0,1,-2,0],[9E9,9E9,9E9,9E9,9E9,9E9]],v10,seam1,Ni36_2_7_15_35_240\Weave:=weave1,fine,tWeldgun \WObj:=owen_test;
    MoveL [[44.500,58.960,52.0],[3.73171E-05,0.870747,-0.491731,7.48179E-05],[0,1,-2,0],[9E9,9E9,9E9,9E9,9E9,9E9]],v500,fine,tWeldgun \WObj:=owen_test;
    WaitTime 10.0;

    ! ===== INFILL =====
    MoveL [[56.500,70.960,52.0],[3.73171E-05,0.870747,-0.491731,7.48179E-05],[0,1,-2,0],[9E9,9E9,9E9,9E9,9E9,9E9]],v500,fine,tWeldgun \WObj:=owen_test;
    ArcLStart [[56.500,70.960,2.0],[3.73171E-05,0.870747,-0.491731,7.48179E-05],[0,1,-2,0],[9E9,9E9,9E9,9E9,9E9,9E9]],v10,seam1,Ni36_2_7_15_35_240\Weave:=weave1,fine,tWeldgun \WObj:=owen_test;
    ArcLEnd [[68.500,70.960,2.0],[3.73171E-05,0.870747,-0.491731,7.48179E-05],[0,1,-2,0],[9E9,9E9,9E9,9E9,9E9,9E9]],v10,seam1,Ni36_2_7_15_35_240\Weave:=weave1,fine,tWeldgun \WObj:=owen_test;
    MoveL [[68.500,70.960,52.0],[3.73171E-05,0.870747,-0.491731,7.48179E-05],[0,1,-2,0],[9E9,9E9,9E9,9E9,9E9,9E9]],v500,fine,tWeldgun \WObj:=owen_test;
    WaitTime 10.0;
    WaitTime 60.0;
    !============== layer #: 3 ==============

    ! ===== PASS 1 =====
    MoveL [[44.500,59.920,54.0],[3.73171E-05,0.870747,-0.491731,7.48179E-05],[0,1,-2,0],[9E9,9E9,9E9,9E9,9E9,9E9]],v500,fine,tWeldgun \WObj:=owen_test;
    ! Outer contour 0
    ArcLStart [[44.500,59.920,4.0],[3.73171E-05,0.870747,-0.491731,7.48179E-05],[0,1,-2,0],[9E9,9E9,9E9,9E9,9E9,9E9]],v10,seam1,Ni36_2_7_15_35_240\Weave:=weave1,fine,tWeldgun \WObj:=owen_test;
    ArcL [[44.500,95.920,4.0],[3.73171E-05,0.870747,-0.491731,7.48179E-05],[0,1,-2,0],[9E9,9E9,9E9,9E9,9E9,9E9]],v10,seam1,Ni36_2_7_15_35_240\Weave:=weave1,fine,tWeldgun \WObj:=owen_test;
    ArcL [[80.500,95.920,4.0],[3.73171E-05,0.870747,-0.491731,7.48179E-05],[0,1,-2,0],[9E9,9E9,9E9,9E9,9E9,9E9]],v10,seam1,Ni36_2_7_15_35_240\Weave:=weave1,fine,tWeldgun \WObj:=owen_test;
    ArcL [[80.500,59.920,4.0],[3.73171E-05,0.870747,-0.491731,7.48179E-05],[0,1,-2,0],[9E9,9E9,9E9,9E9,9E9,9E9]],v10,seam1,Ni36_2_7_15_35_240\Weave:=weave1,fine,tWeldgun \WObj:=owen_test;
    ArcLEnd [[44.500,59.920,4.0],[3.73171E-05,0.870747,-0.491731,7.48179E-05],[0,1,-2,0],[9E9,9E9,9E9,9E9,9E9,9E9]],v10,seam1,Ni36_2_7_15_35_240\Weave:=weave1,fine,tWeldgun \WObj:=owen_test;
    MoveL [[44.500,59.920,54.0],[3.73171E-05,0.870747,-0.491731,7.48179E-05],[0,1,-2,0],[9E9,9E9,9E9,9E9,9E9,9E9]],v500,fine,tWeldgun \WObj:=owen_test;
    WaitTime 10.0;

    ! ===== INFILL =====
    MoveL [[56.500,71.920,54.0],[3.73171E-05,0.870747,-0.491731,7.48179E-05],[0,1,-2,0],[9E9,9E9,9E9,9E9,9E9,9E9]],v500,fine,tWeldgun \WObj:=owen_test;
    ArcLStart [[56.500,71.920,4.0],[3.73171E-05,0.870747,-0.491731,7.48179E-05],[0,1,-2,0],[9E9,9E9,9E9,9E9,9E9,9E9]],v10,seam1,Ni36_2_7_15_35_240\Weave:=weave1,fine,tWeldgun \WObj:=owen_test;
    ArcLEnd [[68.500,71.920,4.0],[3.73171E-05,0.870747,-0.491731,7.48179E-05],[0,1,-2,0],[9E9,9E9,9E9,9E9,9E9,9E9]],v10,seam1,Ni36_2_7_15_35_240\Weave:=weave1,fine,tWeldgun \WObj:=owen_test;
    MoveL [[68.500,71.920,54.0],[3.73171E-05,0.870747,-0.491731,7.48179E-05],[0,1,-2,0],[9E9,9E9,9E9,9E9,9E9,9E9]],v500,fine,tWeldgun \WObj:=owen_test;
    WaitTime 10.0;
    WaitTime 60.0;
    !============== layer #: 4 ==============

    ! ===== PASS 1 =====
    MoveL [[44.500,60.880,56.0],[3.73171E-05,0.870747,-0.491731,7.48179E-05],[0,1,-2,0],[9E9,9E9,9E9,9E9,9E9,9E9]],v500,fine,tWeldgun \WObj:=owen_test;
    ! Outer contour 0
    ArcLStart [[44.500,60.880,6.0],[3.73171E-05,0.870747,-0.491731,7.48179E-05],[0,1,-2,0],[9E9,9E9,9E9,9E9,9E9,9E9]],v10,seam1,Ni36_2_7_15_35_240\Weave:=weave1,fine,tWeldgun \WObj:=owen_test;
    ArcL [[44.500,96.880,6.0],[3.73171E-05,0.870747,-0.491731,7.48179E-05],[0,1,-2,0],[9E9,9E9,9E9,9E9,9E9,9E9]],v10,seam1,Ni36_2_7_15_35_240\Weave:=weave1,fine,tWeldgun \WObj:=owen_test;
    ArcL [[80.500,96.880,6.0],[3.73171E-05,0.870747,-0.491731,7.48179E-05],[0,1,-2,0],[9E9,9E9,9E9,9E9,9E9,9E9]],v10,seam1,Ni36_2_7_15_35_240\Weave:=weave1,fine,tWeldgun \WObj:=owen_test;
    ArcL [[80.500,60.880,6.0],[3.73171E-05,0.870747,-0.491731,7.48179E-05],[0,1,-2,0],[9E9,9E9,9E9,9E9,9E9,9E9]],v10,seam1,Ni36_2_7_15_35_240\Weave:=weave1,fine,tWeldgun \WObj:=owen_test;
    ArcLEnd [[44.500,60.880,6.0],[3.73171E-05,0.870747,-0.491731,7.48179E-05],[0,1,-2,0],[9E9,9E9,9E9,9E9,9E9,9E9]],v10,seam1,Ni36_2_7_15_35_240\Weave:=weave1,fine,tWeldgun \WObj:=owen_test;
    MoveL [[44.500,60.880,56.0],[3.73171E-05,0.870747,-0.491731,7.48179E-05],[0,1,-2,0],[9E9,9E9,9E9,9E9,9E9,9E9]],v500,fine,tWeldgun \WObj:=owen_test;
    WaitTime 10.0;

    ! ===== INFILL =====
    MoveL [[56.500,72.880,56.0],[3.73171E-05,0.870747,-0.491731,7.48179E-05],[0,1,-2,0],[9E9,9E9,9E9,9E9,9E9,9E9]],v500,fine,tWeldgun \WObj:=owen_test;
    ArcLStart [[56.500,72.880,6.0],[3.73171E-05,0.870747,-0.491731,7.48179E-05],[0,1,-2,0],[9E9,9E9,9E9,9E9,9E9,9E9]],v10,seam1,Ni36_2_7_15_35_240\Weave:=weave1,fine,tWeldgun \WObj:=owen_test;
    ArcLEnd [[68.500,72.880,6.0],[3.73171E-05,0.870747,-0.491731,7.48179E-05],[0,1,-2,0],[9E9,9E9,9E9,9E9,9E9,9E9]],v10,seam1,Ni36_2_7_15_35_240\Weave:=weave1,fine,tWeldgun \WObj:=owen_test;
    MoveL [[68.500,72.880,56.0],[3.73171E-05,0.870747,-0.491731,7.48179E-05],[0,1,-2,0],[9E9,9E9,9E9,9E9,9E9,9E9]],v500,fine,tWeldgun \WObj:=owen_test;
    WaitTime 10.0;
    MoveL [[56.500,84.880,56.0],[3.73171E-05,0.870747,-0.491731,7.48179E-05],[0,1,-2,0],[9E9,9E9,9E9,9E9,9E9,9E9]],v500,fine,tWeldgun \WObj:=owen_test;
    ArcLStart [[56.500,84.880,6.0],[3.73171E-05,0.870747,-0.491731,7.48179E-05],[0,1,-2,0],[9E9,9E9,9E9,9E9,9E9,9E9]],v10,seam1,Ni36_2_7_15_35_240\Weave:=weave1,fine,tWeldgun \WObj:=owen_test;
    ArcLEnd [[68.500,84.880,6.0],[3.73171E-05,0.870747,-0.491731,7.48179E-05],[0,1,-2,0],[9E9,9E9,9E9,9E9,9E9,9E9]],v10,seam1,Ni36_2_7_15_35_240\Weave:=weave1,fine,tWeldgun \WObj:=owen_test;
    MoveL [[68.500,84.880,56.0],[3.73171E-05,0.870747,-0.491731,7.48179E-05],[0,1,-2,0],[9E9,9E9,9E9,9E9,9E9,9E9]],v500,fine,tWeldgun \WObj:=owen_test;
    WaitTime 10.0;
    WaitTime 60.0;
    !============== layer #: 5 ==============

    ! ===== PASS 1 =====
    MoveL [[44.500,61.840,58.0],[3.73171E-05,0.870747,-0.491731,7.48179E-05],[0,1,-2,0],[9E9,9E9,9E9,9E9,9E9,9E9]],v500,fine,tWeldgun \WObj:=owen_test;
    ! Outer contour 0
    ArcLStart [[44.500,61.840,8.0],[3.73171E-05,0.870747,-0.491731,7.48179E-05],[0,1,-2,0],[9E9,9E9,9E9,9E9,9E9,9E9]],v10,seam1,Ni36_2_7_15_35_240\Weave:=weave1,fine,tWeldgun \WObj:=owen_test;
    ArcL [[44.500,97.840,8.0],[3.73171E-05,0.870747,-0.491731,7.48179E-05],[0,1,-2,0],[9E9,9E9,9E9,9E9,9E9,9E9]],v10,seam1,Ni36_2_7_15_35_240\Weave:=weave1,fine,tWeldgun \WObj:=owen_test;
    ArcL [[80.500,97.840,8.0],[3.73171E-05,0.870747,-0.491731,7.48179E-05],[0,1,-2,0],[9E9,9E9,9E9,9E9,9E9,9E9]],v10,seam1,Ni36_2_7_15_35_240\Weave:=weave1,fine,tWeldgun \WObj:=owen_test;
    ArcL [[80.500,61.840,8.0],[3.73171E-05,0.870747,-0.491731,7.48179E-05],[0,1,-2,0],[9E9,9E9,9E9,9E9,9E9,9E9]],v10,seam1,Ni36_2_7_15_35_240\Weave:=weave1,fine,tWeldgun \WObj:=owen_test;
    ArcLEnd [[44.500,61.840,8.0],[3.73171E-05,0.870747,-0.491731,7.48179E-05],[0,1,-2,0],[9E9,9E9,9E9,9E9,9E9,9E9]],v10,seam1,Ni36_2_7_15_35_240\Weave:=weave1,fine,tWeldgun \WObj:=owen_test;
    MoveL [[44.500,61.840,58.0],[3.73171E-05,0.870747,-0.491731,7.48179E-05],[0,1,-2,0],[9E9,9E9,9E9,9E9,9E9,9E9]],v500,fine,tWeldgun \WObj:=owen_test;
    WaitTime 10.0;

    ! ===== INFILL =====
    MoveL [[56.500,73.840,58.0],[3.73171E-05,0.870747,-0.491731,7.48179E-05],[0,1,-2,0],[9E9,9E9,9E9,9E9,9E9,9E9]],v500,fine,tWeldgun \WObj:=owen_test;
    ArcLStart [[56.500,73.840,8.0],[3.73171E-05,0.870747,-0.491731,7.48179E-05],[0,1,-2,0],[9E9,9E9,9E9,9E9,9E9,9E9]],v10,seam1,Ni36_2_7_15_35_240\Weave:=weave1,fine,tWeldgun \WObj:=owen_test;
    ArcLEnd [[68.500,73.840,8.0],[3.73171E-05,0.870747,-0.491731,7.48179E-05],[0,1,-2,0],[9E9,9E9,9E9,9E9,9E9,9E9]],v10,seam1,Ni36_2_7_15_35_240\Weave:=weave1,fine,tWeldgun \WObj:=owen_test;
    MoveL [[68.500,73.840,58.0],[3.73171E-05,0.870747,-0.491731,7.48179E-05],[0,1,-2,0],[9E9,9E9,9E9,9E9,9E9,9E9]],v500,fine,tWeldgun \WObj:=owen_test;
    WaitTime 10.0;
    MoveL [[56.500,85.840,58.0],[3.73171E-05,0.870747,-0.491731,7.48179E-05],[0,1,-2,0],[9E9,9E9,9E9,9E9,9E9,9E9]],v500,fine,tWeldgun \WObj:=owen_test;
    ArcLStart [[56.500,85.840,8.0],[3.73171E-05,0.870747,-0.491731,7.48179E-05],[0,1,-2,0],[9E9,9E9,9E9,9E9,9E9,9E9]],v10,seam1,Ni36_2_7_15_35_240\Weave:=weave1,fine,tWeldgun \WObj:=owen_test;
    ArcLEnd [[68.500,85.840,8.0],[3.73171E-05,0.870747,-0.491731,7.48179E-05],[0,1,-2,0],[9E9,9E9,9E9,9E9,9E9,9E9]],v10,seam1,Ni36_2_7_15_35_240\Weave:=weave1,fine,tWeldgun \WObj:=owen_test;
    MoveL [[68.500,85.840,58.0],[3.73171E-05,0.870747,-0.491731,7.48179E-05],[0,1,-2,0],[9E9,9E9,9E9,9E9,9E9,9E9]],v500,fine,tWeldgun \WObj:=owen_test;
    WaitTime 10.0;
    WaitTime 60.0;
    !============== layer #: 6 ==============

    ! ===== PASS 1 =====
    MoveL [[44.500,62.800,60.0],[3.73171E-05,0.870747,-0.491731,7.48179E-05],[0,1,-2,0],[9E9,9E9,9E9,9E9,9E9,9E9]],v500,fine,tWeldgun \WObj:=owen_test;
    ! Outer contour 0
    ArcLStart [[44.500,62.800,10.0],[3.73171E-05,0.870747,-0.491731,7.48179E-05],[0,1,-2,0],[9E9,9E9,9E9,9E9,9E9,9E9]],v10,seam1,Ni36_2_7_15_35_240\Weave:=weave1,fine,tWeldgun \WObj:=owen_test;
    ArcL [[44.500,98.800,10.0],[3.73171E-05,0.870747,-0.491731,7.48179E-05],[0,1,-2,0],[9E9,9E9,9E9,9E9,9E9,9E9]],v10,seam1,Ni36_2_7_15_35_240\Weave:=weave1,fine,tWeldgun \WObj:=owen_test;
    ArcL [[80.500,98.800,10.0],[3.73171E-05,0.870747,-0.491731,7.48179E-05],[0,1,-2,0],[9E9,9E9,9E9,9E9,9E9,9E9]],v10,seam1,Ni36_2_7_15_35_240\Weave:=weave1,fine,tWeldgun \WObj:=owen_test;
    ArcL [[80.500,62.800,10.0],[3.73171E-05,0.870747,-0.491731,7.48179E-05],[0,1,-2,0],[9E9,9E9,9E9,9E9,9E9,9E9]],v10,seam1,Ni36_2_7_15_35_240\Weave:=weave1,fine,tWeldgun \WObj:=owen_test;
    ArcLEnd [[44.500,62.800,10.0],[3.73171E-05,0.870747,-0.491731,7.48179E-05],[0,1,-2,0],[9E9,9E9,9E9,9E9,9E9,9E9]],v10,seam1,Ni36_2_7_15_35_240\Weave:=weave1,fine,tWeldgun \WObj:=owen_test;
    MoveL [[44.500,62.800,60.0],[3.73171E-05,0.870747,-0.491731,7.48179E-05],[0,1,-2,0],[9E9,9E9,9E9,9E9,9E9,9E9]],v500,fine,tWeldgun \WObj:=owen_test;
    WaitTime 10.0;

    ! ===== INFILL =====
    MoveL [[56.500,74.800,60.0],[3.73171E-05,0.870747,-0.491731,7.48179E-05],[0,1,-2,0],[9E9,9E9,9E9,9E9,9E9,9E9]],v500,fine,tWeldgun \WObj:=owen_test;
    ArcLStart [[56.500,74.800,10.0],[3.73171E-05,0.870747,-0.491731,7.48179E-05],[0,1,-2,0],[9E9,9E9,9E9,9E9,9E9,9E9]],v10,seam1,Ni36_2_7_15_35_240\Weave:=weave1,fine,tWeldgun \WObj:=owen_test;
    ArcLEnd [[68.500,74.800,10.0],[3.73171E-05,0.870747,-0.491731,7.48179E-05],[0,1,-2,0],[9E9,9E9,9E9,9E9,9E9,9E9]],v10,seam1,Ni36_2_7_15_35_240\Weave:=weave1,fine,tWeldgun \WObj:=owen_test;
    MoveL [[68.500,74.800,60.0],[3.73171E-05,0.870747,-0.491731,7.48179E-05],[0,1,-2,0],[9E9,9E9,9E9,9E9,9E9,9E9]],v500,fine,tWeldgun \WObj:=owen_test;
    WaitTime 10.0;
    WaitTime 60.0;
    !============== layer #: 7 ==============

    ! ===== PASS 1 =====
    MoveL [[44.500,63.760,62.0],[3.73171E-05,0.870747,-0.491731,7.48179E-05],[0,1,-2,0],[9E9,9E9,9E9,9E9,9E9,9E9]],v500,fine,tWeldgun \WObj:=owen_test;
    ! Outer contour 0
    ArcLStart [[44.500,63.760,12.0],[3.73171E-05,0.870747,-0.491731,7.48179E-05],[0,1,-2,0],[9E9,9E9,9E9,9E9,9E9,9E9]],v10,seam1,Ni36_2_7_15_35_240\Weave:=weave1,fine,tWeldgun \WObj:=owen_test;
    ArcL [[44.500,99.760,12.0],[3.73171E-05,0.870747,-0.491731,7.48179E-05],[0,1,-2,0],[9E9,9E9,9E9,9E9,9E9,9E9]],v10,seam1,Ni36_2_7_15_35_240\Weave:=weave1,fine,tWeldgun \WObj:=owen_test;
    ArcL [[80.500,99.760,12.0],[3.73171E-05,0.870747,-0.491731,7.48179E-05],[0,1,-2,0],[9E9,9E9,9E9,9E9,9E9,9E9]],v10,seam1,Ni36_2_7_15_35_240\Weave:=weave1,fine,tWeldgun \WObj:=owen_test;
    ArcL [[80.500,63.760,12.0],[3.73171E-05,0.870747,-0.491731,7.48179E-05],[0,1,-2,0],[9E9,9E9,9E9,9E9,9E9,9E9]],v10,seam1,Ni36_2_7_15_35_240\Weave:=weave1,fine,tWeldgun \WObj:=owen_test;
    ArcLEnd [[44.500,63.760,12.0],[3.73171E-05,0.870747,-0.491731,7.48179E-05],[0,1,-2,0],[9E9,9E9,9E9,9E9,9E9,9E9]],v10,seam1,Ni36_2_7_15_35_240\Weave:=weave1,fine,tWeldgun \WObj:=owen_test;
    MoveL [[44.500,63.760,62.0],[3.73171E-05,0.870747,-0.491731,7.48179E-05],[0,1,-2,0],[9E9,9E9,9E9,9E9,9E9,9E9]],v500,fine,tWeldgun \WObj:=owen_test;
    WaitTime 10.0;

    ! ===== INFILL =====
    MoveL [[56.500,75.760,62.0],[3.73171E-05,0.870747,-0.491731,7.48179E-05],[0,1,-2,0],[9E9,9E9,9E9,9E9,9E9,9E9]],v500,fine,tWeldgun \WObj:=owen_test;
    ArcLStart [[56.500,75.760,12.0],[3.73171E-05,0.870747,-0.491731,7.48179E-05],[0,1,-2,0],[9E9,9E9,9E9,9E9,9E9,9E9]],v10,seam1,Ni36_2_7_15_35_240\Weave:=weave1,fine,tWeldgun \WObj:=owen_test;
    ArcLEnd [[68.500,75.760,12.0],[3.73171E-05,0.870747,-0.491731,7.48179E-05],[0,1,-2,0],[9E9,9E9,9E9,9E9,9E9,9E9]],v10,seam1,Ni36_2_7_15_35_240\Weave:=weave1,fine,tWeldgun \WObj:=owen_test;
    MoveL [[68.500,75.760,62.0],[3.73171E-05,0.870747,-0.491731,7.48179E-05],[0,1,-2,0],[9E9,9E9,9E9,9E9,9E9,9E9]],v500,fine,tWeldgun \WObj:=owen_test;
    WaitTime 10.0;
    MoveL [[56.500,87.760,62.0],[3.73171E-05,0.870747,-0.491731,7.48179E-05],[0,1,-2,0],[9E9,9E9,9E9,9E9,9E9,9E9]],v500,fine,tWeldgun \WObj:=owen_test;
    ArcLStart [[56.500,87.760,12.0],[3.73171E-05,0.870747,-0.491731,7.48179E-05],[0,1,-2,0],[9E9,9E9,9E9,9E9,9E9,9E9]],v10,seam1,Ni36_2_7_15_35_240\Weave:=weave1,fine,tWeldgun \WObj:=owen_test;
    ArcLEnd [[68.500,87.760,12.0],[3.73171E-05,0.870747,-0.491731,7.48179E-05],[0,1,-2,0],[9E9,9E9,9E9,9E9,9E9,9E9]],v10,seam1,Ni36_2_7_15_35_240\Weave:=weave1,fine,tWeldgun \WObj:=owen_test;
    MoveL [[68.500,87.760,62.0],[3.73171E-05,0.870747,-0.491731,7.48179E-05],[0,1,-2,0],[9E9,9E9,9E9,9E9,9E9,9E9]],v500,fine,tWeldgun \WObj:=owen_test;
    WaitTime 10.0;
    WaitTime 60.0;
    !============== layer #: 8 ==============

    ! ===== PASS 1 =====
    MoveL [[44.500,64.720,64.0],[3.73171E-05,0.870747,-0.491731,7.48179E-05],[0,1,-2,0],[9E9,9E9,9E9,9E9,9E9,9E9]],v500,fine,tWeldgun \WObj:=owen_test;
    ! Outer contour 0
    ArcLStart [[44.500,64.720,14.0],[3.73171E-05,0.870747,-0.491731,7.48179E-05],[0,1,-2,0],[9E9,9E9,9E9,9E9,9E9,9E9]],v10,seam1,Ni36_2_7_15_35_240\Weave:=weave1,fine,tWeldgun \WObj:=owen_test;
    ArcL [[44.500,65.440,14.0],[3.73171E-05,0.870747,-0.491731,7.48179E-05],[0,1,-2,0],[9E9,9E9,9E9,9E9,9E9,9E9]],v10,seam1,Ni36_2_7_15_35_240\Weave:=weave1,fine,tWeldgun \WObj:=owen_test;
    ArcL [[44.500,100.720,14.0],[3.73171E-05,0.870747,-0.491731,7.48179E-05],[0,1,-2,0],[9E9,9E9,9E9,9E9,9E9,9E9]],v10,seam1,Ni36_2_7_15_35_240\Weave:=weave1,fine,tWeldgun \WObj:=owen_test;
    ArcL [[80.500,100.720,14.0],[3.73171E-05,0.870747,-0.491731,7.48179E-05],[0,1,-2,0],[9E9,9E9,9E9,9E9,9E9,9E9]],v10,seam1,Ni36_2_7_15_35_240\Weave:=weave1,fine,tWeldgun \WObj:=owen_test;
    ArcL [[80.500,64.720,14.0],[3.73171E-05,0.870747,-0.491731,7.48179E-05],[0,1,-2,0],[9E9,9E9,9E9,9E9,9E9,9E9]],v10,seam1,Ni36_2_7_15_35_240\Weave:=weave1,fine,tWeldgun \WObj:=owen_test;
    ArcLEnd [[44.500,64.720,14.0],[3.73171E-05,0.870747,-0.491731,7.48179E-05],[0,1,-2,0],[9E9,9E9,9E9,9E9,9E9,9E9]],v10,seam1,Ni36_2_7_15_35_240\Weave:=weave1,fine,tWeldgun \WObj:=owen_test;
    MoveL [[44.500,64.720,64.0],[3.73171E-05,0.870747,-0.491731,7.48179E-05],[0,1,-2,0],[9E9,9E9,9E9,9E9,9E9,9E9]],v500,fine,tWeldgun \WObj:=owen_test;
    WaitTime 10.0;

    ! ===== INFILL =====
    MoveL [[56.500,76.720,64.0],[3.73171E-05,0.870747,-0.491731,7.48179E-05],[0,1,-2,0],[9E9,9E9,9E9,9E9,9E9,9E9]],v500,fine,tWeldgun \WObj:=owen_test;
    ArcLStart [[56.500,76.720,14.0],[3.73171E-05,0.870747,-0.491731,7.48179E-05],[0,1,-2,0],[9E9,9E9,9E9,9E9,9E9,9E9]],v10,seam1,Ni36_2_7_15_35_240\Weave:=weave1,fine,tWeldgun \WObj:=owen_test;
    ArcLEnd [[68.500,76.720,14.0],[3.73171E-05,0.870747,-0.491731,7.48179E-05],[0,1,-2,0],[9E9,9E9,9E9,9E9,9E9,9E9]],v10,seam1,Ni36_2_7_15_35_240\Weave:=weave1,fine,tWeldgun \WObj:=owen_test;
    MoveL [[68.500,76.720,64.0],[3.73171E-05,0.870747,-0.491731,7.48179E-05],[0,1,-2,0],[9E9,9E9,9E9,9E9,9E9,9E9]],v500,fine,tWeldgun \WObj:=owen_test;
    WaitTime 10.0;
    MoveL [[56.500,88.720,64.0],[3.73171E-05,0.870747,-0.491731,7.48179E-05],[0,1,-2,0],[9E9,9E9,9E9,9E9,9E9,9E9]],v500,fine,tWeldgun \WObj:=owen_test;
    ArcLStart [[56.500,88.720,14.0],[3.73171E-05,0.870747,-0.491731,7.48179E-05],[0,1,-2,0],[9E9,9E9,9E9,9E9,9E9,9E9]],v10,seam1,Ni36_2_7_15_35_240\Weave:=weave1,fine,tWeldgun \WObj:=owen_test;
    ArcLEnd [[68.500,88.720,14.0],[3.73171E-05,0.870747,-0.491731,7.48179E-05],[0,1,-2,0],[9E9,9E9,9E9,9E9,9E9,9E9]],v10,seam1,Ni36_2_7_15_35_240\Weave:=weave1,fine,tWeldgun \WObj:=owen_test;
    MoveL [[68.500,88.720,64.0],[3.73171E-05,0.870747,-0.491731,7.48179E-05],[0,1,-2,0],[9E9,9E9,9E9,9E9,9E9,9E9]],v500,fine,tWeldgun \WObj:=owen_test;
    WaitTime 10.0;
    WaitTime 60.0;
    !============== layer #: 9 ==============

    ! ===== PASS 1 =====
    MoveL [[44.500,65.680,66.0],[3.73171E-05,0.870747,-0.491731,7.48179E-05],[0,1,-2,0],[9E9,9E9,9E9,9E9,9E9,9E9]],v500,fine,tWeldgun \WObj:=owen_test;
    ! Outer contour 0
    ArcLStart [[44.500,65.680,16.0],[3.73171E-05,0.870747,-0.491731,7.48179E-05],[0,1,-2,0],[9E9,9E9,9E9,9E9,9E9,9E9]],v10,seam1,Ni36_2_7_15_35_240\Weave:=weave1,fine,tWeldgun \WObj:=owen_test;
    ArcL [[44.500,67.360,16.0],[3.73171E-05,0.870747,-0.491731,7.48179E-05],[0,1,-2,0],[9E9,9E9,9E9,9E9,9E9,9E9]],v10,seam1,Ni36_2_7_15_35_240\Weave:=weave1,fine,tWeldgun \WObj:=owen_test;
    ArcL [[44.500,101.680,16.0],[3.73171E-05,0.870747,-0.491731,7.48179E-05],[0,1,-2,0],[9E9,9E9,9E9,9E9,9E9,9E9]],v10,seam1,Ni36_2_7_15_35_240\Weave:=weave1,fine,tWeldgun \WObj:=owen_test;
    ArcL [[80.500,101.680,16.0],[3.73171E-05,0.870747,-0.491731,7.48179E-05],[0,1,-2,0],[9E9,9E9,9E9,9E9,9E9,9E9]],v10,seam1,Ni36_2_7_15_35_240\Weave:=weave1,fine,tWeldgun \WObj:=owen_test;
    ArcL [[80.500,65.680,16.0],[3.73171E-05,0.870747,-0.491731,7.48179E-05],[0,1,-2,0],[9E9,9E9,9E9,9E9,9E9,9E9]],v10,seam1,Ni36_2_7_15_35_240\Weave:=weave1,fine,tWeldgun \WObj:=owen_test;
    ArcLEnd [[44.500,65.680,16.0],[3.73171E-05,0.870747,-0.491731,7.48179E-05],[0,1,-2,0],[9E9,9E9,9E9,9E9,9E9,9E9]],v10,seam1,Ni36_2_7_15_35_240\Weave:=weave1,fine,tWeldgun \WObj:=owen_test;
    MoveL [[44.500,65.680,66.0],[3.73171E-05,0.870747,-0.491731,7.48179E-05],[0,1,-2,0],[9E9,9E9,9E9,9E9,9E9,9E9]],v500,fine,tWeldgun \WObj:=owen_test;
    WaitTime 10.0;

    ! ===== INFILL =====
    MoveL [[56.500,77.680,66.0],[3.73171E-05,0.870747,-0.491731,7.48179E-05],[0,1,-2,0],[9E9,9E9,9E9,9E9,9E9,9E9]],v500,fine,tWeldgun \WObj:=owen_test;
    ArcLStart [[56.500,77.680,16.0],[3.73171E-05,0.870747,-0.491731,7.48179E-05],[0,1,-2,0],[9E9,9E9,9E9,9E9,9E9,9E9]],v10,seam1,Ni36_2_7_15_35_240\Weave:=weave1,fine,tWeldgun \WObj:=owen_test;
    ArcLEnd [[68.500,77.680,16.0],[3.73171E-05,0.870747,-0.491731,7.48179E-05],[0,1,-2,0],[9E9,9E9,9E9,9E9,9E9,9E9]],v10,seam1,Ni36_2_7_15_35_240\Weave:=weave1,fine,tWeldgun \WObj:=owen_test;
    MoveL [[68.500,77.680,66.0],[3.73171E-05,0.870747,-0.491731,7.48179E-05],[0,1,-2,0],[9E9,9E9,9E9,9E9,9E9,9E9]],v500,fine,tWeldgun \WObj:=owen_test;
    WaitTime 10.0;
    MoveL [[56.500,89.680,66.0],[3.73171E-05,0.870747,-0.491731,7.48179E-05],[0,1,-2,0],[9E9,9E9,9E9,9E9,9E9,9E9]],v500,fine,tWeldgun \WObj:=owen_test;
    ArcLStart [[56.500,89.680,16.0],[3.73171E-05,0.870747,-0.491731,7.48179E-05],[0,1,-2,0],[9E9,9E9,9E9,9E9,9E9,9E9]],v10,seam1,Ni36_2_7_15_35_240\Weave:=weave1,fine,tWeldgun \WObj:=owen_test;
    ArcLEnd [[68.500,89.680,16.0],[3.73171E-05,0.870747,-0.491731,7.48179E-05],[0,1,-2,0],[9E9,9E9,9E9,9E9,9E9,9E9]],v10,seam1,Ni36_2_7_15_35_240\Weave:=weave1,fine,tWeldgun \WObj:=owen_test;
    MoveL [[68.500,89.680,66.0],[3.73171E-05,0.870747,-0.491731,7.48179E-05],[0,1,-2,0],[9E9,9E9,9E9,9E9,9E9,9E9]],v500,fine,tWeldgun \WObj:=owen_test;
    WaitTime 10.0;
    WaitTime 60.0;
    !============== layer #: 10 ==============

    ! ===== PASS 1 =====
    MoveL [[44.500,66.640,68.0],[3.73171E-05,0.870747,-0.491731,7.48179E-05],[0,1,-2,0],[9E9,9E9,9E9,9E9,9E9,9E9]],v500,fine,tWeldgun \WObj:=owen_test;
    ! Outer contour 0
    ArcLStart [[44.500,66.640,18.0],[3.73171E-05,0.870747,-0.491731,7.48179E-05],[0,1,-2,0],[9E9,9E9,9E9,9E9,9E9,9E9]],v10,seam1,Ni36_2_7_15_35_240\Weave:=weave1,fine,tWeldgun \WObj:=owen_test;
    ArcL [[44.500,69.280,18.0],[3.73171E-05,0.870747,-0.491731,7.48179E-05],[0,1,-2,0],[9E9,9E9,9E9,9E9,9E9,9E9]],v10,seam1,Ni36_2_7_15_35_240\Weave:=weave1,fine,tWeldgun \WObj:=owen_test;
    ArcL [[44.500,102.640,18.0],[3.73171E-05,0.870747,-0.491731,7.48179E-05],[0,1,-2,0],[9E9,9E9,9E9,9E9,9E9,9E9]],v10,seam1,Ni36_2_7_15_35_240\Weave:=weave1,fine,tWeldgun \WObj:=owen_test;
    ArcL [[77.860,102.640,18.0],[3.73171E-05,0.870747,-0.491731,7.48179E-05],[0,1,-2,0],[9E9,9E9,9E9,9E9,9E9,9E9]],v10,seam1,Ni36_2_7_15_35_240\Weave:=weave1,fine,tWeldgun \WObj:=owen_test;
    ArcL [[80.500,102.640,18.0],[3.73171E-05,0.870747,-0.491731,7.48179E-05],[0,1,-2,0],[9E9,9E9,9E9,9E9,9E9,9E9]],v10,seam1,Ni36_2_7_15_35_240\Weave:=weave1,fine,tWeldgun \WObj:=owen_test;
    ArcL [[80.500,66.640,18.0],[3.73171E-05,0.870747,-0.491731,7.48179E-05],[0,1,-2,0],[9E9,9E9,9E9,9E9,9E9,9E9]],v10,seam1,Ni36_2_7_15_35_240\Weave:=weave1,fine,tWeldgun \WObj:=owen_test;
    ArcLEnd [[44.500,66.640,18.0],[3.73171E-05,0.870747,-0.491731,7.48179E-05],[0,1,-2,0],[9E9,9E9,9E9,9E9,9E9,9E9]],v10,seam1,Ni36_2_7_15_35_240\Weave:=weave1,fine,tWeldgun \WObj:=owen_test;
    MoveL [[44.500,66.640,68.0],[3.73171E-05,0.870747,-0.491731,7.48179E-05],[0,1,-2,0],[9E9,9E9,9E9,9E9,9E9,9E9]],v500,fine,tWeldgun \WObj:=owen_test;
    WaitTime 10.0;

    ! ===== INFILL =====
    MoveL [[56.500,78.640,68.0],[3.73171E-05,0.870747,-0.491731,7.48179E-05],[0,1,-2,0],[9E9,9E9,9E9,9E9,9E9,9E9]],v500,fine,tWeldgun \WObj:=owen_test;
    ArcLStart [[56.500,78.640,18.0],[3.73171E-05,0.870747,-0.491731,7.48179E-05],[0,1,-2,0],[9E9,9E9,9E9,9E9,9E9,9E9]],v10,seam1,Ni36_2_7_15_35_240\Weave:=weave1,fine,tWeldgun \WObj:=owen_test;
    ArcLEnd [[68.500,78.640,18.0],[3.73171E-05,0.870747,-0.491731,7.48179E-05],[0,1,-2,0],[9E9,9E9,9E9,9E9,9E9,9E9]],v10,seam1,Ni36_2_7_15_35_240\Weave:=weave1,fine,tWeldgun \WObj:=owen_test;
    MoveL [[68.500,78.640,68.0],[3.73171E-05,0.870747,-0.491731,7.48179E-05],[0,1,-2,0],[9E9,9E9,9E9,9E9,9E9,9E9]],v500,fine,tWeldgun \WObj:=owen_test;
    WaitTime 10.0;
    WaitTime 60.0;
    !============== layer #: 11 ==============

    ! ===== PASS 1 =====
    MoveL [[44.500,67.600,70.0],[3.73171E-05,0.870747,-0.491731,7.48179E-05],[0,1,-2,0],[9E9,9E9,9E9,9E9,9E9,9E9]],v500,fine,tWeldgun \WObj:=owen_test;
    ! Outer contour 0
    ArcLStart [[44.500,67.600,20.0],[3.73171E-05,0.870747,-0.491731,7.48179E-05],[0,1,-2,0],[9E9,9E9,9E9,9E9,9E9,9E9]],v10,seam1,Ni36_2_7_15_35_240\Weave:=weave1,fine,tWeldgun \WObj:=owen_test;
    ArcL [[44.500,71.200,20.0],[3.73171E-05,0.870747,-0.491731,7.48179E-05],[0,1,-2,0],[9E9,9E9,9E9,9E9,9E9,9E9]],v10,seam1,Ni36_2_7_15_35_240\Weave:=weave1,fine,tWeldgun \WObj:=owen_test;
    ArcL [[44.500,103.600,20.0],[3.73171E-05,0.870747,-0.491731,7.48179E-05],[0,1,-2,0],[9E9,9E9,9E9,9E9,9E9,9E9]],v10,seam1,Ni36_2_7_15_35_240\Weave:=weave1,fine,tWeldgun \WObj:=owen_test;
    ArcL [[80.500,103.600,20.0],[3.73171E-05,0.870747,-0.491731,7.48179E-05],[0,1,-2,0],[9E9,9E9,9E9,9E9,9E9,9E9]],v10,seam1,Ni36_2_7_15_35_240\Weave:=weave1,fine,tWeldgun \WObj:=owen_test;
    ArcL [[80.500,67.600,20.0],[3.73171E-05,0.870747,-0.491731,7.48179E-05],[0,1,-2,0],[9E9,9E9,9E9,9E9,9E9,9E9]],v10,seam1,Ni36_2_7_15_35_240\Weave:=weave1,fine,tWeldgun \WObj:=owen_test;
    ArcLEnd [[44.500,67.600,20.0],[3.73171E-05,0.870747,-0.491731,7.48179E-05],[0,1,-2,0],[9E9,9E9,9E9,9E9,9E9,9E9]],v10,seam1,Ni36_2_7_15_35_240\Weave:=weave1,fine,tWeldgun \WObj:=owen_test;
    MoveL [[44.500,67.600,70.0],[3.73171E-05,0.870747,-0.491731,7.48179E-05],[0,1,-2,0],[9E9,9E9,9E9,9E9,9E9,9E9]],v500,fine,tWeldgun \WObj:=owen_test;
    WaitTime 10.0;

    ! ===== INFILL =====
    MoveL [[56.500,79.600,70.0],[3.73171E-05,0.870747,-0.491731,7.48179E-05],[0,1,-2,0],[9E9,9E9,9E9,9E9,9E9,9E9]],v500,fine,tWeldgun \WObj:=owen_test;
    ArcLStart [[56.500,79.600,20.0],[3.73171E-05,0.870747,-0.491731,7.48179E-05],[0,1,-2,0],[9E9,9E9,9E9,9E9,9E9,9E9]],v10,seam1,Ni36_2_7_15_35_240\Weave:=weave1,fine,tWeldgun \WObj:=owen_test;
    ArcLEnd [[68.500,79.600,20.0],[3.73171E-05,0.870747,-0.491731,7.48179E-05],[0,1,-2,0],[9E9,9E9,9E9,9E9,9E9,9E9]],v10,seam1,Ni36_2_7_15_35_240\Weave:=weave1,fine,tWeldgun \WObj:=owen_test;
    MoveL [[68.500,79.600,70.0],[3.73171E-05,0.870747,-0.491731,7.48179E-05],[0,1,-2,0],[9E9,9E9,9E9,9E9,9E9,9E9]],v500,fine,tWeldgun \WObj:=owen_test;
    WaitTime 10.0;
    MoveL [[56.500,91.600,70.0],[3.73171E-05,0.870747,-0.491731,7.48179E-05],[0,1,-2,0],[9E9,9E9,9E9,9E9,9E9,9E9]],v500,fine,tWeldgun \WObj:=owen_test;
    ArcLStart [[56.500,91.600,20.0],[3.73171E-05,0.870747,-0.491731,7.48179E-05],[0,1,-2,0],[9E9,9E9,9E9,9E9,9E9,9E9]],v10,seam1,Ni36_2_7_15_35_240\Weave:=weave1,fine,tWeldgun \WObj:=owen_test;
    ArcLEnd [[68.500,91.600,20.0],[3.73171E-05,0.870747,-0.491731,7.48179E-05],[0,1,-2,0],[9E9,9E9,9E9,9E9,9E9,9E9]],v10,seam1,Ni36_2_7_15_35_240\Weave:=weave1,fine,tWeldgun \WObj:=owen_test;
    MoveL [[68.500,91.600,70.0],[3.73171E-05,0.870747,-0.491731,7.48179E-05],[0,1,-2,0],[9E9,9E9,9E9,9E9,9E9,9E9]],v500,fine,tWeldgun \WObj:=owen_test;
    WaitTime 10.0;
    WaitTime 60.0;
    !============== layer #: 12 ==============

    ! ===== PASS 1 =====
    MoveL [[44.500,68.560,72.0],[3.73171E-05,0.870747,-0.491731,7.48179E-05],[0,1,-2,0],[9E9,9E9,9E9,9E9,9E9,9E9]],v500,fine,tWeldgun \WObj:=owen_test;
    ! Outer contour 0
    ArcLStart [[44.500,68.560,22.0],[3.73171E-05,0.870747,-0.491731,7.48179E-05],[0,1,-2,0],[9E9,9E9,9E9,9E9,9E9,9E9]],v10,seam1,Ni36_2_7_15_35_240\Weave:=weave1,fine,tWeldgun \WObj:=owen_test;
    ArcL [[44.500,73.120,22.0],[3.73171E-05,0.870747,-0.491731,7.48179E-05],[0,1,-2,0],[9E9,9E9,9E9,9E9,9E9,9E9]],v10,seam1,Ni36_2_7_15_35_240\Weave:=weave1,fine,tWeldgun \WObj:=owen_test;
    ArcL [[44.500,104.560,22.0],[3.73171E-05,0.870747,-0.491731,7.48179E-05],[0,1,-2,0],[9E9,9E9,9E9,9E9,9E9,9E9]],v10,seam1,Ni36_2_7_15_35_240\Weave:=weave1,fine,tWeldgun \WObj:=owen_test;
    ArcL [[80.500,104.560,22.0],[3.73171E-05,0.870747,-0.491731,7.48179E-05],[0,1,-2,0],[9E9,9E9,9E9,9E9,9E9,9E9]],v10,seam1,Ni36_2_7_15_35_240\Weave:=weave1,fine,tWeldgun \WObj:=owen_test;
    ArcL [[80.500,68.560,22.0],[3.73171E-05,0.870747,-0.491731,7.48179E-05],[0,1,-2,0],[9E9,9E9,9E9,9E9,9E9,9E9]],v10,seam1,Ni36_2_7_15_35_240\Weave:=weave1,fine,tWeldgun \WObj:=owen_test;
    ArcLEnd [[44.500,68.560,22.0],[3.73171E-05,0.870747,-0.491731,7.48179E-05],[0,1,-2,0],[9E9,9E9,9E9,9E9,9E9,9E9]],v10,seam1,Ni36_2_7_15_35_240\Weave:=weave1,fine,tWeldgun \WObj:=owen_test;
    MoveL [[44.500,68.560,72.0],[3.73171E-05,0.870747,-0.491731,7.48179E-05],[0,1,-2,0],[9E9,9E9,9E9,9E9,9E9,9E9]],v500,fine,tWeldgun \WObj:=owen_test;
    WaitTime 10.0;

    ! ===== INFILL =====
    MoveL [[56.500,80.560,72.0],[3.73171E-05,0.870747,-0.491731,7.48179E-05],[0,1,-2,0],[9E9,9E9,9E9,9E9,9E9,9E9]],v500,fine,tWeldgun \WObj:=owen_test;
    ArcLStart [[56.500,80.560,22.0],[3.73171E-05,0.870747,-0.491731,7.48179E-05],[0,1,-2,0],[9E9,9E9,9E9,9E9,9E9,9E9]],v10,seam1,Ni36_2_7_15_35_240\Weave:=weave1,fine,tWeldgun \WObj:=owen_test;
    ArcLEnd [[68.500,80.560,22.0],[3.73171E-05,0.870747,-0.491731,7.48179E-05],[0,1,-2,0],[9E9,9E9,9E9,9E9,9E9,9E9]],v10,seam1,Ni36_2_7_15_35_240\Weave:=weave1,fine,tWeldgun \WObj:=owen_test;
    MoveL [[68.500,80.560,72.0],[3.73171E-05,0.870747,-0.491731,7.48179E-05],[0,1,-2,0],[9E9,9E9,9E9,9E9,9E9,9E9]],v500,fine,tWeldgun \WObj:=owen_test;
    WaitTime 10.0;
    MoveL [[56.500,92.560,72.0],[3.73171E-05,0.870747,-0.491731,7.48179E-05],[0,1,-2,0],[9E9,9E9,9E9,9E9,9E9,9E9]],v500,fine,tWeldgun \WObj:=owen_test;
    ArcLStart [[56.500,92.560,22.0],[3.73171E-05,0.870747,-0.491731,7.48179E-05],[0,1,-2,0],[9E9,9E9,9E9,9E9,9E9,9E9]],v10,seam1,Ni36_2_7_15_35_240\Weave:=weave1,fine,tWeldgun \WObj:=owen_test;
    ArcLEnd [[68.500,92.560,22.0],[3.73171E-05,0.870747,-0.491731,7.48179E-05],[0,1,-2,0],[9E9,9E9,9E9,9E9,9E9,9E9]],v10,seam1,Ni36_2_7_15_35_240\Weave:=weave1,fine,tWeldgun \WObj:=owen_test;
    MoveL [[68.500,92.560,72.0],[3.73171E-05,0.870747,-0.491731,7.48179E-05],[0,1,-2,0],[9E9,9E9,9E9,9E9,9E9,9E9]],v500,fine,tWeldgun \WObj:=owen_test;
    WaitTime 10.0;
    WaitTime 60.0;
    !============== layer #: 13 ==============

    ! ===== PASS 1 =====
    MoveL [[44.500,69.520,74.0],[3.73171E-05,0.870747,-0.491731,7.48179E-05],[0,1,-2,0],[9E9,9E9,9E9,9E9,9E9,9E9]],v500,fine,tWeldgun \WObj:=owen_test;
    ! Outer contour 0
    ArcLStart [[44.500,69.520,24.0],[3.73171E-05,0.870747,-0.491731,7.48179E-05],[0,1,-2,0],[9E9,9E9,9E9,9E9,9E9,9E9]],v10,seam1,Ni36_2_7_15_35_240\Weave:=weave1,fine,tWeldgun \WObj:=owen_test;
    ArcL [[44.500,75.040,24.0],[3.73171E-05,0.870747,-0.491731,7.48179E-05],[0,1,-2,0],[9E9,9E9,9E9,9E9,9E9,9E9]],v10,seam1,Ni36_2_7_15_35_240\Weave:=weave1,fine,tWeldgun \WObj:=owen_test;
    ArcL [[44.500,105.520,24.0],[3.73171E-05,0.870747,-0.491731,7.48179E-05],[0,1,-2,0],[9E9,9E9,9E9,9E9,9E9,9E9]],v10,seam1,Ni36_2_7_15_35_240\Weave:=weave1,fine,tWeldgun \WObj:=owen_test;
    ArcL [[74.980,105.520,24.0],[3.73171E-05,0.870747,-0.491731,7.48179E-05],[0,1,-2,0],[9E9,9E9,9E9,9E9,9E9,9E9]],v10,seam1,Ni36_2_7_15_35_240\Weave:=weave1,fine,tWeldgun \WObj:=owen_test;
    ArcL [[80.500,105.520,24.0],[3.73171E-05,0.870747,-0.491731,7.48179E-05],[0,1,-2,0],[9E9,9E9,9E9,9E9,9E9,9E9]],v10,seam1,Ni36_2_7_15_35_240\Weave:=weave1,fine,tWeldgun \WObj:=owen_test;
    ArcL [[80.500,69.520,24.0],[3.73171E-05,0.870747,-0.491731,7.48179E-05],[0,1,-2,0],[9E9,9E9,9E9,9E9,9E9,9E9]],v10,seam1,Ni36_2_7_15_35_240\Weave:=weave1,fine,tWeldgun \WObj:=owen_test;
    ArcLEnd [[44.500,69.520,24.0],[3.73171E-05,0.870747,-0.491731,7.48179E-05],[0,1,-2,0],[9E9,9E9,9E9,9E9,9E9,9E9]],v10,seam1,Ni36_2_7_15_35_240\Weave:=weave1,fine,tWeldgun \WObj:=owen_test;
    MoveL [[44.500,69.520,74.0],[3.73171E-05,0.870747,-0.491731,7.48179E-05],[0,1,-2,0],[9E9,9E9,9E9,9E9,9E9,9E9]],v500,fine,tWeldgun \WObj:=owen_test;
    WaitTime 10.0;

    ! ===== INFILL =====
    MoveL [[56.500,81.520,74.0],[3.73171E-05,0.870747,-0.491731,7.48179E-05],[0,1,-2,0],[9E9,9E9,9E9,9E9,9E9,9E9]],v500,fine,tWeldgun \WObj:=owen_test;
    ArcLStart [[56.500,81.520,24.0],[3.73171E-05,0.870747,-0.491731,7.48179E-05],[0,1,-2,0],[9E9,9E9,9E9,9E9,9E9,9E9]],v10,seam1,Ni36_2_7_15_35_240\Weave:=weave1,fine,tWeldgun \WObj:=owen_test;
    ArcLEnd [[68.500,81.520,24.0],[3.73171E-05,0.870747,-0.491731,7.48179E-05],[0,1,-2,0],[9E9,9E9,9E9,9E9,9E9,9E9]],v10,seam1,Ni36_2_7_15_35_240\Weave:=weave1,fine,tWeldgun \WObj:=owen_test;
    MoveL [[68.500,81.520,74.0],[3.73171E-05,0.870747,-0.491731,7.48179E-05],[0,1,-2,0],[9E9,9E9,9E9,9E9,9E9,9E9]],v500,fine,tWeldgun \WObj:=owen_test;
    WaitTime 10.0;
    WaitTime 60.0;
    !============== layer #: 14 ==============

    ! ===== PASS 1 =====
    MoveL [[44.500,70.480,76.0],[3.73171E-05,0.870747,-0.491731,7.48179E-05],[0,1,-2,0],[9E9,9E9,9E9,9E9,9E9,9E9]],v500,fine,tWeldgun \WObj:=owen_test;
    ! Outer contour 0
    ArcLStart [[44.500,70.480,26.0],[3.73171E-05,0.870747,-0.491731,7.48179E-05],[0,1,-2,0],[9E9,9E9,9E9,9E9,9E9,9E9]],v10,seam1,Ni36_2_7_15_35_240\Weave:=weave1,fine,tWeldgun \WObj:=owen_test;
    ArcL [[44.500,76.960,26.0],[3.73171E-05,0.870747,-0.491731,7.48179E-05],[0,1,-2,0],[9E9,9E9,9E9,9E9,9E9,9E9]],v10,seam1,Ni36_2_7_15_35_240\Weave:=weave1,fine,tWeldgun \WObj:=owen_test;
    ArcL [[44.500,106.480,26.0],[3.73171E-05,0.870747,-0.491731,7.48179E-05],[0,1,-2,0],[9E9,9E9,9E9,9E9,9E9,9E9]],v10,seam1,Ni36_2_7_15_35_240\Weave:=weave1,fine,tWeldgun \WObj:=owen_test;
    ArcL [[80.500,106.480,26.0],[3.73171E-05,0.870747,-0.491731,7.48179E-05],[0,1,-2,0],[9E9,9E9,9E9,9E9,9E9,9E9]],v10,seam1,Ni36_2_7_15_35_240\Weave:=weave1,fine,tWeldgun \WObj:=owen_test;
    ArcL [[80.500,70.480,26.0],[3.73171E-05,0.870747,-0.491731,7.48179E-05],[0,1,-2,0],[9E9,9E9,9E9,9E9,9E9,9E9]],v10,seam1,Ni36_2_7_15_35_240\Weave:=weave1,fine,tWeldgun \WObj:=owen_test;
    ArcLEnd [[44.500,70.480,26.0],[3.73171E-05,0.870747,-0.491731,7.48179E-05],[0,1,-2,0],[9E9,9E9,9E9,9E9,9E9,9E9]],v10,seam1,Ni36_2_7_15_35_240\Weave:=weave1,fine,tWeldgun \WObj:=owen_test;
    MoveL [[44.500,70.480,76.0],[3.73171E-05,0.870747,-0.491731,7.48179E-05],[0,1,-2,0],[9E9,9E9,9E9,9E9,9E9,9E9]],v500,fine,tWeldgun \WObj:=owen_test;
    WaitTime 10.0;

    ! ===== INFILL =====
    MoveL [[56.500,82.480,76.0],[3.73171E-05,0.870747,-0.491731,7.48179E-05],[0,1,-2,0],[9E9,9E9,9E9,9E9,9E9,9E9]],v500,fine,tWeldgun \WObj:=owen_test;
    ArcLStart [[56.500,82.480,26.0],[3.73171E-05,0.870747,-0.491731,7.48179E-05],[0,1,-2,0],[9E9,9E9,9E9,9E9,9E9,9E9]],v10,seam1,Ni36_2_7_15_35_240\Weave:=weave1,fine,tWeldgun \WObj:=owen_test;
    ArcLEnd [[68.500,82.480,26.0],[3.73171E-05,0.870747,-0.491731,7.48179E-05],[0,1,-2,0],[9E9,9E9,9E9,9E9,9E9,9E9]],v10,seam1,Ni36_2_7_15_35_240\Weave:=weave1,fine,tWeldgun \WObj:=owen_test;
    MoveL [[68.500,82.480,76.0],[3.73171E-05,0.870747,-0.491731,7.48179E-05],[0,1,-2,0],[9E9,9E9,9E9,9E9,9E9,9E9]],v500,fine,tWeldgun \WObj:=owen_test;
    WaitTime 10.0;
    MoveL [[56.500,94.480,76.0],[3.73171E-05,0.870747,-0.491731,7.48179E-05],[0,1,-2,0],[9E9,9E9,9E9,9E9,9E9,9E9]],v500,fine,tWeldgun \WObj:=owen_test;
    ArcLStart [[56.500,94.480,26.0],[3.73171E-05,0.870747,-0.491731,7.48179E-05],[0,1,-2,0],[9E9,9E9,9E9,9E9,9E9,9E9]],v10,seam1,Ni36_2_7_15_35_240\Weave:=weave1,fine,tWeldgun \WObj:=owen_test;
    ArcLEnd [[68.500,94.480,26.0],[3.73171E-05,0.870747,-0.491731,7.48179E-05],[0,1,-2,0],[9E9,9E9,9E9,9E9,9E9,9E9]],v10,seam1,Ni36_2_7_15_35_240\Weave:=weave1,fine,tWeldgun \WObj:=owen_test;
    MoveL [[68.500,94.480,76.0],[3.73171E-05,0.870747,-0.491731,7.48179E-05],[0,1,-2,0],[9E9,9E9,9E9,9E9,9E9,9E9]],v500,fine,tWeldgun \WObj:=owen_test;
    WaitTime 10.0;
    WaitTime 60.0;
    !============== layer #: 15 ==============

    ! ===== PASS 1 =====
    MoveL [[44.500,71.440,78.0],[3.73171E-05,0.870747,-0.491731,7.48179E-05],[0,1,-2,0],[9E9,9E9,9E9,9E9,9E9,9E9]],v500,fine,tWeldgun \WObj:=owen_test;
    ! Outer contour 0
    ArcLStart [[44.500,71.440,28.0],[3.73171E-05,0.870747,-0.491731,7.48179E-05],[0,1,-2,0],[9E9,9E9,9E9,9E9,9E9,9E9]],v10,seam1,Ni36_2_7_15_35_240\Weave:=weave1,fine,tWeldgun \WObj:=owen_test;
    ArcL [[44.500,78.880,28.0],[3.73171E-05,0.870747,-0.491731,7.48179E-05],[0,1,-2,0],[9E9,9E9,9E9,9E9,9E9,9E9]],v10,seam1,Ni36_2_7_15_35_240\Weave:=weave1,fine,tWeldgun \WObj:=owen_test;
    ArcL [[44.500,107.440,28.0],[3.73171E-05,0.870747,-0.491731,7.48179E-05],[0,1,-2,0],[9E9,9E9,9E9,9E9,9E9,9E9]],v10,seam1,Ni36_2_7_15_35_240\Weave:=weave1,fine,tWeldgun \WObj:=owen_test;
    ArcL [[80.500,107.440,28.0],[3.73171E-05,0.870747,-0.491731,7.48179E-05],[0,1,-2,0],[9E9,9E9,9E9,9E9,9E9,9E9]],v10,seam1,Ni36_2_7_15_35_240\Weave:=weave1,fine,tWeldgun \WObj:=owen_test;
    ArcL [[80.500,71.440,28.0],[3.73171E-05,0.870747,-0.491731,7.48179E-05],[0,1,-2,0],[9E9,9E9,9E9,9E9,9E9,9E9]],v10,seam1,Ni36_2_7_15_35_240\Weave:=weave1,fine,tWeldgun \WObj:=owen_test;
    ArcLEnd [[44.500,71.440,28.0],[3.73171E-05,0.870747,-0.491731,7.48179E-05],[0,1,-2,0],[9E9,9E9,9E9,9E9,9E9,9E9]],v10,seam1,Ni36_2_7_15_35_240\Weave:=weave1,fine,tWeldgun \WObj:=owen_test;
    MoveL [[44.500,71.440,78.0],[3.73171E-05,0.870747,-0.491731,7.48179E-05],[0,1,-2,0],[9E9,9E9,9E9,9E9,9E9,9E9]],v500,fine,tWeldgun \WObj:=owen_test;
    WaitTime 10.0;

    ! ===== INFILL =====
    MoveL [[56.500,83.440,78.0],[3.73171E-05,0.870747,-0.491731,7.48179E-05],[0,1,-2,0],[9E9,9E9,9E9,9E9,9E9,9E9]],v500,fine,tWeldgun \WObj:=owen_test;
    ArcLStart [[56.500,83.440,28.0],[3.73171E-05,0.870747,-0.491731,7.48179E-05],[0,1,-2,0],[9E9,9E9,9E9,9E9,9E9,9E9]],v10,seam1,Ni36_2_7_15_35_240\Weave:=weave1,fine,tWeldgun \WObj:=owen_test;
    ArcLEnd [[68.500,83.440,28.0],[3.73171E-05,0.870747,-0.491731,7.48179E-05],[0,1,-2,0],[9E9,9E9,9E9,9E9,9E9,9E9]],v10,seam1,Ni36_2_7_15_35_240\Weave:=weave1,fine,tWeldgun \WObj:=owen_test;
    MoveL [[68.500,83.440,78.0],[3.73171E-05,0.870747,-0.491731,7.48179E-05],[0,1,-2,0],[9E9,9E9,9E9,9E9,9E9,9E9]],v500,fine,tWeldgun \WObj:=owen_test;
    WaitTime 10.0;
    MoveL [[56.500,95.440,78.0],[3.73171E-05,0.870747,-0.491731,7.48179E-05],[0,1,-2,0],[9E9,9E9,9E9,9E9,9E9,9E9]],v500,fine,tWeldgun \WObj:=owen_test;
    ArcLStart [[56.500,95.440,28.0],[3.73171E-05,0.870747,-0.491731,7.48179E-05],[0,1,-2,0],[9E9,9E9,9E9,9E9,9E9,9E9]],v10,seam1,Ni36_2_7_15_35_240\Weave:=weave1,fine,tWeldgun \WObj:=owen_test;
    ArcLEnd [[68.500,95.440,28.0],[3.73171E-05,0.870747,-0.491731,7.48179E-05],[0,1,-2,0],[9E9,9E9,9E9,9E9,9E9,9E9]],v10,seam1,Ni36_2_7_15_35_240\Weave:=weave1,fine,tWeldgun \WObj:=owen_test;
    MoveL [[68.500,95.440,78.0],[3.73171E-05,0.870747,-0.491731,7.48179E-05],[0,1,-2,0],[9E9,9E9,9E9,9E9,9E9,9E9]],v500,fine,tWeldgun \WObj:=owen_test;
    WaitTime 10.0;
    WaitTime 60.0;
    !============== layer #: 16 ==============

    ! ===== PASS 1 =====
    MoveL [[44.500,72.400,80.0],[3.73171E-05,0.870747,-0.491731,7.48179E-05],[0,1,-2,0],[9E9,9E9,9E9,9E9,9E9,9E9]],v500,fine,tWeldgun \WObj:=owen_test;
    ! Outer contour 0
    ArcLStart [[44.500,72.400,30.0],[3.73171E-05,0.870747,-0.491731,7.48179E-05],[0,1,-2,0],[9E9,9E9,9E9,9E9,9E9,9E9]],v10,seam1,Ni36_2_7_15_35_240\Weave:=weave1,fine,tWeldgun \WObj:=owen_test;
    ArcL [[44.500,80.800,30.0],[3.73171E-05,0.870747,-0.491731,7.48179E-05],[0,1,-2,0],[9E9,9E9,9E9,9E9,9E9,9E9]],v10,seam1,Ni36_2_7_15_35_240\Weave:=weave1,fine,tWeldgun \WObj:=owen_test;
    ArcL [[44.500,108.400,30.0],[3.73171E-05,0.870747,-0.491731,7.48179E-05],[0,1,-2,0],[9E9,9E9,9E9,9E9,9E9,9E9]],v10,seam1,Ni36_2_7_15_35_240\Weave:=weave1,fine,tWeldgun \WObj:=owen_test;
    ArcL [[80.500,108.400,30.0],[3.73171E-05,0.870747,-0.491731,7.48179E-05],[0,1,-2,0],[9E9,9E9,9E9,9E9,9E9,9E9]],v10,seam1,Ni36_2_7_15_35_240\Weave:=weave1,fine,tWeldgun \WObj:=owen_test;
    ArcL [[80.500,72.400,30.0],[3.73171E-05,0.870747,-0.491731,7.48179E-05],[0,1,-2,0],[9E9,9E9,9E9,9E9,9E9,9E9]],v10,seam1,Ni36_2_7_15_35_240\Weave:=weave1,fine,tWeldgun \WObj:=owen_test;
    ArcLEnd [[44.500,72.400,30.0],[3.73171E-05,0.870747,-0.491731,7.48179E-05],[0,1,-2,0],[9E9,9E9,9E9,9E9,9E9,9E9]],v10,seam1,Ni36_2_7_15_35_240\Weave:=weave1,fine,tWeldgun \WObj:=owen_test;
    MoveL [[44.500,72.400,80.0],[3.73171E-05,0.870747,-0.491731,7.48179E-05],[0,1,-2,0],[9E9,9E9,9E9,9E9,9E9,9E9]],v500,fine,tWeldgun \WObj:=owen_test;
    WaitTime 10.0;

    ! ===== INFILL =====
    MoveL [[56.500,84.400,80.0],[3.73171E-05,0.870747,-0.491731,7.48179E-05],[0,1,-2,0],[9E9,9E9,9E9,9E9,9E9,9E9]],v500,fine,tWeldgun \WObj:=owen_test;
    ArcLStart [[56.500,84.400,30.0],[3.73171E-05,0.870747,-0.491731,7.48179E-05],[0,1,-2,0],[9E9,9E9,9E9,9E9,9E9,9E9]],v10,seam1,Ni36_2_7_15_35_240\Weave:=weave1,fine,tWeldgun \WObj:=owen_test;
    ArcLEnd [[68.500,84.400,30.0],[3.73171E-05,0.870747,-0.491731,7.48179E-05],[0,1,-2,0],[9E9,9E9,9E9,9E9,9E9,9E9]],v10,seam1,Ni36_2_7_15_35_240\Weave:=weave1,fine,tWeldgun \WObj:=owen_test;
    MoveL [[68.500,84.400,80.0],[3.73171E-05,0.870747,-0.491731,7.48179E-05],[0,1,-2,0],[9E9,9E9,9E9,9E9,9E9,9E9]],v500,fine,tWeldgun \WObj:=owen_test;
    WaitTime 10.0;
    MoveL [[56.500,96.400,80.0],[3.73171E-05,0.870747,-0.491731,7.48179E-05],[0,1,-2,0],[9E9,9E9,9E9,9E9,9E9,9E9]],v500,fine,tWeldgun \WObj:=owen_test;
    ArcLStart [[56.500,96.400,30.0],[3.73171E-05,0.870747,-0.491731,7.48179E-05],[0,1,-2,0],[9E9,9E9,9E9,9E9,9E9,9E9]],v10,seam1,Ni36_2_7_15_35_240\Weave:=weave1,fine,tWeldgun \WObj:=owen_test;
    ArcLEnd [[68.500,96.400,30.0],[3.73171E-05,0.870747,-0.491731,7.48179E-05],[0,1,-2,0],[9E9,9E9,9E9,9E9,9E9,9E9]],v10,seam1,Ni36_2_7_15_35_240\Weave:=weave1,fine,tWeldgun \WObj:=owen_test;
    MoveL [[68.500,96.400,80.0],[3.73171E-05,0.870747,-0.491731,7.48179E-05],[0,1,-2,0],[9E9,9E9,9E9,9E9,9E9,9E9]],v500,fine,tWeldgun \WObj:=owen_test;
    WaitTime 10.0;
    WaitTime 60.0;
    !============== layer #: 17 ==============

    ! ===== PASS 1 =====
    MoveL [[44.500,73.360,82.0],[3.73171E-05,0.870747,-0.491731,7.48179E-05],[0,1,-2,0],[9E9,9E9,9E9,9E9,9E9,9E9]],v500,fine,tWeldgun \WObj:=owen_test;
    ! Outer contour 0
    ArcLStart [[44.500,73.360,32.0],[3.73171E-05,0.870747,-0.491731,7.48179E-05],[0,1,-2,0],[9E9,9E9,9E9,9E9,9E9,9E9]],v10,seam1,Ni36_2_7_15_35_240\Weave:=weave1,fine,tWeldgun \WObj:=owen_test;
    ArcL [[44.500,82.720,32.0],[3.73171E-05,0.870747,-0.491731,7.48179E-05],[0,1,-2,0],[9E9,9E9,9E9,9E9,9E9,9E9]],v10,seam1,Ni36_2_7_15_35_240\Weave:=weave1,fine,tWeldgun \WObj:=owen_test;
    ArcL [[44.500,109.360,32.0],[3.73171E-05,0.870747,-0.491731,7.48179E-05],[0,1,-2,0],[9E9,9E9,9E9,9E9,9E9,9E9]],v10,seam1,Ni36_2_7_15_35_240\Weave:=weave1,fine,tWeldgun \WObj:=owen_test;
    ArcL [[80.500,109.360,32.0],[3.73171E-05,0.870747,-0.491731,7.48179E-05],[0,1,-2,0],[9E9,9E9,9E9,9E9,9E9,9E9]],v10,seam1,Ni36_2_7_15_35_240\Weave:=weave1,fine,tWeldgun \WObj:=owen_test;
    ArcL [[80.500,73.360,32.0],[3.73171E-05,0.870747,-0.491731,7.48179E-05],[0,1,-2,0],[9E9,9E9,9E9,9E9,9E9,9E9]],v10,seam1,Ni36_2_7_15_35_240\Weave:=weave1,fine,tWeldgun \WObj:=owen_test;
    ArcLEnd [[44.500,73.360,32.0],[3.73171E-05,0.870747,-0.491731,7.48179E-05],[0,1,-2,0],[9E9,9E9,9E9,9E9,9E9,9E9]],v10,seam1,Ni36_2_7_15_35_240\Weave:=weave1,fine,tWeldgun \WObj:=owen_test;
    MoveL [[44.500,73.360,82.0],[3.73171E-05,0.870747,-0.491731,7.48179E-05],[0,1,-2,0],[9E9,9E9,9E9,9E9,9E9,9E9]],v500,fine,tWeldgun \WObj:=owen_test;
    WaitTime 10.0;

    ! ===== INFILL =====
    MoveL [[56.500,85.360,82.0],[3.73171E-05,0.870747,-0.491731,7.48179E-05],[0,1,-2,0],[9E9,9E9,9E9,9E9,9E9,9E9]],v500,fine,tWeldgun \WObj:=owen_test;
    ArcLStart [[56.500,85.360,32.0],[3.73171E-05,0.870747,-0.491731,7.48179E-05],[0,1,-2,0],[9E9,9E9,9E9,9E9,9E9,9E9]],v10,seam1,Ni36_2_7_15_35_240\Weave:=weave1,fine,tWeldgun \WObj:=owen_test;
    ArcLEnd [[68.500,85.360,32.0],[3.73171E-05,0.870747,-0.491731,7.48179E-05],[0,1,-2,0],[9E9,9E9,9E9,9E9,9E9,9E9]],v10,seam1,Ni36_2_7_15_35_240\Weave:=weave1,fine,tWeldgun \WObj:=owen_test;
    MoveL [[68.500,85.360,82.0],[3.73171E-05,0.870747,-0.491731,7.48179E-05],[0,1,-2,0],[9E9,9E9,9E9,9E9,9E9,9E9]],v500,fine,tWeldgun \WObj:=owen_test;
    WaitTime 10.0;
    MoveL [[56.500,97.360,82.0],[3.73171E-05,0.870747,-0.491731,7.48179E-05],[0,1,-2,0],[9E9,9E9,9E9,9E9,9E9,9E9]],v500,fine,tWeldgun \WObj:=owen_test;
    ArcLStart [[56.500,97.360,32.0],[3.73171E-05,0.870747,-0.491731,7.48179E-05],[0,1,-2,0],[9E9,9E9,9E9,9E9,9E9,9E9]],v10,seam1,Ni36_2_7_15_35_240\Weave:=weave1,fine,tWeldgun \WObj:=owen_test;
    ArcLEnd [[68.500,97.360,32.0],[3.73171E-05,0.870747,-0.491731,7.48179E-05],[0,1,-2,0],[9E9,9E9,9E9,9E9,9E9,9E9]],v10,seam1,Ni36_2_7_15_35_240\Weave:=weave1,fine,tWeldgun \WObj:=owen_test;
    MoveL [[68.500,97.360,82.0],[3.73171E-05,0.870747,-0.491731,7.48179E-05],[0,1,-2,0],[9E9,9E9,9E9,9E9,9E9,9E9]],v500,fine,tWeldgun \WObj:=owen_test;
    WaitTime 10.0;
    WaitTime 60.0;
    !============== layer #: 18 ==============

    ! ===== PASS 1 =====
    MoveL [[44.500,74.320,84.0],[3.73171E-05,0.870747,-0.491731,7.48179E-05],[0,1,-2,0],[9E9,9E9,9E9,9E9,9E9,9E9]],v500,fine,tWeldgun \WObj:=owen_test;
    ! Outer contour 0
    ArcLStart [[44.500,74.320,34.0],[3.73171E-05,0.870747,-0.491731,7.48179E-05],[0,1,-2,0],[9E9,9E9,9E9,9E9,9E9,9E9]],v10,seam1,Ni36_2_7_15_35_240\Weave:=weave1,fine,tWeldgun \WObj:=owen_test;
    ArcL [[44.500,84.640,34.0],[3.73171E-05,0.870747,-0.491731,7.48179E-05],[0,1,-2,0],[9E9,9E9,9E9,9E9,9E9,9E9]],v10,seam1,Ni36_2_7_15_35_240\Weave:=weave1,fine,tWeldgun \WObj:=owen_test;
    ArcL [[44.500,110.320,34.0],[3.73171E-05,0.870747,-0.491731,7.48179E-05],[0,1,-2,0],[9E9,9E9,9E9,9E9,9E9,9E9]],v10,seam1,Ni36_2_7_15_35_240\Weave:=weave1,fine,tWeldgun \WObj:=owen_test;
    ArcL [[70.180,110.320,34.0],[3.73171E-05,0.870747,-0.491731,7.48179E-05],[0,1,-2,0],[9E9,9E9,9E9,9E9,9E9,9E9]],v10,seam1,Ni36_2_7_15_35_240\Weave:=weave1,fine,tWeldgun \WObj:=owen_test;
    ArcL [[80.500,110.320,34.0],[3.73171E-05,0.870747,-0.491731,7.48179E-05],[0,1,-2,0],[9E9,9E9,9E9,9E9,9E9,9E9]],v10,seam1,Ni36_2_7_15_35_240\Weave:=weave1,fine,tWeldgun \WObj:=owen_test;
    ArcL [[80.500,74.320,34.0],[3.73171E-05,0.870747,-0.491731,7.48179E-05],[0,1,-2,0],[9E9,9E9,9E9,9E9,9E9,9E9]],v10,seam1,Ni36_2_7_15_35_240\Weave:=weave1,fine,tWeldgun \WObj:=owen_test;
    ArcLEnd [[44.500,74.320,34.0],[3.73171E-05,0.870747,-0.491731,7.48179E-05],[0,1,-2,0],[9E9,9E9,9E9,9E9,9E9,9E9]],v10,seam1,Ni36_2_7_15_35_240\Weave:=weave1,fine,tWeldgun \WObj:=owen_test;
    MoveL [[44.500,74.320,84.0],[3.73171E-05,0.870747,-0.491731,7.48179E-05],[0,1,-2,0],[9E9,9E9,9E9,9E9,9E9,9E9]],v500,fine,tWeldgun \WObj:=owen_test;
    WaitTime 10.0;

    ! ===== INFILL =====
    MoveL [[56.500,86.320,84.0],[3.73171E-05,0.870747,-0.491731,7.48179E-05],[0,1,-2,0],[9E9,9E9,9E9,9E9,9E9,9E9]],v500,fine,tWeldgun \WObj:=owen_test;
    ArcLStart [[56.500,86.320,34.0],[3.73171E-05,0.870747,-0.491731,7.48179E-05],[0,1,-2,0],[9E9,9E9,9E9,9E9,9E9,9E9]],v10,seam1,Ni36_2_7_15_35_240\Weave:=weave1,fine,tWeldgun \WObj:=owen_test;
    ArcLEnd [[68.500,86.320,34.0],[3.73171E-05,0.870747,-0.491731,7.48179E-05],[0,1,-2,0],[9E9,9E9,9E9,9E9,9E9,9E9]],v10,seam1,Ni36_2_7_15_35_240\Weave:=weave1,fine,tWeldgun \WObj:=owen_test;
    MoveL [[68.500,86.320,84.0],[3.73171E-05,0.870747,-0.491731,7.48179E-05],[0,1,-2,0],[9E9,9E9,9E9,9E9,9E9,9E9]],v500,fine,tWeldgun \WObj:=owen_test;
    WaitTime 10.0;
    WaitTime 60.0;
    !============== layer #: 19 ==============

    ! ===== PASS 1 =====
    MoveL [[44.500,75.280,86.0],[3.73171E-05,0.870747,-0.491731,7.48179E-05],[0,1,-2,0],[9E9,9E9,9E9,9E9,9E9,9E9]],v500,fine,tWeldgun \WObj:=owen_test;
    ! Outer contour 0
    ArcLStart [[44.500,75.280,36.0],[3.73171E-05,0.870747,-0.491731,7.48179E-05],[0,1,-2,0],[9E9,9E9,9E9,9E9,9E9,9E9]],v10,seam1,Ni36_2_7_15_35_240\Weave:=weave1,fine,tWeldgun \WObj:=owen_test;
    ArcL [[44.500,86.560,36.0],[3.73171E-05,0.870747,-0.491731,7.48179E-05],[0,1,-2,0],[9E9,9E9,9E9,9E9,9E9,9E9]],v10,seam1,Ni36_2_7_15_35_240\Weave:=weave1,fine,tWeldgun \WObj:=owen_test;
    ArcL [[44.500,111.280,36.0],[3.73171E-05,0.870747,-0.491731,7.48179E-05],[0,1,-2,0],[9E9,9E9,9E9,9E9,9E9,9E9]],v10,seam1,Ni36_2_7_15_35_240\Weave:=weave1,fine,tWeldgun \WObj:=owen_test;
    ArcL [[80.500,111.280,36.0],[3.73171E-05,0.870747,-0.491731,7.48179E-05],[0,1,-2,0],[9E9,9E9,9E9,9E9,9E9,9E9]],v10,seam1,Ni36_2_7_15_35_240\Weave:=weave1,fine,tWeldgun \WObj:=owen_test;
    ArcL [[80.500,75.280,36.0],[3.73171E-05,0.870747,-0.491731,7.48179E-05],[0,1,-2,0],[9E9,9E9,9E9,9E9,9E9,9E9]],v10,seam1,Ni36_2_7_15_35_240\Weave:=weave1,fine,tWeldgun \WObj:=owen_test;
    ArcLEnd [[44.500,75.280,36.0],[3.73171E-05,0.870747,-0.491731,7.48179E-05],[0,1,-2,0],[9E9,9E9,9E9,9E9,9E9,9E9]],v10,seam1,Ni36_2_7_15_35_240\Weave:=weave1,fine,tWeldgun \WObj:=owen_test;
    MoveL [[44.500,75.280,86.0],[3.73171E-05,0.870747,-0.491731,7.48179E-05],[0,1,-2,0],[9E9,9E9,9E9,9E9,9E9,9E9]],v500,fine,tWeldgun \WObj:=owen_test;
    WaitTime 10.0;

    ! ===== INFILL =====
    MoveL [[56.500,87.280,86.0],[3.73171E-05,0.870747,-0.491731,7.48179E-05],[0,1,-2,0],[9E9,9E9,9E9,9E9,9E9,9E9]],v500,fine,tWeldgun \WObj:=owen_test;
    ArcLStart [[56.500,87.280,36.0],[3.73171E-05,0.870747,-0.491731,7.48179E-05],[0,1,-2,0],[9E9,9E9,9E9,9E9,9E9,9E9]],v10,seam1,Ni36_2_7_15_35_240\Weave:=weave1,fine,tWeldgun \WObj:=owen_test;
    ArcLEnd [[68.500,87.280,36.0],[3.73171E-05,0.870747,-0.491731,7.48179E-05],[0,1,-2,0],[9E9,9E9,9E9,9E9,9E9,9E9]],v10,seam1,Ni36_2_7_15_35_240\Weave:=weave1,fine,tWeldgun \WObj:=owen_test;
    MoveL [[68.500,87.280,86.0],[3.73171E-05,0.870747,-0.491731,7.48179E-05],[0,1,-2,0],[9E9,9E9,9E9,9E9,9E9,9E9]],v500,fine,tWeldgun \WObj:=owen_test;
    WaitTime 10.0;
    MoveL [[56.500,99.280,86.0],[3.73171E-05,0.870747,-0.491731,7.48179E-05],[0,1,-2,0],[9E9,9E9,9E9,9E9,9E9,9E9]],v500,fine,tWeldgun \WObj:=owen_test;
    ArcLStart [[56.500,99.280,36.0],[3.73171E-05,0.870747,-0.491731,7.48179E-05],[0,1,-2,0],[9E9,9E9,9E9,9E9,9E9,9E9]],v10,seam1,Ni36_2_7_15_35_240\Weave:=weave1,fine,tWeldgun \WObj:=owen_test;
    ArcLEnd [[68.500,99.280,36.0],[3.73171E-05,0.870747,-0.491731,7.48179E-05],[0,1,-2,0],[9E9,9E9,9E9,9E9,9E9,9E9]],v10,seam1,Ni36_2_7_15_35_240\Weave:=weave1,fine,tWeldgun \WObj:=owen_test;
    MoveL [[68.500,99.280,86.0],[3.73171E-05,0.870747,-0.491731,7.48179E-05],[0,1,-2,0],[9E9,9E9,9E9,9E9,9E9,9E9]],v500,fine,tWeldgun \WObj:=owen_test;
    WaitTime 10.0;
    WaitTime 60.0;
    !============== layer #: 20 ==============

    ! ===== PASS 1 =====
    MoveL [[44.500,76.240,88.0],[3.73171E-05,0.870747,-0.491731,7.48179E-05],[0,1,-2,0],[9E9,9E9,9E9,9E9,9E9,9E9]],v500,fine,tWeldgun \WObj:=owen_test;
    ! Outer contour 0
    ArcLStart [[44.500,76.240,38.0],[3.73171E-05,0.870747,-0.491731,7.48179E-05],[0,1,-2,0],[9E9,9E9,9E9,9E9,9E9,9E9]],v10,seam1,Ni36_2_7_15_35_240\Weave:=weave1,fine,tWeldgun \WObj:=owen_test;
    ArcL [[44.500,88.480,38.0],[3.73171E-05,0.870747,-0.491731,7.48179E-05],[0,1,-2,0],[9E9,9E9,9E9,9E9,9E9,9E9]],v10,seam1,Ni36_2_7_15_35_240\Weave:=weave1,fine,tWeldgun \WObj:=owen_test;
    ArcL [[44.500,112.240,38.0],[3.73171E-05,0.870747,-0.491731,7.48179E-05],[0,1,-2,0],[9E9,9E9,9E9,9E9,9E9,9E9]],v10,seam1,Ni36_2_7_15_35_240\Weave:=weave1,fine,tWeldgun \WObj:=owen_test;
    ArcL [[80.500,112.240,38.0],[3.73171E-05,0.870747,-0.491731,7.48179E-05],[0,1,-2,0],[9E9,9E9,9E9,9E9,9E9,9E9]],v10,seam1,Ni36_2_7_15_35_240\Weave:=weave1,fine,tWeldgun \WObj:=owen_test;
    ArcL [[80.500,76.240,38.0],[3.73171E-05,0.870747,-0.491731,7.48179E-05],[0,1,-2,0],[9E9,9E9,9E9,9E9,9E9,9E9]],v10,seam1,Ni36_2_7_15_35_240\Weave:=weave1,fine,tWeldgun \WObj:=owen_test;
    ArcLEnd [[44.500,76.240,38.0],[3.73171E-05,0.870747,-0.491731,7.48179E-05],[0,1,-2,0],[9E9,9E9,9E9,9E9,9E9,9E9]],v10,seam1,Ni36_2_7_15_35_240\Weave:=weave1,fine,tWeldgun \WObj:=owen_test;
    MoveL [[44.500,76.240,88.0],[3.73171E-05,0.870747,-0.491731,7.48179E-05],[0,1,-2,0],[9E9,9E9,9E9,9E9,9E9,9E9]],v500,fine,tWeldgun \WObj:=owen_test;
    WaitTime 10.0;

    ! ===== INFILL =====
    MoveL [[56.500,88.240,88.0],[3.73171E-05,0.870747,-0.491731,7.48179E-05],[0,1,-2,0],[9E9,9E9,9E9,9E9,9E9,9E9]],v500,fine,tWeldgun \WObj:=owen_test;
    ArcLStart [[56.500,88.240,38.0],[3.73171E-05,0.870747,-0.491731,7.48179E-05],[0,1,-2,0],[9E9,9E9,9E9,9E9,9E9,9E9]],v10,seam1,Ni36_2_7_15_35_240\Weave:=weave1,fine,tWeldgun \WObj:=owen_test;
    ArcLEnd [[68.500,88.240,38.0],[3.73171E-05,0.870747,-0.491731,7.48179E-05],[0,1,-2,0],[9E9,9E9,9E9,9E9,9E9,9E9]],v10,seam1,Ni36_2_7_15_35_240\Weave:=weave1,fine,tWeldgun \WObj:=owen_test;
    MoveL [[68.500,88.240,88.0],[3.73171E-05,0.870747,-0.491731,7.48179E-05],[0,1,-2,0],[9E9,9E9,9E9,9E9,9E9,9E9]],v500,fine,tWeldgun \WObj:=owen_test;
    WaitTime 10.0;
    MoveL [[56.500,100.240,88.0],[3.73171E-05,0.870747,-0.491731,7.48179E-05],[0,1,-2,0],[9E9,9E9,9E9,9E9,9E9,9E9]],v500,fine,tWeldgun \WObj:=owen_test;
    ArcLStart [[56.500,100.240,38.0],[3.73171E-05,0.870747,-0.491731,7.48179E-05],[0,1,-2,0],[9E9,9E9,9E9,9E9,9E9,9E9]],v10,seam1,Ni36_2_7_15_35_240\Weave:=weave1,fine,tWeldgun \WObj:=owen_test;
    ArcLEnd [[68.500,100.240,38.0],[3.73171E-05,0.870747,-0.491731,7.48179E-05],[0,1,-2,0],[9E9,9E9,9E9,9E9,9E9,9E9]],v10,seam1,Ni36_2_7_15_35_240\Weave:=weave1,fine,tWeldgun \WObj:=owen_test;
    MoveL [[68.500,100.240,88.0],[3.73171E-05,0.870747,-0.491731,7.48179E-05],[0,1,-2,0],[9E9,9E9,9E9,9E9,9E9,9E9]],v500,fine,tWeldgun \WObj:=owen_test;
    WaitTime 10.0;
    WaitTime 60.0;
    !============== layer #: 21 ==============

    ! ===== PASS 1 =====
    MoveL [[44.500,77.200,90.0],[3.73171E-05,0.870747,-0.491731,7.48179E-05],[0,1,-2,0],[9E9,9E9,9E9,9E9,9E9,9E9]],v500,fine,tWeldgun \WObj:=owen_test;
    ! Outer contour 0
    ArcLStart [[44.500,77.200,40.0],[3.73171E-05,0.870747,-0.491731,7.48179E-05],[0,1,-2,0],[9E9,9E9,9E9,9E9,9E9,9E9]],v10,seam1,Ni36_2_7_15_35_240\Weave:=weave1,fine,tWeldgun \WObj:=owen_test;
    ArcL [[44.500,90.400,40.0],[3.73171E-05,0.870747,-0.491731,7.48179E-05],[0,1,-2,0],[9E9,9E9,9E9,9E9,9E9,9E9]],v10,seam1,Ni36_2_7_15_35_240\Weave:=weave1,fine,tWeldgun \WObj:=owen_test;
    ArcL [[44.500,113.200,40.0],[3.73171E-05,0.870747,-0.491731,7.48179E-05],[0,1,-2,0],[9E9,9E9,9E9,9E9,9E9,9E9]],v10,seam1,Ni36_2_7_15_35_240\Weave:=weave1,fine,tWeldgun \WObj:=owen_test;
    ArcL [[80.500,113.200,40.0],[3.73171E-05,0.870747,-0.491731,7.48179E-05],[0,1,-2,0],[9E9,9E9,9E9,9E9,9E9,9E9]],v10,seam1,Ni36_2_7_15_35_240\Weave:=weave1,fine,tWeldgun \WObj:=owen_test;
    ArcL [[80.500,77.200,40.0],[3.73171E-05,0.870747,-0.491731,7.48179E-05],[0,1,-2,0],[9E9,9E9,9E9,9E9,9E9,9E9]],v10,seam1,Ni36_2_7_15_35_240\Weave:=weave1,fine,tWeldgun \WObj:=owen_test;
    ArcLEnd [[44.500,77.200,40.0],[3.73171E-05,0.870747,-0.491731,7.48179E-05],[0,1,-2,0],[9E9,9E9,9E9,9E9,9E9,9E9]],v10,seam1,Ni36_2_7_15_35_240\Weave:=weave1,fine,tWeldgun \WObj:=owen_test;
    MoveL [[44.500,77.200,90.0],[3.73171E-05,0.870747,-0.491731,7.48179E-05],[0,1,-2,0],[9E9,9E9,9E9,9E9,9E9,9E9]],v500,fine,tWeldgun \WObj:=owen_test;
    WaitTime 10.0;

    ! ===== INFILL =====
    MoveL [[56.500,89.200,90.0],[3.73171E-05,0.870747,-0.491731,7.48179E-05],[0,1,-2,0],[9E9,9E9,9E9,9E9,9E9,9E9]],v500,fine,tWeldgun \WObj:=owen_test;
    ArcLStart [[56.500,89.200,40.0],[3.73171E-05,0.870747,-0.491731,7.48179E-05],[0,1,-2,0],[9E9,9E9,9E9,9E9,9E9,9E9]],v10,seam1,Ni36_2_7_15_35_240\Weave:=weave1,fine,tWeldgun \WObj:=owen_test;
    ArcLEnd [[68.500,89.200,40.0],[3.73171E-05,0.870747,-0.491731,7.48179E-05],[0,1,-2,0],[9E9,9E9,9E9,9E9,9E9,9E9]],v10,seam1,Ni36_2_7_15_35_240\Weave:=weave1,fine,tWeldgun \WObj:=owen_test;
    MoveL [[68.500,89.200,90.0],[3.73171E-05,0.870747,-0.491731,7.48179E-05],[0,1,-2,0],[9E9,9E9,9E9,9E9,9E9,9E9]],v500,fine,tWeldgun \WObj:=owen_test;
    WaitTime 10.0;
    MoveL [[56.500,101.200,90.0],[3.73171E-05,0.870747,-0.491731,7.48179E-05],[0,1,-2,0],[9E9,9E9,9E9,9E9,9E9,9E9]],v500,fine,tWeldgun \WObj:=owen_test;
    ArcLStart [[56.500,101.200,40.0],[3.73171E-05,0.870747,-0.491731,7.48179E-05],[0,1,-2,0],[9E9,9E9,9E9,9E9,9E9,9E9]],v10,seam1,Ni36_2_7_15_35_240\Weave:=weave1,fine,tWeldgun \WObj:=owen_test;
    ArcLEnd [[68.500,101.200,40.0],[3.73171E-05,0.870747,-0.491731,7.48179E-05],[0,1,-2,0],[9E9,9E9,9E9,9E9,9E9,9E9]],v10,seam1,Ni36_2_7_15_35_240\Weave:=weave1,fine,tWeldgun \WObj:=owen_test;
    MoveL [[68.500,101.200,90.0],[3.73171E-05,0.870747,-0.491731,7.48179E-05],[0,1,-2,0],[9E9,9E9,9E9,9E9,9E9,9E9]],v500,fine,tWeldgun \WObj:=owen_test;
    WaitTime 10.0;
    WaitTime 60.0;
    !============== layer #: 22 ==============

    ! ===== PASS 1 =====
    MoveL [[44.500,78.160,92.0],[3.73171E-05,0.870747,-0.491731,7.48179E-05],[0,1,-2,0],[9E9,9E9,9E9,9E9,9E9,9E9]],v500,fine,tWeldgun \WObj:=owen_test;
    ! Outer contour 0
    ArcLStart [[44.500,78.160,42.0],[3.73171E-05,0.870747,-0.491731,7.48179E-05],[0,1,-2,0],[9E9,9E9,9E9,9E9,9E9,9E9]],v10,seam1,Ni36_2_7_15_35_240\Weave:=weave1,fine,tWeldgun \WObj:=owen_test;
    ArcL [[44.500,92.320,42.0],[3.73171E-05,0.870747,-0.491731,7.48179E-05],[0,1,-2,0],[9E9,9E9,9E9,9E9,9E9,9E9]],v10,seam1,Ni36_2_7_15_35_240\Weave:=weave1,fine,tWeldgun \WObj:=owen_test;
    ArcL [[44.500,114.160,42.0],[3.73171E-05,0.870747,-0.491731,7.48179E-05],[0,1,-2,0],[9E9,9E9,9E9,9E9,9E9,9E9]],v10,seam1,Ni36_2_7_15_35_240\Weave:=weave1,fine,tWeldgun \WObj:=owen_test;
    ArcL [[80.500,114.160,42.0],[3.73171E-05,0.870747,-0.491731,7.48179E-05],[0,1,-2,0],[9E9,9E9,9E9,9E9,9E9,9E9]],v10,seam1,Ni36_2_7_15_35_240\Weave:=weave1,fine,tWeldgun \WObj:=owen_test;
    ArcL [[80.500,78.160,42.0],[3.73171E-05,0.870747,-0.491731,7.48179E-05],[0,1,-2,0],[9E9,9E9,9E9,9E9,9E9,9E9]],v10,seam1,Ni36_2_7_15_35_240\Weave:=weave1,fine,tWeldgun \WObj:=owen_test;
    ArcLEnd [[44.500,78.160,42.0],[3.73171E-05,0.870747,-0.491731,7.48179E-05],[0,1,-2,0],[9E9,9E9,9E9,9E9,9E9,9E9]],v10,seam1,Ni36_2_7_15_35_240\Weave:=weave1,fine,tWeldgun \WObj:=owen_test;
    MoveL [[44.500,78.160,92.0],[3.73171E-05,0.870747,-0.491731,7.48179E-05],[0,1,-2,0],[9E9,9E9,9E9,9E9,9E9,9E9]],v500,fine,tWeldgun \WObj:=owen_test;
    WaitTime 10.0;

    ! ===== INFILL =====
    MoveL [[56.500,90.160,92.0],[3.73171E-05,0.870747,-0.491731,7.48179E-05],[0,1,-2,0],[9E9,9E9,9E9,9E9,9E9,9E9]],v500,fine,tWeldgun \WObj:=owen_test;
    ArcLStart [[56.500,90.160,42.0],[3.73171E-05,0.870747,-0.491731,7.48179E-05],[0,1,-2,0],[9E9,9E9,9E9,9E9,9E9,9E9]],v10,seam1,Ni36_2_7_15_35_240\Weave:=weave1,fine,tWeldgun \WObj:=owen_test;
    ArcLEnd [[68.500,90.160,42.0],[3.73171E-05,0.870747,-0.491731,7.48179E-05],[0,1,-2,0],[9E9,9E9,9E9,9E9,9E9,9E9]],v10,seam1,Ni36_2_7_15_35_240\Weave:=weave1,fine,tWeldgun \WObj:=owen_test;
    MoveL [[68.500,90.160,92.0],[3.73171E-05,0.870747,-0.491731,7.48179E-05],[0,1,-2,0],[9E9,9E9,9E9,9E9,9E9,9E9]],v500,fine,tWeldgun \WObj:=owen_test;
    WaitTime 10.0;
    MoveL [[56.500,102.160,92.0],[3.73171E-05,0.870747,-0.491731,7.48179E-05],[0,1,-2,0],[9E9,9E9,9E9,9E9,9E9,9E9]],v500,fine,tWeldgun \WObj:=owen_test;
    ArcLStart [[56.500,102.160,42.0],[3.73171E-05,0.870747,-0.491731,7.48179E-05],[0,1,-2,0],[9E9,9E9,9E9,9E9,9E9,9E9]],v10,seam1,Ni36_2_7_15_35_240\Weave:=weave1,fine,tWeldgun \WObj:=owen_test;
    ArcLEnd [[68.500,102.160,42.0],[3.73171E-05,0.870747,-0.491731,7.48179E-05],[0,1,-2,0],[9E9,9E9,9E9,9E9,9E9,9E9]],v10,seam1,Ni36_2_7_15_35_240\Weave:=weave1,fine,tWeldgun \WObj:=owen_test;
    MoveL [[68.500,102.160,92.0],[3.73171E-05,0.870747,-0.491731,7.48179E-05],[0,1,-2,0],[9E9,9E9,9E9,9E9,9E9,9E9]],v500,fine,tWeldgun \WObj:=owen_test;
    WaitTime 10.0;
    WaitTime 60.0;
    !============== layer #: 23 ==============

    ! ===== PASS 1 =====
    MoveL [[44.500,79.120,94.0],[3.73171E-05,0.870747,-0.491731,7.48179E-05],[0,1,-2,0],[9E9,9E9,9E9,9E9,9E9,9E9]],v500,fine,tWeldgun \WObj:=owen_test;
    ! Outer contour 0
    ArcLStart [[44.500,79.120,44.0],[3.73171E-05,0.870747,-0.491731,7.48179E-05],[0,1,-2,0],[9E9,9E9,9E9,9E9,9E9,9E9]],v10,seam1,Ni36_2_7_15_35_240\Weave:=weave1,fine,tWeldgun \WObj:=owen_test;
    ArcL [[44.500,94.240,44.0],[3.73171E-05,0.870747,-0.491731,7.48179E-05],[0,1,-2,0],[9E9,9E9,9E9,9E9,9E9,9E9]],v10,seam1,Ni36_2_7_15_35_240\Weave:=weave1,fine,tWeldgun \WObj:=owen_test;
    ArcL [[44.500,115.120,44.0],[3.73171E-05,0.870747,-0.491731,7.48179E-05],[0,1,-2,0],[9E9,9E9,9E9,9E9,9E9,9E9]],v10,seam1,Ni36_2_7_15_35_240\Weave:=weave1,fine,tWeldgun \WObj:=owen_test;
    ArcL [[80.500,115.120,44.0],[3.73171E-05,0.870747,-0.491731,7.48179E-05],[0,1,-2,0],[9E9,9E9,9E9,9E9,9E9,9E9]],v10,seam1,Ni36_2_7_15_35_240\Weave:=weave1,fine,tWeldgun \WObj:=owen_test;
    ArcL [[80.500,79.120,44.0],[3.73171E-05,0.870747,-0.491731,7.48179E-05],[0,1,-2,0],[9E9,9E9,9E9,9E9,9E9,9E9]],v10,seam1,Ni36_2_7_15_35_240\Weave:=weave1,fine,tWeldgun \WObj:=owen_test;
    ArcLEnd [[44.500,79.120,44.0],[3.73171E-05,0.870747,-0.491731,7.48179E-05],[0,1,-2,0],[9E9,9E9,9E9,9E9,9E9,9E9]],v10,seam1,Ni36_2_7_15_35_240\Weave:=weave1,fine,tWeldgun \WObj:=owen_test;
    MoveL [[44.500,79.120,94.0],[3.73171E-05,0.870747,-0.491731,7.48179E-05],[0,1,-2,0],[9E9,9E9,9E9,9E9,9E9,9E9]],v500,fine,tWeldgun \WObj:=owen_test;
    WaitTime 10.0;

    ! ===== INFILL =====
    MoveL [[56.500,91.120,94.0],[3.73171E-05,0.870747,-0.491731,7.48179E-05],[0,1,-2,0],[9E9,9E9,9E9,9E9,9E9,9E9]],v500,fine,tWeldgun \WObj:=owen_test;
    ArcLStart [[56.500,91.120,44.0],[3.73171E-05,0.870747,-0.491731,7.48179E-05],[0,1,-2,0],[9E9,9E9,9E9,9E9,9E9,9E9]],v10,seam1,Ni36_2_7_15_35_240\Weave:=weave1,fine,tWeldgun \WObj:=owen_test;
    ArcLEnd [[68.500,91.120,44.0],[3.73171E-05,0.870747,-0.491731,7.48179E-05],[0,1,-2,0],[9E9,9E9,9E9,9E9,9E9,9E9]],v10,seam1,Ni36_2_7_15_35_240\Weave:=weave1,fine,tWeldgun \WObj:=owen_test;
    MoveL [[68.500,91.120,94.0],[3.73171E-05,0.870747,-0.491731,7.48179E-05],[0,1,-2,0],[9E9,9E9,9E9,9E9,9E9,9E9]],v500,fine,tWeldgun \WObj:=owen_test;
    WaitTime 10.0;
    MoveL [[56.500,103.120,94.0],[3.73171E-05,0.870747,-0.491731,7.48179E-05],[0,1,-2,0],[9E9,9E9,9E9,9E9,9E9,9E9]],v500,fine,tWeldgun \WObj:=owen_test;
    ArcLStart [[56.500,103.120,44.0],[3.73171E-05,0.870747,-0.491731,7.48179E-05],[0,1,-2,0],[9E9,9E9,9E9,9E9,9E9,9E9]],v10,seam1,Ni36_2_7_15_35_240\Weave:=weave1,fine,tWeldgun \WObj:=owen_test;
    ArcLEnd [[68.500,103.120,44.0],[3.73171E-05,0.870747,-0.491731,7.48179E-05],[0,1,-2,0],[9E9,9E9,9E9,9E9,9E9,9E9]],v10,seam1,Ni36_2_7_15_35_240\Weave:=weave1,fine,tWeldgun \WObj:=owen_test;
    MoveL [[68.500,103.120,94.0],[3.73171E-05,0.870747,-0.491731,7.48179E-05],[0,1,-2,0],[9E9,9E9,9E9,9E9,9E9,9E9]],v500,fine,tWeldgun \WObj:=owen_test;
    WaitTime 10.0;
    WaitTime 60.0;
    !============== layer #: 24 ==============

    ! ===== PASS 1 =====
    MoveL [[44.500,80.080,96.0],[3.73171E-05,0.870747,-0.491731,7.48179E-05],[0,1,-2,0],[9E9,9E9,9E9,9E9,9E9,9E9]],v500,fine,tWeldgun \WObj:=owen_test;
    ! Outer contour 0
    ArcLStart [[44.500,80.080,46.0],[3.73171E-05,0.870747,-0.491731,7.48179E-05],[0,1,-2,0],[9E9,9E9,9E9,9E9,9E9,9E9]],v10,seam1,Ni36_2_7_15_35_240\Weave:=weave1,fine,tWeldgun \WObj:=owen_test;
    ArcL [[44.500,96.160,46.0],[3.73171E-05,0.870747,-0.491731,7.48179E-05],[0,1,-2,0],[9E9,9E9,9E9,9E9,9E9,9E9]],v10,seam1,Ni36_2_7_15_35_240\Weave:=weave1,fine,tWeldgun \WObj:=owen_test;
    ArcL [[44.500,116.080,46.0],[3.73171E-05,0.870747,-0.491731,7.48179E-05],[0,1,-2,0],[9E9,9E9,9E9,9E9,9E9,9E9]],v10,seam1,Ni36_2_7_15_35_240\Weave:=weave1,fine,tWeldgun \WObj:=owen_test;
    ArcL [[80.500,116.080,46.0],[3.73171E-05,0.870747,-0.491731,7.48179E-05],[0,1,-2,0],[9E9,9E9,9E9,9E9,9E9,9E9]],v10,seam1,Ni36_2_7_15_35_240\Weave:=weave1,fine,tWeldgun \WObj:=owen_test;
    ArcL [[80.500,80.080,46.0],[3.73171E-05,0.870747,-0.491731,7.48179E-05],[0,1,-2,0],[9E9,9E9,9E9,9E9,9E9,9E9]],v10,seam1,Ni36_2_7_15_35_240\Weave:=weave1,fine,tWeldgun \WObj:=owen_test;
    ArcLEnd [[44.500,80.080,46.0],[3.73171E-05,0.870747,-0.491731,7.48179E-05],[0,1,-2,0],[9E9,9E9,9E9,9E9,9E9,9E9]],v10,seam1,Ni36_2_7_15_35_240\Weave:=weave1,fine,tWeldgun \WObj:=owen_test;
    MoveL [[44.500,80.080,96.0],[3.73171E-05,0.870747,-0.491731,7.48179E-05],[0,1,-2,0],[9E9,9E9,9E9,9E9,9E9,9E9]],v500,fine,tWeldgun \WObj:=owen_test;
    WaitTime 10.0;

    ! ===== INFILL =====
    MoveL [[56.500,92.080,96.0],[3.73171E-05,0.870747,-0.491731,7.48179E-05],[0,1,-2,0],[9E9,9E9,9E9,9E9,9E9,9E9]],v500,fine,tWeldgun \WObj:=owen_test;
    ArcLStart [[56.500,92.080,46.0],[3.73171E-05,0.870747,-0.491731,7.48179E-05],[0,1,-2,0],[9E9,9E9,9E9,9E9,9E9,9E9]],v10,seam1,Ni36_2_7_15_35_240\Weave:=weave1,fine,tWeldgun \WObj:=owen_test;
    ArcLEnd [[68.500,92.080,46.0],[3.73171E-05,0.870747,-0.491731,7.48179E-05],[0,1,-2,0],[9E9,9E9,9E9,9E9,9E9,9E9]],v10,seam1,Ni36_2_7_15_35_240\Weave:=weave1,fine,tWeldgun \WObj:=owen_test;
    MoveL [[68.500,92.080,96.0],[3.73171E-05,0.870747,-0.491731,7.48179E-05],[0,1,-2,0],[9E9,9E9,9E9,9E9,9E9,9E9]],v500,fine,tWeldgun \WObj:=owen_test;
    WaitTime 10.0;
    MoveL [[56.500,104.080,96.0],[3.73171E-05,0.870747,-0.491731,7.48179E-05],[0,1,-2,0],[9E9,9E9,9E9,9E9,9E9,9E9]],v500,fine,tWeldgun \WObj:=owen_test;
    ArcLStart [[56.500,104.080,46.0],[3.73171E-05,0.870747,-0.491731,7.48179E-05],[0,1,-2,0],[9E9,9E9,9E9,9E9,9E9,9E9]],v10,seam1,Ni36_2_7_15_35_240\Weave:=weave1,fine,tWeldgun \WObj:=owen_test;
    ArcLEnd [[68.500,104.080,46.0],[3.73171E-05,0.870747,-0.491731,7.48179E-05],[0,1,-2,0],[9E9,9E9,9E9,9E9,9E9,9E9]],v10,seam1,Ni36_2_7_15_35_240\Weave:=weave1,fine,tWeldgun \WObj:=owen_test;
    MoveL [[68.500,104.080,96.0],[3.73171E-05,0.870747,-0.491731,7.48179E-05],[0,1,-2,0],[9E9,9E9,9E9,9E9,9E9,9E9]],v500,fine,tWeldgun \WObj:=owen_test;
    WaitTime 10.0;
    WaitTime 60.0;
    !============== layer #: 25 ==============

    ! ===== PASS 1 =====
    MoveL [[44.500,81.040,98.0],[3.73171E-05,0.870747,-0.491731,7.48179E-05],[0,1,-2,0],[9E9,9E9,9E9,9E9,9E9,9E9]],v500,fine,tWeldgun \WObj:=owen_test;
    ! Outer contour 0
    ArcLStart [[44.500,81.040,48.0],[3.73171E-05,0.870747,-0.491731,7.48179E-05],[0,1,-2,0],[9E9,9E9,9E9,9E9,9E9,9E9]],v10,seam1,Ni36_2_7_15_35_240\Weave:=weave1,fine,tWeldgun \WObj:=owen_test;
    ArcL [[44.500,98.080,48.0],[3.73171E-05,0.870747,-0.491731,7.48179E-05],[0,1,-2,0],[9E9,9E9,9E9,9E9,9E9,9E9]],v10,seam1,Ni36_2_7_15_35_240\Weave:=weave1,fine,tWeldgun \WObj:=owen_test;
    ArcL [[44.500,117.040,48.0],[3.73171E-05,0.870747,-0.491731,7.48179E-05],[0,1,-2,0],[9E9,9E9,9E9,9E9,9E9,9E9]],v10,seam1,Ni36_2_7_15_35_240\Weave:=weave1,fine,tWeldgun \WObj:=owen_test;
    ArcL [[63.460,117.040,48.0],[3.73171E-05,0.870747,-0.491731,7.48179E-05],[0,1,-2,0],[9E9,9E9,9E9,9E9,9E9,9E9]],v10,seam1,Ni36_2_7_15_35_240\Weave:=weave1,fine,tWeldgun \WObj:=owen_test;
    ArcL [[80.500,117.040,48.0],[3.73171E-05,0.870747,-0.491731,7.48179E-05],[0,1,-2,0],[9E9,9E9,9E9,9E9,9E9,9E9]],v10,seam1,Ni36_2_7_15_35_240\Weave:=weave1,fine,tWeldgun \WObj:=owen_test;
    ArcL [[80.500,81.040,48.0],[3.73171E-05,0.870747,-0.491731,7.48179E-05],[0,1,-2,0],[9E9,9E9,9E9,9E9,9E9,9E9]],v10,seam1,Ni36_2_7_15_35_240\Weave:=weave1,fine,tWeldgun \WObj:=owen_test;
    ArcLEnd [[44.500,81.040,48.0],[3.73171E-05,0.870747,-0.491731,7.48179E-05],[0,1,-2,0],[9E9,9E9,9E9,9E9,9E9,9E9]],v10,seam1,Ni36_2_7_15_35_240\Weave:=weave1,fine,tWeldgun \WObj:=owen_test;
    MoveL [[44.500,81.040,98.0],[3.73171E-05,0.870747,-0.491731,7.48179E-05],[0,1,-2,0],[9E9,9E9,9E9,9E9,9E9,9E9]],v500,fine,tWeldgun \WObj:=owen_test;
    WaitTime 10.0;

    ! ===== INFILL =====
    MoveL [[56.500,93.040,98.0],[3.73171E-05,0.870747,-0.491731,7.48179E-05],[0,1,-2,0],[9E9,9E9,9E9,9E9,9E9,9E9]],v500,fine,tWeldgun \WObj:=owen_test;
    ArcLStart [[56.500,93.040,48.0],[3.73171E-05,0.870747,-0.491731,7.48179E-05],[0,1,-2,0],[9E9,9E9,9E9,9E9,9E9,9E9]],v10,seam1,Ni36_2_7_15_35_240\Weave:=weave1,fine,tWeldgun \WObj:=owen_test;
    ArcLEnd [[68.500,93.040,48.0],[3.73171E-05,0.870747,-0.491731,7.48179E-05],[0,1,-2,0],[9E9,9E9,9E9,9E9,9E9,9E9]],v10,seam1,Ni36_2_7_15_35_240\Weave:=weave1,fine,tWeldgun \WObj:=owen_test;
    MoveL [[68.500,93.040,98.0],[3.73171E-05,0.870747,-0.491731,7.48179E-05],[0,1,-2,0],[9E9,9E9,9E9,9E9,9E9,9E9]],v500,fine,tWeldgun \WObj:=owen_test;
    WaitTime 10.0;
    WaitTime 60.0;
    !============== layer #: 26 ==============

    ! ===== PASS 1 =====
    MoveL [[44.500,82.000,100.0],[3.73171E-05,0.870747,-0.491731,7.48179E-05],[0,1,-2,0],[9E9,9E9,9E9,9E9,9E9,9E9]],v500,fine,tWeldgun \WObj:=owen_test;
    ! Outer contour 0
    ArcLStart [[44.500,82.000,50.0],[3.73171E-05,0.870747,-0.491731,7.48179E-05],[0,1,-2,0],[9E9,9E9,9E9,9E9,9E9,9E9]],v10,seam1,Ni36_2_7_15_35_240\Weave:=weave1,fine,tWeldgun \WObj:=owen_test;
    ArcL [[44.500,118.000,50.0],[3.73171E-05,0.870747,-0.491731,7.48179E-05],[0,1,-2,0],[9E9,9E9,9E9,9E9,9E9,9E9]],v10,seam1,Ni36_2_7_15_35_240\Weave:=weave1,fine,tWeldgun \WObj:=owen_test;
    ArcL [[80.500,118.000,50.0],[3.73171E-05,0.870747,-0.491731,7.48179E-05],[0,1,-2,0],[9E9,9E9,9E9,9E9,9E9,9E9]],v10,seam1,Ni36_2_7_15_35_240\Weave:=weave1,fine,tWeldgun \WObj:=owen_test;
    ArcL [[80.500,82.000,50.0],[3.73171E-05,0.870747,-0.491731,7.48179E-05],[0,1,-2,0],[9E9,9E9,9E9,9E9,9E9,9E9]],v10,seam1,Ni36_2_7_15_35_240\Weave:=weave1,fine,tWeldgun \WObj:=owen_test;
    ArcLEnd [[44.500,82.000,50.0],[3.73171E-05,0.870747,-0.491731,7.48179E-05],[0,1,-2,0],[9E9,9E9,9E9,9E9,9E9,9E9]],v10,seam1,Ni36_2_7_15_35_240\Weave:=weave1,fine,tWeldgun \WObj:=owen_test;
    MoveL [[44.500,82.000,100.0],[3.73171E-05,0.870747,-0.491731,7.48179E-05],[0,1,-2,0],[9E9,9E9,9E9,9E9,9E9,9E9]],v500,fine,tWeldgun \WObj:=owen_test;
    WaitTime 10.0;

    ! ===== INFILL =====
    MoveL [[56.500,94.000,100.0],[3.73171E-05,0.870747,-0.491731,7.48179E-05],[0,1,-2,0],[9E9,9E9,9E9,9E9,9E9,9E9]],v500,fine,tWeldgun \WObj:=owen_test;
    ArcLStart [[56.500,94.000,50.0],[3.73171E-05,0.870747,-0.491731,7.48179E-05],[0,1,-2,0],[9E9,9E9,9E9,9E9,9E9,9E9]],v10,seam1,Ni36_2_7_15_35_240\Weave:=weave1,fine,tWeldgun \WObj:=owen_test;
    ArcLEnd [[68.500,94.000,50.0],[3.73171E-05,0.870747,-0.491731,7.48179E-05],[0,1,-2,0],[9E9,9E9,9E9,9E9,9E9,9E9]],v10,seam1,Ni36_2_7_15_35_240\Weave:=weave1,fine,tWeldgun \WObj:=owen_test;
    MoveL [[68.500,94.000,100.0],[3.73171E-05,0.870747,-0.491731,7.48179E-05],[0,1,-2,0],[9E9,9E9,9E9,9E9,9E9,9E9]],v500,fine,tWeldgun \WObj:=owen_test;
    WaitTime 10.0;
    MoveL [[56.500,106.000,100.0],[3.73171E-05,0.870747,-0.491731,7.48179E-05],[0,1,-2,0],[9E9,9E9,9E9,9E9,9E9,9E9]],v500,fine,tWeldgun \WObj:=owen_test;
    ArcLStart [[56.500,106.000,50.0],[3.73171E-05,0.870747,-0.491731,7.48179E-05],[0,1,-2,0],[9E9,9E9,9E9,9E9,9E9,9E9]],v10,seam1,Ni36_2_7_15_35_240\Weave:=weave1,fine,tWeldgun \WObj:=owen_test;
    ArcLEnd [[68.500,106.000,50.0],[3.73171E-05,0.870747,-0.491731,7.48179E-05],[0,1,-2,0],[9E9,9E9,9E9,9E9,9E9,9E9]],v10,seam1,Ni36_2_7_15_35_240\Weave:=weave1,fine,tWeldgun \WObj:=owen_test;
    MoveL [[68.500,106.000,100.0],[3.73171E-05,0.870747,-0.491731,7.48179E-05],[0,1,-2,0],[9E9,9E9,9E9,9E9,9E9,9E9]],v500,fine,tWeldgun \WObj:=owen_test;
    WaitTime 10.0;
    WaitTime 60.0;
    !============== layer #: 27 ==============

    ! ===== PASS 1 =====
    MoveL [[44.500,82.960,102.0],[3.73171E-05,0.870747,-0.491731,7.48179E-05],[0,1,-2,0],[9E9,9E9,9E9,9E9,9E9,9E9]],v500,fine,tWeldgun \WObj:=owen_test;
    ! Outer contour 0
    ArcLStart [[44.500,82.960,52.0],[3.73171E-05,0.870747,-0.491731,7.48179E-05],[0,1,-2,0],[9E9,9E9,9E9,9E9,9E9,9E9]],v10,seam1,Ni36_2_7_15_35_240\Weave:=weave1,fine,tWeldgun \WObj:=owen_test;
    ArcL [[44.500,118.960,52.0],[3.73171E-05,0.870747,-0.491731,7.48179E-05],[0,1,-2,0],[9E9,9E9,9E9,9E9,9E9,9E9]],v10,seam1,Ni36_2_7_15_35_240\Weave:=weave1,fine,tWeldgun \WObj:=owen_test;
    ArcL [[80.500,118.960,52.0],[3.73171E-05,0.870747,-0.491731,7.48179E-05],[0,1,-2,0],[9E9,9E9,9E9,9E9,9E9,9E9]],v10,seam1,Ni36_2_7_15_35_240\Weave:=weave1,fine,tWeldgun \WObj:=owen_test;
    ArcL [[80.500,82.960,52.0],[3.73171E-05,0.870747,-0.491731,7.48179E-05],[0,1,-2,0],[9E9,9E9,9E9,9E9,9E9,9E9]],v10,seam1,Ni36_2_7_15_35_240\Weave:=weave1,fine,tWeldgun \WObj:=owen_test;
    ArcLEnd [[44.500,82.960,52.0],[3.73171E-05,0.870747,-0.491731,7.48179E-05],[0,1,-2,0],[9E9,9E9,9E9,9E9,9E9,9E9]],v10,seam1,Ni36_2_7_15_35_240\Weave:=weave1,fine,tWeldgun \WObj:=owen_test;
    MoveL [[44.500,82.960,102.0],[3.73171E-05,0.870747,-0.491731,7.48179E-05],[0,1,-2,0],[9E9,9E9,9E9,9E9,9E9,9E9]],v500,fine,tWeldgun \WObj:=owen_test;
    WaitTime 10.0;

    ! ===== INFILL =====
    MoveL [[56.500,94.960,102.0],[3.73171E-05,0.870747,-0.491731,7.48179E-05],[0,1,-2,0],[9E9,9E9,9E9,9E9,9E9,9E9]],v500,fine,tWeldgun \WObj:=owen_test;
    ArcLStart [[56.500,94.960,52.0],[3.73171E-05,0.870747,-0.491731,7.48179E-05],[0,1,-2,0],[9E9,9E9,9E9,9E9,9E9,9E9]],v10,seam1,Ni36_2_7_15_35_240\Weave:=weave1,fine,tWeldgun \WObj:=owen_test;
    ArcLEnd [[68.500,94.960,52.0],[3.73171E-05,0.870747,-0.491731,7.48179E-05],[0,1,-2,0],[9E9,9E9,9E9,9E9,9E9,9E9]],v10,seam1,Ni36_2_7_15_35_240\Weave:=weave1,fine,tWeldgun \WObj:=owen_test;
    MoveL [[68.500,94.960,102.0],[3.73171E-05,0.870747,-0.491731,7.48179E-05],[0,1,-2,0],[9E9,9E9,9E9,9E9,9E9,9E9]],v500,fine,tWeldgun \WObj:=owen_test;
    WaitTime 10.0;
    MoveL [[56.500,106.960,102.0],[3.73171E-05,0.870747,-0.491731,7.48179E-05],[0,1,-2,0],[9E9,9E9,9E9,9E9,9E9,9E9]],v500,fine,tWeldgun \WObj:=owen_test;
    ArcLStart [[56.500,106.960,52.0],[3.73171E-05,0.870747,-0.491731,7.48179E-05],[0,1,-2,0],[9E9,9E9,9E9,9E9,9E9,9E9]],v10,seam1,Ni36_2_7_15_35_240\Weave:=weave1,fine,tWeldgun \WObj:=owen_test;
    ArcLEnd [[68.500,106.960,52.0],[3.73171E-05,0.870747,-0.491731,7.48179E-05],[0,1,-2,0],[9E9,9E9,9E9,9E9,9E9,9E9]],v10,seam1,Ni36_2_7_15_35_240\Weave:=weave1,fine,tWeldgun \WObj:=owen_test;
    MoveL [[68.500,106.960,102.0],[3.73171E-05,0.870747,-0.491731,7.48179E-05],[0,1,-2,0],[9E9,9E9,9E9,9E9,9E9,9E9]],v500,fine,tWeldgun \WObj:=owen_test;
    WaitTime 10.0;
    WaitTime 60.0;
    !============== layer #: 28 ==============

    ! ===== PASS 1 =====
    MoveL [[44.500,83.920,104.0],[3.73171E-05,0.870747,-0.491731,7.48179E-05],[0,1,-2,0],[9E9,9E9,9E9,9E9,9E9,9E9]],v500,fine,tWeldgun \WObj:=owen_test;
    ! Outer contour 0
    ArcLStart [[44.500,83.920,54.0],[3.73171E-05,0.870747,-0.491731,7.48179E-05],[0,1,-2,0],[9E9,9E9,9E9,9E9,9E9,9E9]],v10,seam1,Ni36_2_7_15_35_240\Weave:=weave1,fine,tWeldgun \WObj:=owen_test;
    ArcL [[44.500,119.920,54.0],[3.73171E-05,0.870747,-0.491731,7.48179E-05],[0,1,-2,0],[9E9,9E9,9E9,9E9,9E9,9E9]],v10,seam1,Ni36_2_7_15_35_240\Weave:=weave1,fine,tWeldgun \WObj:=owen_test;
    ArcL [[60.580,119.920,54.0],[3.73171E-05,0.870747,-0.491731,7.48179E-05],[0,1,-2,0],[9E9,9E9,9E9,9E9,9E9,9E9]],v10,seam1,Ni36_2_7_15_35_240\Weave:=weave1,fine,tWeldgun \WObj:=owen_test;
    ArcL [[80.500,119.920,54.0],[3.73171E-05,0.870747,-0.491731,7.48179E-05],[0,1,-2,0],[9E9,9E9,9E9,9E9,9E9,9E9]],v10,seam1,Ni36_2_7_15_35_240\Weave:=weave1,fine,tWeldgun \WObj:=owen_test;
    ArcL [[80.500,83.920,54.0],[3.73171E-05,0.870747,-0.491731,7.48179E-05],[0,1,-2,0],[9E9,9E9,9E9,9E9,9E9,9E9]],v10,seam1,Ni36_2_7_15_35_240\Weave:=weave1,fine,tWeldgun \WObj:=owen_test;
    ArcL [[64.420,83.920,54.0],[3.73171E-05,0.870747,-0.491731,7.48179E-05],[0,1,-2,0],[9E9,9E9,9E9,9E9,9E9,9E9]],v10,seam1,Ni36_2_7_15_35_240\Weave:=weave1,fine,tWeldgun \WObj:=owen_test;
    ArcLEnd [[44.500,83.920,54.0],[3.73171E-05,0.870747,-0.491731,7.48179E-05],[0,1,-2,0],[9E9,9E9,9E9,9E9,9E9,9E9]],v10,seam1,Ni36_2_7_15_35_240\Weave:=weave1,fine,tWeldgun \WObj:=owen_test;
    MoveL [[44.500,83.920,104.0],[3.73171E-05,0.870747,-0.491731,7.48179E-05],[0,1,-2,0],[9E9,9E9,9E9,9E9,9E9,9E9]],v500,fine,tWeldgun \WObj:=owen_test;
    WaitTime 10.0;

    ! ===== INFILL =====
    MoveL [[56.500,95.920,104.0],[3.73171E-05,0.870747,-0.491731,7.48179E-05],[0,1,-2,0],[9E9,9E9,9E9,9E9,9E9,9E9]],v500,fine,tWeldgun \WObj:=owen_test;
    ArcLStart [[56.500,95.920,54.0],[3.73171E-05,0.870747,-0.491731,7.48179E-05],[0,1,-2,0],[9E9,9E9,9E9,9E9,9E9,9E9]],v10,seam1,Ni36_2_7_15_35_240\Weave:=weave1,fine,tWeldgun \WObj:=owen_test;
    ArcLEnd [[68.500,95.920,54.0],[3.73171E-05,0.870747,-0.491731,7.48179E-05],[0,1,-2,0],[9E9,9E9,9E9,9E9,9E9,9E9]],v10,seam1,Ni36_2_7_15_35_240\Weave:=weave1,fine,tWeldgun \WObj:=owen_test;
    MoveL [[68.500,95.920,104.0],[3.73171E-05,0.870747,-0.491731,7.48179E-05],[0,1,-2,0],[9E9,9E9,9E9,9E9,9E9,9E9]],v500,fine,tWeldgun \WObj:=owen_test;
    WaitTime 10.0;
    MoveL [[56.500,107.920,104.0],[3.73171E-05,0.870747,-0.491731,7.48179E-05],[0,1,-2,0],[9E9,9E9,9E9,9E9,9E9,9E9]],v500,fine,tWeldgun \WObj:=owen_test;
    ArcLStart [[56.500,107.920,54.0],[3.73171E-05,0.870747,-0.491731,7.48179E-05],[0,1,-2,0],[9E9,9E9,9E9,9E9,9E9,9E9]],v10,seam1,Ni36_2_7_15_35_240\Weave:=weave1,fine,tWeldgun \WObj:=owen_test;
    ArcLEnd [[60.580,107.920,54.0],[3.73171E-05,0.870747,-0.491731,7.48179E-05],[0,1,-2,0],[9E9,9E9,9E9,9E9,9E9,9E9]],v10,seam1,Ni36_2_7_15_35_240\Weave:=weave1,fine,tWeldgun \WObj:=owen_test;
    MoveL [[60.580,107.920,104.0],[3.73171E-05,0.870747,-0.491731,7.48179E-05],[0,1,-2,0],[9E9,9E9,9E9,9E9,9E9,9E9]],v500,fine,tWeldgun \WObj:=owen_test;
    WaitTime 10.0;
    WaitTime 60.0;
    !============== layer #: 29 ==============

    ! ===== PASS 1 =====
    MoveL [[44.500,84.880,106.0],[3.73171E-05,0.870747,-0.491731,7.48179E-05],[0,1,-2,0],[9E9,9E9,9E9,9E9,9E9,9E9]],v500,fine,tWeldgun \WObj:=owen_test;
    ! Outer contour 0
    ArcLStart [[44.500,84.880,56.0],[3.73171E-05,0.870747,-0.491731,7.48179E-05],[0,1,-2,0],[9E9,9E9,9E9,9E9,9E9,9E9]],v10,seam1,Ni36_2_7_15_35_240\Weave:=weave1,fine,tWeldgun \WObj:=owen_test;
    ArcL [[44.500,120.880,56.0],[3.73171E-05,0.870747,-0.491731,7.48179E-05],[0,1,-2,0],[9E9,9E9,9E9,9E9,9E9,9E9]],v10,seam1,Ni36_2_7_15_35_240\Weave:=weave1,fine,tWeldgun \WObj:=owen_test;
    ArcL [[80.500,120.880,56.0],[3.73171E-05,0.870747,-0.491731,7.48179E-05],[0,1,-2,0],[9E9,9E9,9E9,9E9,9E9,9E9]],v10,seam1,Ni36_2_7_15_35_240\Weave:=weave1,fine,tWeldgun \WObj:=owen_test;
    ArcL [[80.500,84.880,56.0],[3.73171E-05,0.870747,-0.491731,7.48179E-05],[0,1,-2,0],[9E9,9E9,9E9,9E9,9E9,9E9]],v10,seam1,Ni36_2_7_15_35_240\Weave:=weave1,fine,tWeldgun \WObj:=owen_test;
    ArcLEnd [[44.500,84.880,56.0],[3.73171E-05,0.870747,-0.491731,7.48179E-05],[0,1,-2,0],[9E9,9E9,9E9,9E9,9E9,9E9]],v10,seam1,Ni36_2_7_15_35_240\Weave:=weave1,fine,tWeldgun \WObj:=owen_test;
    MoveL [[44.500,84.880,106.0],[3.73171E-05,0.870747,-0.491731,7.48179E-05],[0,1,-2,0],[9E9,9E9,9E9,9E9,9E9,9E9]],v500,fine,tWeldgun \WObj:=owen_test;
    WaitTime 10.0;

    ! ===== INFILL =====
    MoveL [[56.500,96.880,106.0],[3.73171E-05,0.870747,-0.491731,7.48179E-05],[0,1,-2,0],[9E9,9E9,9E9,9E9,9E9,9E9]],v500,fine,tWeldgun \WObj:=owen_test;
    ArcLStart [[56.500,96.880,56.0],[3.73171E-05,0.870747,-0.491731,7.48179E-05],[0,1,-2,0],[9E9,9E9,9E9,9E9,9E9,9E9]],v10,seam1,Ni36_2_7_15_35_240\Weave:=weave1,fine,tWeldgun \WObj:=owen_test;
    ArcLEnd [[68.500,96.880,56.0],[3.73171E-05,0.870747,-0.491731,7.48179E-05],[0,1,-2,0],[9E9,9E9,9E9,9E9,9E9,9E9]],v10,seam1,Ni36_2_7_15_35_240\Weave:=weave1,fine,tWeldgun \WObj:=owen_test;
    MoveL [[68.500,96.880,106.0],[3.73171E-05,0.870747,-0.491731,7.48179E-05],[0,1,-2,0],[9E9,9E9,9E9,9E9,9E9,9E9]],v500,fine,tWeldgun \WObj:=owen_test;
    WaitTime 10.0;
    MoveL [[56.500,108.880,106.0],[3.73171E-05,0.870747,-0.491731,7.48179E-05],[0,1,-2,0],[9E9,9E9,9E9,9E9,9E9,9E9]],v500,fine,tWeldgun \WObj:=owen_test;
    ArcLStart [[56.500,108.880,56.0],[3.73171E-05,0.870747,-0.491731,7.48179E-05],[0,1,-2,0],[9E9,9E9,9E9,9E9,9E9,9E9]],v10,seam1,Ni36_2_7_15_35_240\Weave:=weave1,fine,tWeldgun \WObj:=owen_test;
    ArcLEnd [[68.500,108.880,56.0],[3.73171E-05,0.870747,-0.491731,7.48179E-05],[0,1,-2,0],[9E9,9E9,9E9,9E9,9E9,9E9]],v10,seam1,Ni36_2_7_15_35_240\Weave:=weave1,fine,tWeldgun \WObj:=owen_test;
    MoveL [[68.500,108.880,106.0],[3.73171E-05,0.870747,-0.491731,7.48179E-05],[0,1,-2,0],[9E9,9E9,9E9,9E9,9E9,9E9]],v500,fine,tWeldgun \WObj:=owen_test;
    WaitTime 10.0;
    WaitTime 60.0;
    !============== layer #: 30 ==============

    ! ===== PASS 1 =====
    MoveL [[44.500,85.840,108.0],[3.73171E-05,0.870747,-0.491731,7.48179E-05],[0,1,-2,0],[9E9,9E9,9E9,9E9,9E9,9E9]],v500,fine,tWeldgun \WObj:=owen_test;
    ! Outer contour 0
    ArcLStart [[44.500,85.840,58.0],[3.73171E-05,0.870747,-0.491731,7.48179E-05],[0,1,-2,0],[9E9,9E9,9E9,9E9,9E9,9E9]],v10,seam1,Ni36_2_7_15_35_240\Weave:=weave1,fine,tWeldgun \WObj:=owen_test;
    ArcL [[44.500,121.840,58.0],[3.73171E-05,0.870747,-0.491731,7.48179E-05],[0,1,-2,0],[9E9,9E9,9E9,9E9,9E9,9E9]],v10,seam1,Ni36_2_7_15_35_240\Weave:=weave1,fine,tWeldgun \WObj:=owen_test;
    ArcL [[80.500,121.840,58.0],[3.73171E-05,0.870747,-0.491731,7.48179E-05],[0,1,-2,0],[9E9,9E9,9E9,9E9,9E9,9E9]],v10,seam1,Ni36_2_7_15_35_240\Weave:=weave1,fine,tWeldgun \WObj:=owen_test;
    ArcL [[80.500,85.840,58.0],[3.73171E-05,0.870747,-0.491731,7.48179E-05],[0,1,-2,0],[9E9,9E9,9E9,9E9,9E9,9E9]],v10,seam1,Ni36_2_7_15_35_240\Weave:=weave1,fine,tWeldgun \WObj:=owen_test;
    ArcLEnd [[44.500,85.840,58.0],[3.73171E-05,0.870747,-0.491731,7.48179E-05],[0,1,-2,0],[9E9,9E9,9E9,9E9,9E9,9E9]],v10,seam1,Ni36_2_7_15_35_240\Weave:=weave1,fine,tWeldgun \WObj:=owen_test;
    MoveL [[44.500,85.840,108.0],[3.73171E-05,0.870747,-0.491731,7.48179E-05],[0,1,-2,0],[9E9,9E9,9E9,9E9,9E9,9E9]],v500,fine,tWeldgun \WObj:=owen_test;
    WaitTime 10.0;

    ! ===== INFILL =====
    MoveL [[56.500,97.840,108.0],[3.73171E-05,0.870747,-0.491731,7.48179E-05],[0,1,-2,0],[9E9,9E9,9E9,9E9,9E9,9E9]],v500,fine,tWeldgun \WObj:=owen_test;
    ArcLStart [[56.500,97.840,58.0],[3.73171E-05,0.870747,-0.491731,7.48179E-05],[0,1,-2,0],[9E9,9E9,9E9,9E9,9E9,9E9]],v10,seam1,Ni36_2_7_15_35_240\Weave:=weave1,fine,tWeldgun \WObj:=owen_test;
    ArcLEnd [[68.500,97.840,58.0],[3.73171E-05,0.870747,-0.491731,7.48179E-05],[0,1,-2,0],[9E9,9E9,9E9,9E9,9E9,9E9]],v10,seam1,Ni36_2_7_15_35_240\Weave:=weave1,fine,tWeldgun \WObj:=owen_test;
    MoveL [[68.500,97.840,108.0],[3.73171E-05,0.870747,-0.491731,7.48179E-05],[0,1,-2,0],[9E9,9E9,9E9,9E9,9E9,9E9]],v500,fine,tWeldgun \WObj:=owen_test;
    WaitTime 10.0;
    MoveL [[56.500,109.840,108.0],[3.73171E-05,0.870747,-0.491731,7.48179E-05],[0,1,-2,0],[9E9,9E9,9E9,9E9,9E9,9E9]],v500,fine,tWeldgun \WObj:=owen_test;
    ArcLStart [[56.500,109.840,58.0],[3.73171E-05,0.870747,-0.491731,7.48179E-05],[0,1,-2,0],[9E9,9E9,9E9,9E9,9E9,9E9]],v10,seam1,Ni36_2_7_15_35_240\Weave:=weave1,fine,tWeldgun \WObj:=owen_test;
    ArcLEnd [[68.500,109.840,58.0],[3.73171E-05,0.870747,-0.491731,7.48179E-05],[0,1,-2,0],[9E9,9E9,9E9,9E9,9E9,9E9]],v10,seam1,Ni36_2_7_15_35_240\Weave:=weave1,fine,tWeldgun \WObj:=owen_test;
    MoveL [[68.500,109.840,108.0],[3.73171E-05,0.870747,-0.491731,7.48179E-05],[0,1,-2,0],[9E9,9E9,9E9,9E9,9E9,9E9]],v500,fine,tWeldgun \WObj:=owen_test;
    WaitTime 10.0;
    WaitTime 60.0;
    !============== layer #: 31 ==============

    ! ===== PASS 1 =====
    MoveL [[44.500,86.800,110.0],[3.73171E-05,0.870747,-0.491731,7.48179E-05],[0,1,-2,0],[9E9,9E9,9E9,9E9,9E9,9E9]],v500,fine,tWeldgun \WObj:=owen_test;
    ! Outer contour 0
    ArcLStart [[44.500,86.800,60.0],[3.73171E-05,0.870747,-0.491731,7.48179E-05],[0,1,-2,0],[9E9,9E9,9E9,9E9,9E9,9E9]],v10,seam1,Ni36_2_7_15_35_240\Weave:=weave1,fine,tWeldgun \WObj:=owen_test;
    ArcL [[44.500,122.800,60.0],[3.73171E-05,0.870747,-0.491731,7.48179E-05],[0,1,-2,0],[9E9,9E9,9E9,9E9,9E9,9E9]],v10,seam1,Ni36_2_7_15_35_240\Weave:=weave1,fine,tWeldgun \WObj:=owen_test;
    ArcL [[80.500,122.800,60.0],[3.73171E-05,0.870747,-0.491731,7.48179E-05],[0,1,-2,0],[9E9,9E9,9E9,9E9,9E9,9E9]],v10,seam1,Ni36_2_7_15_35_240\Weave:=weave1,fine,tWeldgun \WObj:=owen_test;
    ArcL [[80.500,86.800,60.0],[3.73171E-05,0.870747,-0.491731,7.48179E-05],[0,1,-2,0],[9E9,9E9,9E9,9E9,9E9,9E9]],v10,seam1,Ni36_2_7_15_35_240\Weave:=weave1,fine,tWeldgun \WObj:=owen_test;
    ArcLEnd [[44.500,86.800,60.0],[3.73171E-05,0.870747,-0.491731,7.48179E-05],[0,1,-2,0],[9E9,9E9,9E9,9E9,9E9,9E9]],v10,seam1,Ni36_2_7_15_35_240\Weave:=weave1,fine,tWeldgun \WObj:=owen_test;
    MoveL [[44.500,86.800,110.0],[3.73171E-05,0.870747,-0.491731,7.48179E-05],[0,1,-2,0],[9E9,9E9,9E9,9E9,9E9,9E9]],v500,fine,tWeldgun \WObj:=owen_test;
    WaitTime 10.0;

    ! ===== INFILL =====
    MoveL [[56.500,98.800,110.0],[3.73171E-05,0.870747,-0.491731,7.48179E-05],[0,1,-2,0],[9E9,9E9,9E9,9E9,9E9,9E9]],v500,fine,tWeldgun \WObj:=owen_test;
    ArcLStart [[56.500,98.800,60.0],[3.73171E-05,0.870747,-0.491731,7.48179E-05],[0,1,-2,0],[9E9,9E9,9E9,9E9,9E9,9E9]],v10,seam1,Ni36_2_7_15_35_240\Weave:=weave1,fine,tWeldgun \WObj:=owen_test;
    ArcLEnd [[68.500,98.800,60.0],[3.73171E-05,0.870747,-0.491731,7.48179E-05],[0,1,-2,0],[9E9,9E9,9E9,9E9,9E9,9E9]],v10,seam1,Ni36_2_7_15_35_240\Weave:=weave1,fine,tWeldgun \WObj:=owen_test;
    MoveL [[68.500,98.800,110.0],[3.73171E-05,0.870747,-0.491731,7.48179E-05],[0,1,-2,0],[9E9,9E9,9E9,9E9,9E9,9E9]],v500,fine,tWeldgun \WObj:=owen_test;
    WaitTime 10.0;
    MoveL [[56.500,110.800,110.0],[3.73171E-05,0.870747,-0.491731,7.48179E-05],[0,1,-2,0],[9E9,9E9,9E9,9E9,9E9,9E9]],v500,fine,tWeldgun \WObj:=owen_test;
    ArcLStart [[56.500,110.800,60.0],[3.73171E-05,0.870747,-0.491731,7.48179E-05],[0,1,-2,0],[9E9,9E9,9E9,9E9,9E9,9E9]],v10,seam1,Ni36_2_7_15_35_240\Weave:=weave1,fine,tWeldgun \WObj:=owen_test;
    ArcLEnd [[68.500,110.800,60.0],[3.73171E-05,0.870747,-0.491731,7.48179E-05],[0,1,-2,0],[9E9,9E9,9E9,9E9,9E9,9E9]],v10,seam1,Ni36_2_7_15_35_240\Weave:=weave1,fine,tWeldgun \WObj:=owen_test;
    MoveL [[68.500,110.800,110.0],[3.73171E-05,0.870747,-0.491731,7.48179E-05],[0,1,-2,0],[9E9,9E9,9E9,9E9,9E9,9E9]],v500,fine,tWeldgun \WObj:=owen_test;
    WaitTime 10.0;
    WaitTime 60.0;
    !============== layer #: 32 ==============

    ! ===== PASS 1 =====
    MoveL [[44.500,87.760,112.0],[3.73171E-05,0.870747,-0.491731,7.48179E-05],[0,1,-2,0],[9E9,9E9,9E9,9E9,9E9,9E9]],v500,fine,tWeldgun \WObj:=owen_test;
    ! Outer contour 0
    ArcLStart [[44.500,87.760,62.0],[3.73171E-05,0.870747,-0.491731,7.48179E-05],[0,1,-2,0],[9E9,9E9,9E9,9E9,9E9,9E9]],v10,seam1,Ni36_2_7_15_35_240\Weave:=weave1,fine,tWeldgun \WObj:=owen_test;
    ArcL [[44.500,123.760,62.0],[3.73171E-05,0.870747,-0.491731,7.48179E-05],[0,1,-2,0],[9E9,9E9,9E9,9E9,9E9,9E9]],v10,seam1,Ni36_2_7_15_35_240\Weave:=weave1,fine,tWeldgun \WObj:=owen_test;
    ArcL [[80.500,123.760,62.0],[3.73171E-05,0.870747,-0.491731,7.48179E-05],[0,1,-2,0],[9E9,9E9,9E9,9E9,9E9,9E9]],v10,seam1,Ni36_2_7_15_35_240\Weave:=weave1,fine,tWeldgun \WObj:=owen_test;
    ArcL [[80.500,87.760,62.0],[3.73171E-05,0.870747,-0.491731,7.48179E-05],[0,1,-2,0],[9E9,9E9,9E9,9E9,9E9,9E9]],v10,seam1,Ni36_2_7_15_35_240\Weave:=weave1,fine,tWeldgun \WObj:=owen_test;
    ArcL [[68.260,87.760,62.0],[3.73171E-05,0.870747,-0.491731,7.48179E-05],[0,1,-2,0],[9E9,9E9,9E9,9E9,9E9,9E9]],v10,seam1,Ni36_2_7_15_35_240\Weave:=weave1,fine,tWeldgun \WObj:=owen_test;
    ArcLEnd [[44.500,87.760,62.0],[3.73171E-05,0.870747,-0.491731,7.48179E-05],[0,1,-2,0],[9E9,9E9,9E9,9E9,9E9,9E9]],v10,seam1,Ni36_2_7_15_35_240\Weave:=weave1,fine,tWeldgun \WObj:=owen_test;
    MoveL [[44.500,87.760,112.0],[3.73171E-05,0.870747,-0.491731,7.48179E-05],[0,1,-2,0],[9E9,9E9,9E9,9E9,9E9,9E9]],v500,fine,tWeldgun \WObj:=owen_test;
    WaitTime 10.0;

    ! ===== INFILL =====
    MoveL [[56.500,111.760,112.0],[3.73171E-05,0.870747,-0.491731,7.48179E-05],[0,1,-2,0],[9E9,9E9,9E9,9E9,9E9,9E9]],v500,fine,tWeldgun \WObj:=owen_test;
    ArcLStart [[56.500,111.760,62.0],[3.73171E-05,0.870747,-0.491731,7.48179E-05],[0,1,-2,0],[9E9,9E9,9E9,9E9,9E9,9E9]],v10,seam1,Ni36_2_7_15_35_240\Weave:=weave1,fine,tWeldgun \WObj:=owen_test;
    ArcLEnd [[68.500,111.760,62.0],[3.73171E-05,0.870747,-0.491731,7.48179E-05],[0,1,-2,0],[9E9,9E9,9E9,9E9,9E9,9E9]],v10,seam1,Ni36_2_7_15_35_240\Weave:=weave1,fine,tWeldgun \WObj:=owen_test;
    MoveL [[68.500,111.760,112.0],[3.73171E-05,0.870747,-0.491731,7.48179E-05],[0,1,-2,0],[9E9,9E9,9E9,9E9,9E9,9E9]],v500,fine,tWeldgun \WObj:=owen_test;
    WaitTime 10.0;
    WaitTime 60.0;
    !============== layer #: 33 ==============

    ! ===== PASS 1 =====
    MoveL [[44.500,88.720,114.0],[3.73171E-05,0.870747,-0.491731,7.48179E-05],[0,1,-2,0],[9E9,9E9,9E9,9E9,9E9,9E9]],v500,fine,tWeldgun \WObj:=owen_test;
    ! Outer contour 0
    ArcLStart [[44.500,88.720,64.0],[3.73171E-05,0.870747,-0.491731,7.48179E-05],[0,1,-2,0],[9E9,9E9,9E9,9E9,9E9,9E9]],v10,seam1,Ni36_2_7_15_35_240\Weave:=weave1,fine,tWeldgun \WObj:=owen_test;
    ArcL [[44.500,124.720,64.0],[3.73171E-05,0.870747,-0.491731,7.48179E-05],[0,1,-2,0],[9E9,9E9,9E9,9E9,9E9,9E9]],v10,seam1,Ni36_2_7_15_35_240\Weave:=weave1,fine,tWeldgun \WObj:=owen_test;
    ArcL [[80.500,124.720,64.0],[3.73171E-05,0.870747,-0.491731,7.48179E-05],[0,1,-2,0],[9E9,9E9,9E9,9E9,9E9,9E9]],v10,seam1,Ni36_2_7_15_35_240\Weave:=weave1,fine,tWeldgun \WObj:=owen_test;
    ArcL [[80.500,88.720,64.0],[3.73171E-05,0.870747,-0.491731,7.48179E-05],[0,1,-2,0],[9E9,9E9,9E9,9E9,9E9,9E9]],v10,seam1,Ni36_2_7_15_35_240\Weave:=weave1,fine,tWeldgun \WObj:=owen_test;
    ArcLEnd [[44.500,88.720,64.0],[3.73171E-05,0.870747,-0.491731,7.48179E-05],[0,1,-2,0],[9E9,9E9,9E9,9E9,9E9,9E9]],v10,seam1,Ni36_2_7_15_35_240\Weave:=weave1,fine,tWeldgun \WObj:=owen_test;
    MoveL [[44.500,88.720,114.0],[3.73171E-05,0.870747,-0.491731,7.48179E-05],[0,1,-2,0],[9E9,9E9,9E9,9E9,9E9,9E9]],v500,fine,tWeldgun \WObj:=owen_test;
    WaitTime 10.0;

    ! ===== INFILL =====
    MoveL [[56.500,100.720,114.0],[3.73171E-05,0.870747,-0.491731,7.48179E-05],[0,1,-2,0],[9E9,9E9,9E9,9E9,9E9,9E9]],v500,fine,tWeldgun \WObj:=owen_test;
    ArcLStart [[56.500,100.720,64.0],[3.73171E-05,0.870747,-0.491731,7.48179E-05],[0,1,-2,0],[9E9,9E9,9E9,9E9,9E9,9E9]],v10,seam1,Ni36_2_7_15_35_240\Weave:=weave1,fine,tWeldgun \WObj:=owen_test;
    ArcLEnd [[68.500,100.720,64.0],[3.73171E-05,0.870747,-0.491731,7.48179E-05],[0,1,-2,0],[9E9,9E9,9E9,9E9,9E9,9E9]],v10,seam1,Ni36_2_7_15_35_240\Weave:=weave1,fine,tWeldgun \WObj:=owen_test;
    MoveL [[68.500,100.720,114.0],[3.73171E-05,0.870747,-0.491731,7.48179E-05],[0,1,-2,0],[9E9,9E9,9E9,9E9,9E9,9E9]],v500,fine,tWeldgun \WObj:=owen_test;
    WaitTime 10.0;
    MoveL [[56.500,112.720,114.0],[3.73171E-05,0.870747,-0.491731,7.48179E-05],[0,1,-2,0],[9E9,9E9,9E9,9E9,9E9,9E9]],v500,fine,tWeldgun \WObj:=owen_test;
    ArcLStart [[56.500,112.720,64.0],[3.73171E-05,0.870747,-0.491731,7.48179E-05],[0,1,-2,0],[9E9,9E9,9E9,9E9,9E9,9E9]],v10,seam1,Ni36_2_7_15_35_240\Weave:=weave1,fine,tWeldgun \WObj:=owen_test;
    ArcLEnd [[68.500,112.720,64.0],[3.73171E-05,0.870747,-0.491731,7.48179E-05],[0,1,-2,0],[9E9,9E9,9E9,9E9,9E9,9E9]],v10,seam1,Ni36_2_7_15_35_240\Weave:=weave1,fine,tWeldgun \WObj:=owen_test;
    MoveL [[68.500,112.720,114.0],[3.73171E-05,0.870747,-0.491731,7.48179E-05],[0,1,-2,0],[9E9,9E9,9E9,9E9,9E9,9E9]],v500,fine,tWeldgun \WObj:=owen_test;
    WaitTime 10.0;
    WaitTime 60.0;
    !============== layer #: 34 ==============

    ! ===== PASS 1 =====
    MoveL [[44.500,89.680,116.0],[3.73171E-05,0.870747,-0.491731,7.48179E-05],[0,1,-2,0],[9E9,9E9,9E9,9E9,9E9,9E9]],v500,fine,tWeldgun \WObj:=owen_test;
    ! Outer contour 0
    ArcLStart [[44.500,89.680,66.0],[3.73171E-05,0.870747,-0.491731,7.48179E-05],[0,1,-2,0],[9E9,9E9,9E9,9E9,9E9,9E9]],v10,seam1,Ni36_2_7_15_35_240\Weave:=weave1,fine,tWeldgun \WObj:=owen_test;
    ArcL [[44.500,125.680,66.0],[3.73171E-05,0.870747,-0.491731,7.48179E-05],[0,1,-2,0],[9E9,9E9,9E9,9E9,9E9,9E9]],v10,seam1,Ni36_2_7_15_35_240\Weave:=weave1,fine,tWeldgun \WObj:=owen_test;
    ArcL [[80.500,125.680,66.0],[3.73171E-05,0.870747,-0.491731,7.48179E-05],[0,1,-2,0],[9E9,9E9,9E9,9E9,9E9,9E9]],v10,seam1,Ni36_2_7_15_35_240\Weave:=weave1,fine,tWeldgun \WObj:=owen_test;
    ArcL [[80.500,89.680,66.0],[3.73171E-05,0.870747,-0.491731,7.48179E-05],[0,1,-2,0],[9E9,9E9,9E9,9E9,9E9,9E9]],v10,seam1,Ni36_2_7_15_35_240\Weave:=weave1,fine,tWeldgun \WObj:=owen_test;
    ArcLEnd [[44.500,89.680,66.0],[3.73171E-05,0.870747,-0.491731,7.48179E-05],[0,1,-2,0],[9E9,9E9,9E9,9E9,9E9,9E9]],v10,seam1,Ni36_2_7_15_35_240\Weave:=weave1,fine,tWeldgun \WObj:=owen_test;
    MoveL [[44.500,89.680,116.0],[3.73171E-05,0.870747,-0.491731,7.48179E-05],[0,1,-2,0],[9E9,9E9,9E9,9E9,9E9,9E9]],v500,fine,tWeldgun \WObj:=owen_test;
    WaitTime 10.0;

    ! ===== INFILL =====
    MoveL [[56.500,101.680,116.0],[3.73171E-05,0.870747,-0.491731,7.48179E-05],[0,1,-2,0],[9E9,9E9,9E9,9E9,9E9,9E9]],v500,fine,tWeldgun \WObj:=owen_test;
    ArcLStart [[56.500,101.680,66.0],[3.73171E-05,0.870747,-0.491731,7.48179E-05],[0,1,-2,0],[9E9,9E9,9E9,9E9,9E9,9E9]],v10,seam1,Ni36_2_7_15_35_240\Weave:=weave1,fine,tWeldgun \WObj:=owen_test;
    ArcLEnd [[68.500,101.680,66.0],[3.73171E-05,0.870747,-0.491731,7.48179E-05],[0,1,-2,0],[9E9,9E9,9E9,9E9,9E9,9E9]],v10,seam1,Ni36_2_7_15_35_240\Weave:=weave1,fine,tWeldgun \WObj:=owen_test;
    MoveL [[68.500,101.680,116.0],[3.73171E-05,0.870747,-0.491731,7.48179E-05],[0,1,-2,0],[9E9,9E9,9E9,9E9,9E9,9E9]],v500,fine,tWeldgun \WObj:=owen_test;
    WaitTime 10.0;
    MoveL [[56.500,113.680,116.0],[3.73171E-05,0.870747,-0.491731,7.48179E-05],[0,1,-2,0],[9E9,9E9,9E9,9E9,9E9,9E9]],v500,fine,tWeldgun \WObj:=owen_test;
    ArcLStart [[56.500,113.680,66.0],[3.73171E-05,0.870747,-0.491731,7.48179E-05],[0,1,-2,0],[9E9,9E9,9E9,9E9,9E9,9E9]],v10,seam1,Ni36_2_7_15_35_240\Weave:=weave1,fine,tWeldgun \WObj:=owen_test;
    ArcLEnd [[68.500,113.680,66.0],[3.73171E-05,0.870747,-0.491731,7.48179E-05],[0,1,-2,0],[9E9,9E9,9E9,9E9,9E9,9E9]],v10,seam1,Ni36_2_7_15_35_240\Weave:=weave1,fine,tWeldgun \WObj:=owen_test;
    MoveL [[68.500,113.680,116.0],[3.73171E-05,0.870747,-0.491731,7.48179E-05],[0,1,-2,0],[9E9,9E9,9E9,9E9,9E9,9E9]],v500,fine,tWeldgun \WObj:=owen_test;
    WaitTime 10.0;
    WaitTime 60.0;
    !============== layer #: 35 ==============

    ! ===== PASS 1 =====
    MoveL [[44.500,90.640,118.0],[3.73171E-05,0.870747,-0.491731,7.48179E-05],[0,1,-2,0],[9E9,9E9,9E9,9E9,9E9,9E9]],v500,fine,tWeldgun \WObj:=owen_test;
    ! Outer contour 0
    ArcLStart [[44.500,90.640,68.0],[3.73171E-05,0.870747,-0.491731,7.48179E-05],[0,1,-2,0],[9E9,9E9,9E9,9E9,9E9,9E9]],v10,seam1,Ni36_2_7_15_35_240\Weave:=weave1,fine,tWeldgun \WObj:=owen_test;
    ArcL [[44.500,126.640,68.0],[3.73171E-05,0.870747,-0.491731,7.48179E-05],[0,1,-2,0],[9E9,9E9,9E9,9E9,9E9,9E9]],v10,seam1,Ni36_2_7_15_35_240\Weave:=weave1,fine,tWeldgun \WObj:=owen_test;
    ArcL [[80.500,126.640,68.0],[3.73171E-05,0.870747,-0.491731,7.48179E-05],[0,1,-2,0],[9E9,9E9,9E9,9E9,9E9,9E9]],v10,seam1,Ni36_2_7_15_35_240\Weave:=weave1,fine,tWeldgun \WObj:=owen_test;
    ArcL [[80.500,90.640,68.0],[3.73171E-05,0.870747,-0.491731,7.48179E-05],[0,1,-2,0],[9E9,9E9,9E9,9E9,9E9,9E9]],v10,seam1,Ni36_2_7_15_35_240\Weave:=weave1,fine,tWeldgun \WObj:=owen_test;
    ArcLEnd [[44.500,90.640,68.0],[3.73171E-05,0.870747,-0.491731,7.48179E-05],[0,1,-2,0],[9E9,9E9,9E9,9E9,9E9,9E9]],v10,seam1,Ni36_2_7_15_35_240\Weave:=weave1,fine,tWeldgun \WObj:=owen_test;
    MoveL [[44.500,90.640,118.0],[3.73171E-05,0.870747,-0.491731,7.48179E-05],[0,1,-2,0],[9E9,9E9,9E9,9E9,9E9,9E9]],v500,fine,tWeldgun \WObj:=owen_test;
    WaitTime 10.0;

    ! ===== INFILL =====
    MoveL [[56.500,114.640,118.0],[3.73171E-05,0.870747,-0.491731,7.48179E-05],[0,1,-2,0],[9E9,9E9,9E9,9E9,9E9,9E9]],v500,fine,tWeldgun \WObj:=owen_test;
    ArcLStart [[56.500,114.640,68.0],[3.73171E-05,0.870747,-0.491731,7.48179E-05],[0,1,-2,0],[9E9,9E9,9E9,9E9,9E9,9E9]],v10,seam1,Ni36_2_7_15_35_240\Weave:=weave1,fine,tWeldgun \WObj:=owen_test;
    ArcLEnd [[68.500,114.640,68.0],[3.73171E-05,0.870747,-0.491731,7.48179E-05],[0,1,-2,0],[9E9,9E9,9E9,9E9,9E9,9E9]],v10,seam1,Ni36_2_7_15_35_240\Weave:=weave1,fine,tWeldgun \WObj:=owen_test;
    MoveL [[68.500,114.640,118.0],[3.73171E-05,0.870747,-0.491731,7.48179E-05],[0,1,-2,0],[9E9,9E9,9E9,9E9,9E9,9E9]],v500,fine,tWeldgun \WObj:=owen_test;
    WaitTime 10.0;
    WaitTime 60.0;
    !============== layer #: 36 ==============

    ! ===== PASS 1 =====
    MoveL [[44.500,91.600,120.0],[3.73171E-05,0.870747,-0.491731,7.48179E-05],[0,1,-2,0],[9E9,9E9,9E9,9E9,9E9,9E9]],v500,fine,tWeldgun \WObj:=owen_test;
    ! Outer contour 0
    ArcLStart [[44.500,91.600,70.0],[3.73171E-05,0.870747,-0.491731,7.48179E-05],[0,1,-2,0],[9E9,9E9,9E9,9E9,9E9,9E9]],v10,seam1,Ni36_2_7_15_35_240\Weave:=weave1,fine,tWeldgun \WObj:=owen_test;
    ArcL [[44.500,127.600,70.0],[3.73171E-05,0.870747,-0.491731,7.48179E-05],[0,1,-2,0],[9E9,9E9,9E9,9E9,9E9,9E9]],v10,seam1,Ni36_2_7_15_35_240\Weave:=weave1,fine,tWeldgun \WObj:=owen_test;
    ArcL [[80.500,127.600,70.0],[3.73171E-05,0.870747,-0.491731,7.48179E-05],[0,1,-2,0],[9E9,9E9,9E9,9E9,9E9,9E9]],v10,seam1,Ni36_2_7_15_35_240\Weave:=weave1,fine,tWeldgun \WObj:=owen_test;
    ArcL [[80.500,91.600,70.0],[3.73171E-05,0.870747,-0.491731,7.48179E-05],[0,1,-2,0],[9E9,9E9,9E9,9E9,9E9,9E9]],v10,seam1,Ni36_2_7_15_35_240\Weave:=weave1,fine,tWeldgun \WObj:=owen_test;
    ArcLEnd [[44.500,91.600,70.0],[3.73171E-05,0.870747,-0.491731,7.48179E-05],[0,1,-2,0],[9E9,9E9,9E9,9E9,9E9,9E9]],v10,seam1,Ni36_2_7_15_35_240\Weave:=weave1,fine,tWeldgun \WObj:=owen_test;
    MoveL [[44.500,91.600,120.0],[3.73171E-05,0.870747,-0.491731,7.48179E-05],[0,1,-2,0],[9E9,9E9,9E9,9E9,9E9,9E9]],v500,fine,tWeldgun \WObj:=owen_test;
    WaitTime 10.0;

    ! ===== INFILL =====
    MoveL [[56.500,103.600,120.0],[3.73171E-05,0.870747,-0.491731,7.48179E-05],[0,1,-2,0],[9E9,9E9,9E9,9E9,9E9,9E9]],v500,fine,tWeldgun \WObj:=owen_test;
    ArcLStart [[56.500,103.600,70.0],[3.73171E-05,0.870747,-0.491731,7.48179E-05],[0,1,-2,0],[9E9,9E9,9E9,9E9,9E9,9E9]],v10,seam1,Ni36_2_7_15_35_240\Weave:=weave1,fine,tWeldgun \WObj:=owen_test;
    ArcLEnd [[68.500,103.600,70.0],[3.73171E-05,0.870747,-0.491731,7.48179E-05],[0,1,-2,0],[9E9,9E9,9E9,9E9,9E9,9E9]],v10,seam1,Ni36_2_7_15_35_240\Weave:=weave1,fine,tWeldgun \WObj:=owen_test;
    MoveL [[68.500,103.600,120.0],[3.73171E-05,0.870747,-0.491731,7.48179E-05],[0,1,-2,0],[9E9,9E9,9E9,9E9,9E9,9E9]],v500,fine,tWeldgun \WObj:=owen_test;
    WaitTime 10.0;
    MoveL [[56.500,115.600,120.0],[3.73171E-05,0.870747,-0.491731,7.48179E-05],[0,1,-2,0],[9E9,9E9,9E9,9E9,9E9,9E9]],v500,fine,tWeldgun \WObj:=owen_test;
