

  PROC pFeature_Construction3()
    MoveAbsJ [[50,40,45,102,34,-171.71],[9E9,9E9,9E9,9E9,9E9,9E9]]\NoEOffs,v20,fine,tWeldgun;
    MoveL [[437.622,1082.359,-109.96],[1,0,0,0],[0,0,0,0],[9E9,9E9,9E9,9E9,9E9,9E9]],v20,z50,tWeldgun;
    MoveL [[437.622,1082.359,-148.068],[1,0,0,0],[0,0,0,0],[9E9,9E9,9E9,9E9,9E9,9E9]],v20,z50,tWeldgun;
    ! Plunge Move Starts
    MoveL [[437.622,1082.359,-150.1],[1,0,0,0],[0,0,0,0],[9E9,9E9,9E9,9E9,9E9,9E9]],v5,z50,tWeldgun;
    ! Lead In Move Starts
    MoveL [[437.768,1082.359,-150.454],[1,0,0,0],[0,0,0,0],[9E9,9E9,9E9,9E9,9E9,9E9]],v10,z50,tWeldgun;
    MoveL [[438.122,1082.359,-150.6],[1,0,0,0],[0,0,0,0],[9E9,9E9,9E9,9E9,9E9,9E9]],v10,z50,tWeldgun;
    ! Depositing Move Starts
    ! Welding Move Starts (Arc is about to be established)
    ArcLStart [[438.122,1082.359,-150.6],[1,0,0,0],[0,0,0,0],[9E9,9E9,9E9,9E9,9E9,9E9]],v10,seam1,Ni36_2_7_15_35_240\Weave:=weave1,fine,tWeldgun;
    ! Lead Out Move Starts
    ArcL [[438.475,1082.359,-150.454],[1,0,0,0],[0,0,0,0],[9E9,9E9,9E9,9E9,9E9,9E9]],v10,seam1,Ni36_2_7_15_35_240\Weave:=weave1,z50,tWeldgun;
    ! Welding Move Ends (Arc is about to be stopped)
    ArcLEnd [[438.475,1082.359,-150.454],[1,0,0,0],[0,0,0,0],[9E9,9E9,9E9,9E9,9E9,9E9]],v10,seam1,Ni36_2_7_15_35_240\Weave:=weave1,z50,tWeldgun;
    WaitTime 180;
    MoveL [[438.622,1082.359,-150.1],[1,0,0,0],[0,0,0,0],[9E9,9E9,9E9,9E9,9E9,9E9]],v10,z50,tWeldgun;
    ! Rapid Move Starts
    MoveL [[438.622,1082.359,-120.12],[1,0,0,0],[0,0,0,0],[9E9,9E9,9E9,9E9,9E9,9E9]],v20,z50,tWeldgun;
    MoveL [[423.598,1089.61,-120.12],[1,0,0,0],[0,0,0,0],[9E9,9E9,9E9,9E9,9E9,9E9]],v20,z50,tWeldgun;
    MoveL [[423.598,1089.61,-148.068],[1,0,0,0],[0,0,0,0],[9E9,9E9,9E9,9E9,9E9,9E9]],v20,z50,tWeldgun;
    ! Plunge Move Starts
    MoveL [[423.598,1089.61,-150.1],[1,0,0,0],[0,0,0,0],[9E9,9E9,9E9,9E9,9E9,9E9]],v5,z50,tWeldgun;
    ! Lead In Move Starts
    MoveL [[423.744,1089.61,-150.454],[1,0,0,0],[0,0,0,0],[9E9,9E9,9E9,9E9,9E9,9E9]],v10,z50,tWeldgun;
    MoveL [[424.098,1089.61,-150.6],[1,0,0,0],[0,0,0,0],[9E9,9E9,9E9,9E9,9E9,9E9]],v10,z50,tWeldgun;
    ! Depositing Move Starts
    ! Welding Move Starts (Arc is about to be established)
    ArcLStart [[452.146,1089.61,-150.6],[1,0,0,0],[0,0,0,0],[9E9,9E9,9E9,9E9,9E9,9E9]],v10,seam1,Ni36_2_7_15_35_240\Weave:=weave1,fine,tWeldgun;
    ! Lead Out Move Starts
    ArcL [[452.499,1089.61,-150.454],[1,0,0,0],[0,0,0,0],[9E9,9E9,9E9,9E9,9E9,9E9]],v10,seam1,Ni36_2_7_15_35_240\Weave:=weave1,z50,tWeldgun;
    ! Welding Move Ends (Arc is about to be stopped)
    ArcLEnd [[452.499,1089.61,-150.454],[1,0,0,0],[0,0,0,0],[9E9,9E9,9E9,9E9,9E9,9E9]],v10,seam1,Ni36_2_7_15_35_240\Weave:=weave1,z50,tWeldgun;
    WaitTime 180;
    MoveL [[452.646,1089.61,-150.1],[1,0,0,0],[0,0,0,0],[9E9,9E9,9E9,9E9,9E9,9E9]],v10,z50,tWeldgun;
    ! Rapid Move Starts
    MoveL [[452.646,1089.61,-120.12],[1,0,0,0],[0,0,0,0],[9E9,9E9,9E9,9E9,9E9,9E9]],v20,z50,tWeldgun;
    MoveL [[414.379,1096.861,-120.12],[1,0,0,0],[0,0,0,0],[9E9,9E9,9E9,9E9,9E9,9E9]],v20,z50,tWeldgun;
    MoveL [[414.379,1096.861,-148.068],[1,0,0,0],[0,0,0,0],[9E9,9E9,9E9,9E9,9E9,9E9]],v20,z50,tWeldgun;
    ! Plunge Move Starts
    MoveL [[414.379,1096.861,-150.1],[1,0,0,0],[0,0,0,0],[9E9,9E9,9E9,9E9,9E9,9E9]],v5,z50,tWeldgun;
    ! Lead In Move Starts
    MoveL [[414.525,1096.861,-150.454],[1,0,0,0],[0,0,0,0],[9E9,9E9,9E9,9E9,9E9,9E9]],v10,z50,tWeldgun;
    MoveL [[414.879,1096.861,-150.6],[1,0,0,0],[0,0,0,0],[9E9,9E9,9E9,9E9,9E9,9E9]],v10,z50,tWeldgun;
    ! Depositing Move Starts
    ! Welding Move Starts (Arc is about to be established)
    ArcLStart [[461.364,1096.861,-150.6],[1,0,0,0],[0,0,0,0],[9E9,9E9,9E9,9E9,9E9,9E9]],v10,seam1,Ni36_2_7_15_35_240\Weave:=weave1,fine,tWeldgun;
    ! Lead Out Move Starts
    ArcL [[461.717,1096.861,-150.454],[1,0,0,0],[0,0,0,0],[9E9,9E9,9E9,9E9,9E9,9E9]],v10,seam1,Ni36_2_7_15_35_240\Weave:=weave1,z50,tWeldgun;
    ! Welding Move Ends (Arc is about to be stopped)
    ArcLEnd [[461.717,1096.861,-150.454],[1,0,0,0],[0,0,0,0],[9E9,9E9,9E9,9E9,9E9,9E9]],v10,seam1,Ni36_2_7_15_35_240\Weave:=weave1,z50,tWeldgun;
    WaitTime 180;
    MoveL [[461.864,1096.861,-150.1],[1,0,0,0],[0,0,0,0],[9E9,9E9,9E9,9E9,9E9,9E9]],v10,z50,tWeldgun;
    ! Rapid Move Starts
    MoveL [[461.864,1096.861,-120.12],[1,0,0,0],[0,0,0,0],[9E9,9E9,9E9,9E9,9E9,9E9]],v20,z50,tWeldgun;
    MoveL [[407.792,1104.112,-120.12],[1,0,0,0],[0,0,0,0],[9E9,9E9,9E9,9E9,9E9,9E9]],v20,z50,tWeldgun;
    MoveL [[407.792,1104.112,-148.068],[1,0,0,0],[0,0,0,0],[9E9,9E9,9E9,9E9,9E9,9E9]],v20,z50,tWeldgun;
    ! Plunge Move Starts
    MoveL [[407.792,1104.112,-150.1],[1,0,0,0],[0,0,0,0],[9E9,9E9,9E9,9E9,9E9,9E9]],v5,z50,tWeldgun;
    ! Lead In Move Starts
    MoveL [[407.939,1104.112,-150.454],[1,0,0,0],[0,0,0,0],[9E9,9E9,9E9,9E9,9E9,9E9]],v10,z50,tWeldgun;
    MoveL [[408.292,1104.112,-150.6],[1,0,0,0],[0,0,0,0],[9E9,9E9,9E9,9E9,9E9,9E9]],v10,z50,tWeldgun;
    ! Depositing Move Starts
    ! Welding Move Starts (Arc is about to be established)
    ArcLStart [[467.951,1104.112,-150.6],[1,0,0,0],[0,0,0,0],[9E9,9E9,9E9,9E9,9E9,9E9]],v10,seam1,Ni36_2_7_15_35_240\Weave:=weave1,fine,tWeldgun;
    ! Lead Out Move Starts
    ArcL [[468.305,1104.112,-150.454],[1,0,0,0],[0,0,0,0],[9E9,9E9,9E9,9E9,9E9,9E9]],v10,seam1,Ni36_2_7_15_35_240\Weave:=weave1,z50,tWeldgun;
    ! Welding Move Ends (Arc is about to be stopped)
    ArcLEnd [[468.305,1104.112,-150.454],[1,0,0,0],[0,0,0,0],[9E9,9E9,9E9,9E9,9E9,9E9]],v10,seam1,Ni36_2_7_15_35_240\Weave:=weave1,z50,tWeldgun;
    WaitTime 180;
    MoveL [[468.451,1104.112,-150.1],[1,0,0,0],[0,0,0,0],[9E9,9E9,9E9,9E9,9E9,9E9]],v10,z50,tWeldgun;
    ! Rapid Move Starts
    MoveL [[468.451,1104.112,-120.12],[1,0,0,0],[0,0,0,0],[9E9,9E9,9E9,9E9,9E9,9E9]],v20,z50,tWeldgun;
    MoveL [[403.191,1111.363,-120.12],[1,0,0,0],[0,0,0,0],[9E9,9E9,9E9,9E9,9E9,9E9]],v20,z50,tWeldgun;
    MoveL [[403.191,1111.363,-148.068],[1,0,0,0],[0,0,0,0],[9E9,9E9,9E9,9E9,9E9,9E9]],v20,z50,tWeldgun;
    ! Plunge Move Starts
    MoveL [[403.191,1111.363,-150.1],[1,0,0,0],[0,0,0,0],[9E9,9E9,9E9,9E9,9E9,9E9]],v5,z50,tWeldgun;
    ! Lead In Move Starts
    MoveL [[403.337,1111.363,-150.454],[1,0,0,0],[0,0,0,0],[9E9,9E9,9E9,9E9,9E9,9E9]],v10,z50,tWeldgun;
    MoveL [[403.691,1111.363,-150.6],[1,0,0,0],[0,0,0,0],[9E9,9E9,9E9,9E9,9E9,9E9]],v10,z50,tWeldgun;
    ! Depositing Move Starts
    ! Welding Move Starts (Arc is about to be established)
    ArcLStart [[472.553,1111.363,-150.6],[1,0,0,0],[0,0,0,0],[9E9,9E9,9E9,9E9,9E9,9E9]],v10,seam1,Ni36_2_7_15_35_240\Weave:=weave1,fine,tWeldgun;
    ! Lead Out Move Starts
    ArcL [[472.907,1111.363,-150.454],[1,0,0,0],[0,0,0,0],[9E9,9E9,9E9,9E9,9E9,9E9]],v10,seam1,Ni36_2_7_15_35_240\Weave:=weave1,z50,tWeldgun;
    ! Welding Move Ends (Arc is about to be stopped)
    ArcLEnd [[472.907,1111.363,-150.454],[1,0,0,0],[0,0,0,0],[9E9,9E9,9E9,9E9,9E9,9E9]],v10,seam1,Ni36_2_7_15_35_240\Weave:=weave1,z50,tWeldgun;
    WaitTime 180;
    MoveL [[473.053,1111.363,-150.1],[1,0,0,0],[0,0,0,0],[9E9,9E9,9E9,9E9,9E9,9E9]],v10,z50,tWeldgun;
    ! Rapid Move Starts
    MoveL [[473.053,1111.363,-120.12],[1,0,0,0],[0,0,0,0],[9E9,9E9,9E9,9E9,9E9,9E9]],v20,z50,tWeldgun;
    MoveL [[399.976,1118.614,-120.12],[1,0,0,0],[0,0,0,0],[9E9,9E9,9E9,9E9,9E9,9E9]],v20,z50,tWeldgun;
    MoveL [[399.976,1118.614,-148.068],[1,0,0,0],[0,0,0,0],[9E9,9E9,9E9,9E9,9E9,9E9]],v20,z50,tWeldgun;
    ! Plunge Move Starts
    MoveL [[399.976,1118.614,-150.1],[1,0,0,0],[0,0,0,0],[9E9,9E9,9E9,9E9,9E9,9E9]],v5,z50,tWeldgun;
    ! Lead In Move Starts
    MoveL [[400.123,1118.614,-150.454],[1,0,0,0],[0,0,0,0],[9E9,9E9,9E9,9E9,9E9,9E9]],v10,z50,tWeldgun;
    MoveL [[400.476,1118.614,-150.6],[1,0,0,0],[0,0,0,0],[9E9,9E9,9E9,9E9,9E9,9E9]],v10,z50,tWeldgun;
    ! Depositing Move Starts
    ! Welding Move Starts (Arc is about to be established)
    ArcLStart [[475.767,1118.614,-150.6],[1,0,0,0],[0,0,0,0],[9E9,9E9,9E9,9E9,9E9,9E9]],v10,seam1,Ni36_2_7_15_35_240\Weave:=weave1,fine,tWeldgun;
    ! Lead Out Move Starts
    ArcL [[476.121,1118.614,-150.454],[1,0,0,0],[0,0,0,0],[9E9,9E9,9E9,9E9,9E9,9E9]],v10,seam1,Ni36_2_7_15_35_240\Weave:=weave1,z50,tWeldgun;
    ! Welding Move Ends (Arc is about to be stopped)
    ArcLEnd [[476.121,1118.614,-150.454],[1,0,0,0],[0,0,0,0],[9E9,9E9,9E9,9E9,9E9,9E9]],v10,seam1,Ni36_2_7_15_35_240\Weave:=weave1,z50,tWeldgun;
    WaitTime 180;
    MoveL [[476.267,1118.614,-150.1],[1,0,0,0],[0,0,0,0],[9E9,9E9,9E9,9E9,9E9,9E9]],v10,z50,tWeldgun;
    ! Rapid Move Starts
    MoveL [[476.267,1118.614,-120.12],[1,0,0,0],[0,0,0,0],[9E9,9E9,9E9,9E9,9E9,9E9]],v20,z50,tWeldgun;
    MoveL [[397.72,1125.865,-120.12],[1,0,0,0],[0,0,0,0],[9E9,9E9,9E9,9E9,9E9,9E9]],v20,z50,tWeldgun;
    MoveL [[397.72,1125.865,-148.068],[1,0,0,0],[0,0,0,0],[9E9,9E9,9E9,9E9,9E9,9E9]],v20,z50,tWeldgun;
    ! Plunge Move Starts
    MoveL [[397.72,1125.865,-150.1],[1,0,0,0],[0,0,0,0],[9E9,9E9,9E9,9E9,9E9,9E9]],v5,z50,tWeldgun;
    ! Lead In Move Starts
    MoveL [[397.866,1125.865,-150.454],[1,0,0,0],[0,0,0,0],[9E9,9E9,9E9,9E9,9E9,9E9]],v10,z50,tWeldgun;
    MoveL [[398.22,1125.865,-150.6],[1,0,0,0],[0,0,0,0],[9E9,9E9,9E9,9E9,9E9,9E9]],v10,z50,tWeldgun;
    ! Depositing Move Starts
    ! Welding Move Starts (Arc is about to be established)
    ArcLStart [[478.024,1125.865,-150.6],[1,0,0,0],[0,0,0,0],[9E9,9E9,9E9,9E9,9E9,9E9]],v10,seam1,Ni36_2_7_15_35_240\Weave:=weave1,fine,tWeldgun;
    ! Lead Out Move Starts
    ArcL [[478.377,1125.865,-150.454],[1,0,0,0],[0,0,0,0],[9E9,9E9,9E9,9E9,9E9,9E9]],v10,seam1,Ni36_2_7_15_35_240\Weave:=weave1,z50,tWeldgun;
    ! Welding Move Ends (Arc is about to be stopped)
    ArcLEnd [[478.377,1125.865,-150.454],[1,0,0,0],[0,0,0,0],[9E9,9E9,9E9,9E9,9E9,9E9]],v10,seam1,Ni36_2_7_15_35_240\Weave:=weave1,z50,tWeldgun;
    WaitTime 180;
    MoveL [[478.524,1125.865,-150.1],[1,0,0,0],[0,0,0,0],[9E9,9E9,9E9,9E9,9E9,9E9]],v10,z50,tWeldgun;
    ! Rapid Move Starts
    MoveL [[478.524,1125.865,-120.12],[1,0,0,0],[0,0,0,0],[9E9,9E9,9E9,9E9,9E9,9E9]],v20,z50,tWeldgun;
    MoveL [[396.159,1133.116,-120.12],[1,0,0,0],[0,0,0,0],[9E9,9E9,9E9,9E9,9E9,9E9]],v20,z50,tWeldgun;
    MoveL [[396.159,1133.116,-148.068],[1,0,0,0],[0,0,0,0],[9E9,9E9,9E9,9E9,9E9,9E9]],v20,z50,tWeldgun;
    ! Plunge Move Starts
    MoveL [[396.159,1133.116,-150.1],[1,0,0,0],[0,0,0,0],[9E9,9E9,9E9,9E9,9E9,9E9]],v5,z50,tWeldgun;
    ! Lead In Move Starts
    MoveL [[396.306,1133.116,-150.454],[1,0,0,0],[0,0,0,0],[9E9,9E9,9E9,9E9,9E9,9E9]],v10,z50,tWeldgun;
    MoveL [[396.659,1133.116,-150.6],[1,0,0,0],[0,0,0,0],[9E9,9E9,9E9,9E9,9E9,9E9]],v10,z50,tWeldgun;
    ! Depositing Move Starts
    ! Welding Move Starts (Arc is about to be established)
    ArcLStart [[479.584,1133.116,-150.6],[1,0,0,0],[0,0,0,0],[9E9,9E9,9E9,9E9,9E9,9E9]],v10,seam1,Ni36_2_7_15_35_240\Weave:=weave1,fine,tWeldgun;
    ! Lead Out Move Starts
    ArcL [[479.938,1133.116,-150.454],[1,0,0,0],[0,0,0,0],[9E9,9E9,9E9,9E9,9E9,9E9]],v10,seam1,Ni36_2_7_15_35_240\Weave:=weave1,z50,tWeldgun;
    ! Welding Move Ends (Arc is about to be stopped)
    ArcLEnd [[479.938,1133.116,-150.454],[1,0,0,0],[0,0,0,0],[9E9,9E9,9E9,9E9,9E9,9E9]],v10,seam1,Ni36_2_7_15_35_240\Weave:=weave1,z50,tWeldgun;
    WaitTime 180;
    MoveL [[480.084,1133.116,-150.1],[1,0,0,0],[0,0,0,0],[9E9,9E9,9E9,9E9,9E9,9E9]],v10,z50,tWeldgun;
    ! Rapid Move Starts
    MoveL [[480.084,1133.116,-120.12],[1,0,0,0],[0,0,0,0],[9E9,9E9,9E9,9E9,9E9,9E9]],v20,z50,tWeldgun;
    MoveL [[395.119,1140.366,-120.12],[1,0,0,0],[0,0,0,0],[9E9,9E9,9E9,9E9,9E9,9E9]],v20,z50,tWeldgun;
    MoveL [[395.119,1140.366,-148.068],[1,0,0,0],[0,0,0,0],[9E9,9E9,9E9,9E9,9E9,9E9]],v20,z50,tWeldgun;
    ! Plunge Move Starts
    MoveL [[395.119,1140.366,-150.1],[1,0,0,0],[0,0,0,0],[9E9,9E9,9E9,9E9,9E9,9E9]],v5,z50,tWeldgun;
    ! Lead In Move Starts
    MoveL [[395.265,1140.366,-150.454],[1,0,0,0],[0,0,0,0],[9E9,9E9,9E9,9E9,9E9,9E9]],v10,z50,tWeldgun;
    MoveL [[395.619,1140.366,-150.6],[1,0,0,0],[0,0,0,0],[9E9,9E9,9E9,9E9,9E9,9E9]],v10,z50,tWeldgun;
    ! Depositing Move Starts
    ! Welding Move Starts (Arc is about to be established)
    ArcLStart [[480.625,1140.366,-150.6],[1,0,0,0],[0,0,0,0],[9E9,9E9,9E9,9E9,9E9,9E9]],v10,seam1,Ni36_2_7_15_35_240\Weave:=weave1,fine,tWeldgun;
    ! Lead Out Move Starts
    ArcL [[480.978,1140.366,-150.454],[1,0,0,0],[0,0,0,0],[9E9,9E9,9E9,9E9,9E9,9E9]],v10,seam1,Ni36_2_7_15_35_240\Weave:=weave1,z50,tWeldgun;
    ! Welding Move Ends (Arc is about to be stopped)
    ArcLEnd [[480.978,1140.366,-150.454],[1,0,0,0],[0,0,0,0],[9E9,9E9,9E9,9E9,9E9,9E9]],v10,seam1,Ni36_2_7_15_35_240\Weave:=weave1,z50,tWeldgun;
    WaitTime 180;
    MoveL [[481.125,1140.366,-150.1],[1,0,0,0],[0,0,0,0],[9E9,9E9,9E9,9E9,9E9,9E9]],v10,z50,tWeldgun;
    ! Rapid Move Starts
    MoveL [[481.125,1140.366,-120.12],[1,0,0,0],[0,0,0,0],[9E9,9E9,9E9,9E9,9E9,9E9]],v20,z50,tWeldgun;
    MoveL [[394.493,1147.617,-120.12],[1,0,0,0],[0,0,0,0],[9E9,9E9,9E9,9E9,9E9,9E9]],v20,z50,tWeldgun;
    MoveL [[394.493,1147.617,-148.068],[1,0,0,0],[0,0,0,0],[9E9,9E9,9E9,9E9,9E9,9E9]],v20,z50,tWeldgun;
    ! Plunge Move Starts
    MoveL [[394.493,1147.617,-150.1],[1,0,0,0],[0,0,0,0],[9E9,9E9,9E9,9E9,9E9,9E9]],v5,z50,tWeldgun;
    ! Lead In Move Starts
    MoveL [[394.639,1147.617,-150.454],[1,0,0,0],[0,0,0,0],[9E9,9E9,9E9,9E9,9E9,9E9]],v10,z50,tWeldgun;
    MoveL [[394.993,1147.617,-150.6],[1,0,0,0],[0,0,0,0],[9E9,9E9,9E9,9E9,9E9,9E9]],v10,z50,tWeldgun;
    ! Depositing Move Starts
    ! Welding Move Starts (Arc is about to be established)
    ArcLStart [[481.251,1147.617,-150.6],[1,0,0,0],[0,0,0,0],[9E9,9E9,9E9,9E9,9E9,9E9]],v10,seam1,Ni36_2_7_15_35_240\Weave:=weave1,fine,tWeldgun;
    ! Lead Out Move Starts
    ArcL [[481.605,1147.617,-150.454],[1,0,0,0],[0,0,0,0],[9E9,9E9,9E9,9E9,9E9,9E9]],v10,seam1,Ni36_2_7_15_35_240\Weave:=weave1,z50,tWeldgun;
    ! Welding Move Ends (Arc is about to be stopped)
    ArcLEnd [[481.605,1147.617,-150.454],[1,0,0,0],[0,0,0,0],[9E9,9E9,9E9,9E9,9E9,9E9]],v10,seam1,Ni36_2_7_15_35_240\Weave:=weave1,z50,tWeldgun;
    WaitTime 180;
    MoveL [[481.751,1147.617,-150.1],[1,0,0,0],[0,0,0,0],[9E9,9E9,9E9,9E9,9E9,9E9]],v10,z50,tWeldgun;
    ! Rapid Move Starts
    MoveL [[481.751,1147.617,-120.12],[1,0,0,0],[0,0,0,0],[9E9,9E9,9E9,9E9,9E9,9E9]],v20,z50,tWeldgun;
    MoveL [[394.227,1154.868,-120.12],[1,0,0,0],[0,0,0,0],[9E9,9E9,9E9,9E9,9E9,9E9]],v20,z50,tWeldgun;
    MoveL [[394.227,1154.868,-148.068],[1,0,0,0],[0,0,0,0],[9E9,9E9,9E9,9E9,9E9,9E9]],v20,z50,tWeldgun;
    ! Plunge Move Starts
    MoveL [[394.227,1154.868,-150.1],[1,0,0,0],[0,0,0,0],[9E9,9E9,9E9,9E9,9E9,9E9]],v5,z50,tWeldgun;
    ! Lead In Move Starts
    MoveL [[394.374,1154.868,-150.454],[1,0,0,0],[0,0,0,0],[9E9,9E9,9E9,9E9,9E9,9E9]],v10,z50,tWeldgun;
    MoveL [[394.727,1154.868,-150.6],[1,0,0,0],[0,0,0,0],[9E9,9E9,9E9,9E9,9E9,9E9]],v10,z50,tWeldgun;
    ! Depositing Move Starts
    ! Welding Move Starts (Arc is about to be established)
    ArcLStart [[481.515,1154.868,-150.6],[1,0,0,0],[0,0,0,0],[9E9,9E9,9E9,9E9,9E9,9E9]],v10,seam1,Ni36_2_7_15_35_240\Weave:=weave1,fine,tWeldgun;
    ! Lead Out Move Starts
    ArcL [[481.869,1154.868,-150.454],[1,0,0,0],[0,0,0,0],[9E9,9E9,9E9,9E9,9E9,9E9]],v10,seam1,Ni36_2_7_15_35_240\Weave:=weave1,z50,tWeldgun;
    ! Welding Move Ends (Arc is about to be stopped)
    ArcLEnd [[481.869,1154.868,-150.454],[1,0,0,0],[0,0,0,0],[9E9,9E9,9E9,9E9,9E9,9E9]],v10,seam1,Ni36_2_7_15_35_240\Weave:=weave1,z50,tWeldgun;
    WaitTime 180;
    MoveL [[482.015,1154.868,-150.1],[1,0,0,0],[0,0,0,0],[9E9,9E9,9E9,9E9,9E9,9E9]],v10,z50,tWeldgun;
    ! Rapid Move Starts
    MoveL [[482.015,1154.868,-120.12],[1,0,0,0],[0,0,0,0],[9E9,9E9,9E9,9E9,9E9,9E9]],v20,z50,tWeldgun;
    MoveL [[394.301,1162.119,-120.12],[1,0,0,0],[0,0,0,0],[9E9,9E9,9E9,9E9,9E9,9E9]],v20,z50,tWeldgun;
    MoveL [[394.301,1162.119,-148.068],[1,0,0,0],[0,0,0,0],[9E9,9E9,9E9,9E9,9E9,9E9]],v20,z50,tWeldgun;
    ! Plunge Move Starts
    MoveL [[394.301,1162.119,-150.1],[1,0,0,0],[0,0,0,0],[9E9,9E9,9E9,9E9,9E9,9E9]],v5,z50,tWeldgun;
    ! Lead In Move Starts
    MoveL [[394.447,1162.119,-150.454],[1,0,0,0],[0,0,0,0],[9E9,9E9,9E9,9E9,9E9,9E9]],v10,z50,tWeldgun;
    MoveL [[394.801,1162.119,-150.6],[1,0,0,0],[0,0,0,0],[9E9,9E9,9E9,9E9,9E9,9E9]],v10,z50,tWeldgun;
    ! Depositing Move Starts
    ! Welding Move Starts (Arc is about to be established)
    ArcLStart [[481.443,1162.119,-150.6],[1,0,0,0],[0,0,0,0],[9E9,9E9,9E9,9E9,9E9,9E9]],v10,seam1,Ni36_2_7_15_35_240\Weave:=weave1,fine,tWeldgun;
    ! Lead Out Move Starts
    ArcL [[481.796,1162.119,-150.454],[1,0,0,0],[0,0,0,0],[9E9,9E9,9E9,9E9,9E9,9E9]],v10,seam1,Ni36_2_7_15_35_240\Weave:=weave1,z50,tWeldgun;
    ! Welding Move Ends (Arc is about to be stopped)
    ArcLEnd [[481.796,1162.119,-150.454],[1,0,0,0],[0,0,0,0],[9E9,9E9,9E9,9E9,9E9,9E9]],v10,seam1,Ni36_2_7_15_35_240\Weave:=weave1,z50,tWeldgun;
    WaitTime 180;
    MoveL [[481.943,1162.119,-150.1],[1,0,0,0],[0,0,0,0],[9E9,9E9,9E9,9E9,9E9,9E9]],v10,z50,tWeldgun;
    ! Rapid Move Starts
    MoveL [[481.943,1162.119,-120.12],[1,0,0,0],[0,0,0,0],[9E9,9E9,9E9,9E9,9E9,9E9]],v20,z50,tWeldgun;
    MoveL [[425.595,1169.37,-120.12],[1,0,0,0],[0,0,0,0],[9E9,9E9,9E9,9E9,9E9,9E9]],v20,z50,tWeldgun;
    MoveL [[425.595,1169.37,-148.068],[1,0,0,0],[0,0,0,0],[9E9,9E9,9E9,9E9,9E9,9E9]],v20,z50,tWeldgun;
    ! Plunge Move Starts
    MoveL [[425.595,1169.37,-150.1],[1,0,0,0],[0,0,0,0],[9E9,9E9,9E9,9E9,9E9,9E9]],v5,z50,tWeldgun;
    ! Lead In Move Starts
    MoveL [[425.742,1169.37,-150.454],[1,0,0,0],[0,0,0,0],[9E9,9E9,9E9,9E9,9E9,9E9]],v10,z50,tWeldgun;
    MoveL [[426.095,1169.37,-150.6],[1,0,0,0],[0,0,0,0],[9E9,9E9,9E9,9E9,9E9,9E9]],v10,z50,tWeldgun;
    ! Depositing Move Starts
    ! Welding Move Starts (Arc is about to be established)
    ArcLStart [[450.148,1169.37,-150.6],[1,0,0,0],[0,0,0,0],[9E9,9E9,9E9,9E9,9E9,9E9]],v10,seam1,Ni36_2_7_15_35_240\Weave:=weave1,fine,tWeldgun;
    ! Link Move Starts
    ArcL [[450.778,1169.606,-150.6],[1,0,0,0],[0,0,0,0],[9E9,9E9,9E9,9E9,9E9,9E9]],v10,seam1,Ni36_2_7_15_35_240\Weave:=weave1,z50,tWeldgun;
    ! Welding Move Ends (Arc is about to be stopped)
    ArcLEnd [[450.778,1169.606,-150.6],[1,0,0,0],[0,0,0,0],[9E9,9E9,9E9,9E9,9E9,9E9]],v10,seam1,Ni36_2_7_15_35_240\Weave:=weave1,z50,tWeldgun;
    WaitTime 180;
    MoveL [[451.098,1170.199,-150.6],[1,0,0,0],[0,0,0,0],[9E9,9E9,9E9,9E9,9E9,9E9]],v10,z50,tWeldgun;
    MoveL [[450.949,1170.855,-150.6],[1,0,0,0],[0,0,0,0],[9E9,9E9,9E9,9E9,9E9,9E9]],v10,z50,tWeldgun;
    MoveL [[450.405,1171.251,-150.6],[1,0,0,0],[0,0,0,0],[9E9,9E9,9E9,9E9,9E9,9E9]],v10,z50,tWeldgun;
    MoveL [[437.865,1174.739,-150.6],[1,0,0,0],[0,0,0,0],[9E9,9E9,9E9,9E9,9E9,9E9]],v10,z50,tWeldgun;
    MoveL [[437.321,1175.136,-150.6],[1,0,0,0],[0,0,0,0],[9E9,9E9,9E9,9E9,9E9,9E9]],v10,z50,tWeldgun;
    MoveL [[437.172,1175.792,-150.6],[1,0,0,0],[0,0,0,0],[9E9,9E9,9E9,9E9,9E9,9E9]],v10,z50,tWeldgun;
    MoveL [[437.492,1176.385,-150.6],[1,0,0,0],[0,0,0,0],[9E9,9E9,9E9,9E9,9E9,9E9]],v10,z50,tWeldgun;
    MoveL [[438.122,1176.621,-150.6],[1,0,0,0],[0,0,0,0],[9E9,9E9,9E9,9E9,9E9,9E9]],v10,z50,tWeldgun;
    ! Depositing Move Starts
    ! Welding Move Starts (Arc is about to be established)
    ArcLStart [[438.122,1176.621,-150.6],[1,0,0,0],[0,0,0,0],[9E9,9E9,9E9,9E9,9E9,9E9]],v10,seam1,Ni36_2_7_15_35_240\Weave:=weave1,fine,tWeldgun;
    ! Lead Out Move Starts
    ArcL [[438.475,1176.621,-150.454],[1,0,0,0],[0,0,0,0],[9E9,9E9,9E9,9E9,9E9,9E9]],v10,seam1,Ni36_2_7_15_35_240\Weave:=weave1,z50,tWeldgun;
    ! Welding Move Ends (Arc is about to be stopped)
    ArcLEnd [[438.475,1176.621,-150.454],[1,0,0,0],[0,0,0,0],[9E9,9E9,9E9,9E9,9E9,9E9]],v10,seam1,Ni36_2_7_15_35_240\Weave:=weave1,z50,tWeldgun;
    WaitTime 180;
    MoveL [[438.622,1176.621,-150.1],[1,0,0,0],[0,0,0,0],[9E9,9E9,9E9,9E9,9E9,9E9]],v10,z50,tWeldgun;
    ! Rapid Move Starts
    MoveL [[438.622,1176.621,-120.12],[1,0,0,0],[0,0,0,0],[9E9,9E9,9E9,9E9,9E9,9E9]],v20,z50,tWeldgun;
    MoveL [[395.185,1168.618,-120.12],[1,0,0,0],[0,0,0,0],[9E9,9E9,9E9,9E9,9E9,9E9]],v20,z50,tWeldgun;
    MoveL [[395.185,1168.618,-148.068],[1,0,0,0],[0,0,0,0],[9E9,9E9,9E9,9E9,9E9,9E9]],v20,z50,tWeldgun;
    ! Plunge Move Starts
    MoveL [[395.185,1168.618,-150.1],[1,0,0,0],[0,0,0,0],[9E9,9E9,9E9,9E9,9E9,9E9]],v5,z50,tWeldgun;
    ! Lead In Move Starts
    MoveL [[395.174,1168.472,-150.454],[1,0,0,0],[0,0,0,0],[9E9,9E9,9E9,9E9,9E9,9E9]],v10,z50,tWeldgun;
    MoveL [[395.148,1168.12,-150.6],[1,0,0,0],[0,0,0,0],[9E9,9E9,9E9,9E9,9E9,9E9]],v10,z50,tWeldgun;
    ! Depositing Move Starts
    ! Welding Move Starts (Arc is about to be established)
    ArcLStart [[395.028,1166.519,-150.6],[1,0,0,0],[0,0,0,0],[9E9,9E9,9E9,9E9,9E9,9E9]],v10,seam1,Ni36_2_7_15_35_240\Weave:=weave1,fine,tWeldgun;
    ArcL [[394.956,1165.394,-150.6],[1,0,0,0],[0,0,0,0],[9E9,9E9,9E9,9E9,9E9,9E9]],v10,seam1,Ni36_2_7_15_35_240\Weave:=weave1,z50,tWeldgun;
    ArcL [[394.862,1163.614,-150.6],[1,0,0,0],[0,0,0,0],[9E9,9E9,9E9,9E9,9E9,9E9]],v10,seam1,Ni36_2_7_15_35_240\Weave:=weave1,z50,tWeldgun;
    ArcL [[394.787,1161.657,-150.6],[1,0,0,0],[0,0,0,0],[9E9,9E9,9E9,9E9,9E9,9E9]],v10,seam1,Ni36_2_7_15_35_240\Weave:=weave1,z50,tWeldgun;
    ArcL [[394.742,1159.992,-150.6],[1,0,0,0],[0,0,0,0],[9E9,9E9,9E9,9E9,9E9,9E9]],v10,seam1,Ni36_2_7_15_35_240\Weave:=weave1,z50,tWeldgun;
    ArcL [[394.716,1158.053,-150.6],[1,0,0,0],[0,0,0,0],[9E9,9E9,9E9,9E9,9E9,9E9]],v10,seam1,Ni36_2_7_15_35_240\Weave:=weave1,z50,tWeldgun;
    ArcL [[394.714,1156.091,-150.6],[1,0,0,0],[0,0,0,0],[9E9,9E9,9E9,9E9,9E9,9E9]],v10,seam1,Ni36_2_7_15_35_240\Weave:=weave1,z50,tWeldgun;
    ArcL [[394.747,1153.656,-150.6],[1,0,0,0],[0,0,0,0],[9E9,9E9,9E9,9E9,9E9,9E9]],v10,seam1,Ni36_2_7_15_35_240\Weave:=weave1,z50,tWeldgun;
    ArcL [[394.801,1151.711,-150.6],[1,0,0,0],[0,0,0,0],[9E9,9E9,9E9,9E9,9E9,9E9]],v10,seam1,Ni36_2_7_15_35_240\Weave:=weave1,z50,tWeldgun;
    ArcL [[394.873,1149.836,-150.6],[1,0,0,0],[0,0,0,0],[9E9,9E9,9E9,9E9,9E9,9E9]],v10,seam1,Ni36_2_7_15_35_240\Weave:=weave1,z50,tWeldgun;
    ArcL [[395.006,1147.411,-150.6],[1,0,0,0],[0,0,0,0],[9E9,9E9,9E9,9E9,9E9,9E9]],v10,seam1,Ni36_2_7_15_35_240\Weave:=weave1,z50,tWeldgun;
    ArcL [[395.123,1145.651,-150.6],[1,0,0,0],[0,0,0,0],[9E9,9E9,9E9,9E9,9E9,9E9]],v10,seam1,Ni36_2_7_15_35_240\Weave:=weave1,z50,tWeldgun;
    ArcL [[395.32,1143.27,-150.6],[1,0,0,0],[0,0,0,0],[9E9,9E9,9E9,9E9,9E9,9E9]],v10,seam1,Ni36_2_7_15_35_240\Weave:=weave1,z50,tWeldgun;
    ArcL [[395.529,1141.152,-150.6],[1,0,0,0],[0,0,0,0],[9E9,9E9,9E9,9E9,9E9,9E9]],v10,seam1,Ni36_2_7_15_35_240\Weave:=weave1,z50,tWeldgun;
    ArcL [[395.817,1138.69,-150.6],[1,0,0,0],[0,0,0,0],[9E9,9E9,9E9,9E9,9E9,9E9]],v10,seam1,Ni36_2_7_15_35_240\Weave:=weave1,z50,tWeldgun;
    ArcL [[396.085,1136.686,-150.6],[1,0,0,0],[0,0,0,0],[9E9,9E9,9E9,9E9,9E9,9E9]],v10,seam1,Ni36_2_7_15_35_240\Weave:=weave1,z50,tWeldgun;
    ArcL [[396.445,1134.342,-150.6],[1,0,0,0],[0,0,0,0],[9E9,9E9,9E9,9E9,9E9,9E9]],v10,seam1,Ni36_2_7_15_35_240\Weave:=weave1,z50,tWeldgun;
    ArcL [[396.844,1132.077,-150.6],[1,0,0,0],[0,0,0,0],[9E9,9E9,9E9,9E9,9E9,9E9]],v10,seam1,Ni36_2_7_15_35_240\Weave:=weave1,z50,tWeldgun;
    ArcL [[397.279,1129.884,-150.6],[1,0,0,0],[0,0,0,0],[9E9,9E9,9E9,9E9,9E9,9E9]],v10,seam1,Ni36_2_7_15_35_240\Weave:=weave1,z50,tWeldgun;
    ArcL [[397.776,1127.655,-150.6],[1,0,0,0],[0,0,0,0],[9E9,9E9,9E9,9E9,9E9,9E9]],v10,seam1,Ni36_2_7_15_35_240\Weave:=weave1,z50,tWeldgun;
    ArcL [[398.297,1125.559,-150.6],[1,0,0,0],[0,0,0,0],[9E9,9E9,9E9,9E9,9E9,9E9]],v10,seam1,Ni36_2_7_15_35_240\Weave:=weave1,z50,tWeldgun;
    ArcL [[398.896,1123.402,-150.6],[1,0,0,0],[0,0,0,0],[9E9,9E9,9E9,9E9,9E9,9E9]],v10,seam1,Ni36_2_7_15_35_240\Weave:=weave1,z50,tWeldgun;
    ArcL [[399.277,1122.138,-150.6],[1,0,0,0],[0,0,0,0],[9E9,9E9,9E9,9E9,9E9,9E9]],v10,seam1,Ni36_2_7_15_35_240\Weave:=weave1,z50,tWeldgun;
    ArcL [[399.669,1120.927,-150.6],[1,0,0,0],[0,0,0,0],[9E9,9E9,9E9,9E9,9E9,9E9]],v10,seam1,Ni36_2_7_15_35_240\Weave:=weave1,z50,tWeldgun;
    ArcL [[400.021,1119.886,-150.6],[1,0,0,0],[0,0,0,0],[9E9,9E9,9E9,9E9,9E9,9E9]],v10,seam1,Ni36_2_7_15_35_240\Weave:=weave1,z50,tWeldgun;
    ArcL [[400.345,1118.971,-150.6],[1,0,0,0],[0,0,0,0],[9E9,9E9,9E9,9E9,9E9,9E9]],v10,seam1,Ni36_2_7_15_35_240\Weave:=weave1,z50,tWeldgun;
    ArcL [[400.85,1117.626,-150.6],[1,0,0,0],[0,0,0,0],[9E9,9E9,9E9,9E9,9E9,9E9]],v10,seam1,Ni36_2_7_15_35_240\Weave:=weave1,z50,tWeldgun;
    ArcL [[401.453,1116.125,-150.6],[1,0,0,0],[0,0,0,0],[9E9,9E9,9E9,9E9,9E9,9E9]],v10,seam1,Ni36_2_7_15_35_240\Weave:=weave1,z50,tWeldgun;
    ArcL [[401.934,1115.004,-150.6],[1,0,0,0],[0,0,0,0],[9E9,9E9,9E9,9E9,9E9,9E9]],v10,seam1,Ni36_2_7_15_35_240\Weave:=weave1,z50,tWeldgun;
    ArcL [[402.272,1114.248,-150.6],[1,0,0,0],[0,0,0,0],[9E9,9E9,9E9,9E9,9E9,9E9]],v10,seam1,Ni36_2_7_15_35_240\Weave:=weave1,z50,tWeldgun;
    ArcL [[402.744,1113.243,-150.6],[1,0,0,0],[0,0,0,0],[9E9,9E9,9E9,9E9,9E9,9E9]],v10,seam1,Ni36_2_7_15_35_240\Weave:=weave1,z50,tWeldgun;
    ArcL [[403.197,1112.32,-150.6],[1,0,0,0],[0,0,0,0],[9E9,9E9,9E9,9E9,9E9,9E9]],v10,seam1,Ni36_2_7_15_35_240\Weave:=weave1,z50,tWeldgun;
    ArcL [[403.713,1111.322,-150.6],[1,0,0,0],[0,0,0,0],[9E9,9E9,9E9,9E9,9E9,9E9]],v10,seam1,Ni36_2_7_15_35_240\Weave:=weave1,z50,tWeldgun;
    ArcL [[404.298,1110.243,-150.6],[1,0,0,0],[0,0,0,0],[9E9,9E9,9E9,9E9,9E9,9E9]],v10,seam1,Ni36_2_7_15_35_240\Weave:=weave1,z50,tWeldgun;
    ArcL [[404.877,1109.229,-150.6],[1,0,0,0],[0,0,0,0],[9E9,9E9,9E9,9E9,9E9,9E9]],v10,seam1,Ni36_2_7_15_35_240\Weave:=weave1,z50,tWeldgun;
    ArcL [[405.392,1108.369,-150.6],[1,0,0,0],[0,0,0,0],[9E9,9E9,9E9,9E9,9E9,9E9]],v10,seam1,Ni36_2_7_15_35_240\Weave:=weave1,z50,tWeldgun;
    ArcL [[405.764,1107.766,-150.6],[1,0,0,0],[0,0,0,0],[9E9,9E9,9E9,9E9,9E9,9E9]],v10,seam1,Ni36_2_7_15_35_240\Weave:=weave1,z50,tWeldgun;
    ArcL [[406.387,1106.802,-150.6],[1,0,0,0],[0,0,0,0],[9E9,9E9,9E9,9E9,9E9,9E9]],v10,seam1,Ni36_2_7_15_35_240\Weave:=weave1,z50,tWeldgun;
    ArcL [[406.887,1106.059,-150.6],[1,0,0,0],[0,0,0,0],[9E9,9E9,9E9,9E9,9E9,9E9]],v10,seam1,Ni36_2_7_15_35_240\Weave:=weave1,z50,tWeldgun;
    ArcL [[407.501,1105.184,-150.6],[1,0,0,0],[0,0,0,0],[9E9,9E9,9E9,9E9,9E9,9E9]],v10,seam1,Ni36_2_7_15_35_240\Weave:=weave1,z50,tWeldgun;
    ArcL [[408.038,1104.448,-150.6],[1,0,0,0],[0,0,0,0],[9E9,9E9,9E9,9E9,9E9,9E9]],v10,seam1,Ni36_2_7_15_35_240\Weave:=weave1,z50,tWeldgun;
    ArcL [[408.711,1103.563,-150.6],[1,0,0,0],[0,0,0,0],[9E9,9E9,9E9,9E9,9E9,9E9]],v10,seam1,Ni36_2_7_15_35_240\Weave:=weave1,z50,tWeldgun;
    ArcL [[409.268,1102.859,-150.6],[1,0,0,0],[0,0,0,0],[9E9,9E9,9E9,9E9,9E9,9E9]],v10,seam1,Ni36_2_7_15_35_240\Weave:=weave1,z50,tWeldgun;
    ArcL [[409.896,1102.094,-150.6],[1,0,0,0],[0,0,0,0],[9E9,9E9,9E9,9E9,9E9,9E9]],v10,seam1,Ni36_2_7_15_35_240\Weave:=weave1,z50,tWeldgun;
    ArcL [[410.682,1101.177,-150.6],[1,0,0,0],[0,0,0,0],[9E9,9E9,9E9,9E9,9E9,9E9]],v10,seam1,Ni36_2_7_15_35_240\Weave:=weave1,z50,tWeldgun;
    ArcL [[411.947,1099.78,-150.6],[1,0,0,0],[0,0,0,0],[9E9,9E9,9E9,9E9,9E9,9E9]],v10,seam1,Ni36_2_7_15_35_240\Weave:=weave1,z50,tWeldgun;
    ArcL [[413,1098.686,-150.6],[1,0,0,0],[0,0,0,0],[9E9,9E9,9E9,9E9,9E9,9E9]],v10,seam1,Ni36_2_7_15_35_240\Weave:=weave1,z50,tWeldgun;
    ArcL [[414.039,1097.656,-150.6],[1,0,0,0],[0,0,0,0],[9E9,9E9,9E9,9E9,9E9,9E9]],v10,seam1,Ni36_2_7_15_35_240\Weave:=weave1,z50,tWeldgun;
    ArcL [[414.921,1096.823,-150.6],[1,0,0,0],[0,0,0,0],[9E9,9E9,9E9,9E9,9E9,9E9]],v10,seam1,Ni36_2_7_15_35_240\Weave:=weave1,z50,tWeldgun;
    ArcL [[415.673,1096.135,-150.6],[1,0,0,0],[0,0,0,0],[9E9,9E9,9E9,9E9,9E9,9E9]],v10,seam1,Ni36_2_7_15_35_240\Weave:=weave1,z50,tWeldgun;
    ArcL [[416.445,1095.452,-150.6],[1,0,0,0],[0,0,0,0],[9E9,9E9,9E9,9E9,9E9,9E9]],v10,seam1,Ni36_2_7_15_35_240\Weave:=weave1,z50,tWeldgun;
    ArcL [[417.848,1094.255,-150.6],[1,0,0,0],[0,0,0,0],[9E9,9E9,9E9,9E9,9E9,9E9]],v10,seam1,Ni36_2_7_15_35_240\Weave:=weave1,z50,tWeldgun;
    ArcL [[419.238,1093.13,-150.6],[1,0,0,0],[0,0,0,0],[9E9,9E9,9E9,9E9,9E9,9E9]],v10,seam1,Ni36_2_7_15_35_240\Weave:=weave1,z50,tWeldgun;
    ArcL [[420.728,1091.985,-150.6],[1,0,0,0],[0,0,0,0],[9E9,9E9,9E9,9E9,9E9,9E9]],v10,seam1,Ni36_2_7_15_35_240\Weave:=weave1,z50,tWeldgun;
    ArcL [[422.318,1090.828,-150.6],[1,0,0,0],[0,0,0,0],[9E9,9E9,9E9,9E9,9E9,9E9]],v10,seam1,Ni36_2_7_15_35_240\Weave:=weave1,z50,tWeldgun;
    ArcL [[423.807,1089.801,-150.6],[1,0,0,0],[0,0,0,0],[9E9,9E9,9E9,9E9,9E9,9E9]],v10,seam1,Ni36_2_7_15_35_240\Weave:=weave1,z50,tWeldgun;
    ArcL [[425.468,1088.716,-150.6],[1,0,0,0],[0,0,0,0],[9E9,9E9,9E9,9E9,9E9,9E9]],v10,seam1,Ni36_2_7_15_35_240\Weave:=weave1,z50,tWeldgun;
    ArcL [[426.93,1087.81,-150.6],[1,0,0,0],[0,0,0,0],[9E9,9E9,9E9,9E9,9E9,9E9]],v10,seam1,Ni36_2_7_15_35_240\Weave:=weave1,z50,tWeldgun;
    ArcL [[428.551,1086.862,-150.6],[1,0,0,0],[0,0,0,0],[9E9,9E9,9E9,9E9,9E9,9E9]],v10,seam1,Ni36_2_7_15_35_240\Weave:=weave1,z50,tWeldgun;
    ArcL [[429.886,1086.12,-150.6],[1,0,0,0],[0,0,0,0],[9E9,9E9,9E9,9E9,9E9,9E9]],v10,seam1,Ni36_2_7_15_35_240\Weave:=weave1,z50,tWeldgun;
    ArcL [[431.421,1085.313,-150.6],[1,0,0,0],[0,0,0,0],[9E9,9E9,9E9,9E9,9E9,9E9]],v10,seam1,Ni36_2_7_15_35_240\Weave:=weave1,z50,tWeldgun;
    ArcL [[432.996,1084.535,-150.6],[1,0,0,0],[0,0,0,0],[9E9,9E9,9E9,9E9,9E9,9E9]],v10,seam1,Ni36_2_7_15_35_240\Weave:=weave1,z50,tWeldgun;
    ArcL [[434.621,1083.786,-150.6],[1,0,0,0],[0,0,0,0],[9E9,9E9,9E9,9E9,9E9,9E9]],v10,seam1,Ni36_2_7_15_35_240\Weave:=weave1,z50,tWeldgun;
    ArcL [[435.988,1083.196,-150.6],[1,0,0,0],[0,0,0,0],[9E9,9E9,9E9,9E9,9E9,9E9]],v10,seam1,Ni36_2_7_15_35_240\Weave:=weave1,z50,tWeldgun;
    ArcL [[437.503,1082.589,-150.6],[1,0,0,0],[0,0,0,0],[9E9,9E9,9E9,9E9,9E9,9E9]],v10,seam1,Ni36_2_7_15_35_240\Weave:=weave1,z50,tWeldgun;
    ArcL [[438.122,1082.359,-150.6],[1,0,0,0],[0,0,0,0],[9E9,9E9,9E9,9E9,9E9,9E9]],v10,seam1,Ni36_2_7_15_35_240\Weave:=weave1,z50,tWeldgun;
    ArcL [[439.002,1082.693,-150.6],[1,0,0,0],[0,0,0,0],[9E9,9E9,9E9,9E9,9E9,9E9]],v10,seam1,Ni36_2_7_15_35_240\Weave:=weave1,z50,tWeldgun;
    ArcL [[440.378,1083.249,-150.6],[1,0,0,0],[0,0,0,0],[9E9,9E9,9E9,9E9,9E9,9E9]],v10,seam1,Ni36_2_7_15_35_240\Weave:=weave1,z50,tWeldgun;
    ArcL [[441.893,1083.909,-150.6],[1,0,0,0],[0,0,0,0],[9E9,9E9,9E9,9E9,9E9,9E9]],v10,seam1,Ni36_2_7_15_35_240\Weave:=weave1,z50,tWeldgun;
    ArcL [[443.24,1084.531,-150.6],[1,0,0,0],[0,0,0,0],[9E9,9E9,9E9,9E9,9E9,9E9]],v10,seam1,Ni36_2_7_15_35_240\Weave:=weave1,z50,tWeldgun;
    ArcL [[444.92,1085.363,-150.6],[1,0,0,0],[0,0,0,0],[9E9,9E9,9E9,9E9,9E9,9E9]],v10,seam1,Ni36_2_7_15_35_240\Weave:=weave1,z50,tWeldgun;
    ArcL [[446.489,1086.194,-150.6],[1,0,0,0],[0,0,0,0],[9E9,9E9,9E9,9E9,9E9,9E9]],v10,seam1,Ni36_2_7_15_35_240\Weave:=weave1,z50,tWeldgun;
    ArcL [[447.911,1086.986,-150.6],[1,0,0,0],[0,0,0,0],[9E9,9E9,9E9,9E9,9E9,9E9]],v10,seam1,Ni36_2_7_15_35_240\Weave:=weave1,z50,tWeldgun;
    ArcL [[449.496,1087.923,-150.6],[1,0,0,0],[0,0,0,0],[9E9,9E9,9E9,9E9,9E9,9E9]],v10,seam1,Ni36_2_7_15_35_240\Weave:=weave1,z50,tWeldgun;
    ArcL [[451.115,1088.934,-150.6],[1,0,0,0],[0,0,0,0],[9E9,9E9,9E9,9E9,9E9,9E9]],v10,seam1,Ni36_2_7_15_35_240\Weave:=weave1,z50,tWeldgun;
    ArcL [[452.644,1089.941,-150.6],[1,0,0,0],[0,0,0,0],[9E9,9E9,9E9,9E9,9E9,9E9]],v10,seam1,Ni36_2_7_15_35_240\Weave:=weave1,z50,tWeldgun;
    ArcL [[454.033,1090.904,-150.6],[1,0,0,0],[0,0,0,0],[9E9,9E9,9E9,9E9,9E9,9E9]],v10,seam1,Ni36_2_7_15_35_240\Weave:=weave1,z50,tWeldgun;
    ArcL [[455.636,1092.076,-150.6],[1,0,0,0],[0,0,0,0],[9E9,9E9,9E9,9E9,9E9,9E9]],v10,seam1,Ni36_2_7_15_35_240\Weave:=weave1,z50,tWeldgun;
    ArcL [[457.031,1093.149,-150.6],[1,0,0,0],[0,0,0,0],[9E9,9E9,9E9,9E9,9E9,9E9]],v10,seam1,Ni36_2_7_15_35_240\Weave:=weave1,z50,tWeldgun;
    ArcL [[458.542,1094.374,-150.6],[1,0,0,0],[0,0,0,0],[9E9,9E9,9E9,9E9,9E9,9E9]],v10,seam1,Ni36_2_7_15_35_240\Weave:=weave1,z50,tWeldgun;
    ArcL [[460.312,1095.901,-150.6],[1,0,0,0],[0,0,0,0],[9E9,9E9,9E9,9E9,9E9,9E9]],v10,seam1,Ni36_2_7_15_35_240\Weave:=weave1,z50,tWeldgun;
    ArcL [[461.179,1096.691,-150.6],[1,0,0,0],[0,0,0,0],[9E9,9E9,9E9,9E9,9E9,9E9]],v10,seam1,Ni36_2_7_15_35_240\Weave:=weave1,z50,tWeldgun;
    ArcL [[461.899,1097.368,-150.6],[1,0,0,0],[0,0,0,0],[9E9,9E9,9E9,9E9,9E9,9E9]],v10,seam1,Ni36_2_7_15_35_240\Weave:=weave1,z50,tWeldgun;
    ArcL [[462.709,1098.153,-150.6],[1,0,0,0],[0,0,0,0],[9E9,9E9,9E9,9E9,9E9,9E9]],v10,seam1,Ni36_2_7_15_35_240\Weave:=weave1,z50,tWeldgun;
    ArcL [[463.274,1098.718,-150.6],[1,0,0,0],[0,0,0,0],[9E9,9E9,9E9,9E9,9E9,9E9]],v10,seam1,Ni36_2_7_15_35_240\Weave:=weave1,z50,tWeldgun;
    ArcL [[463.73,1099.183,-150.6],[1,0,0,0],[0,0,0,0],[9E9,9E9,9E9,9E9,9E9,9E9]],v10,seam1,Ni36_2_7_15_35_240\Weave:=weave1,z50,tWeldgun;
    ArcL [[464.486,1099.985,-150.6],[1,0,0,0],[0,0,0,0],[9E9,9E9,9E9,9E9,9E9,9E9]],v10,seam1,Ni36_2_7_15_35_240\Weave:=weave1,z50,tWeldgun;
    ArcL [[465.727,1101.366,-150.6],[1,0,0,0],[0,0,0,0],[9E9,9E9,9E9,9E9,9E9,9E9]],v10,seam1,Ni36_2_7_15_35_240\Weave:=weave1,z50,tWeldgun;
    ArcL [[466.419,1102.179,-150.6],[1,0,0,0],[0,0,0,0],[9E9,9E9,9E9,9E9,9E9,9E9]],v10,seam1,Ni36_2_7_15_35_240\Weave:=weave1,z50,tWeldgun;
    ArcL [[467.148,1103.074,-150.6],[1,0,0,0],[0,0,0,0],[9E9,9E9,9E9,9E9,9E9,9E9]],v10,seam1,Ni36_2_7_15_35_240\Weave:=weave1,z50,tWeldgun;
    ArcL [[467.842,1103.968,-150.6],[1,0,0,0],[0,0,0,0],[9E9,9E9,9E9,9E9,9E9,9E9]],v10,seam1,Ni36_2_7_15_35_240\Weave:=weave1,z50,tWeldgun;
    ArcL [[468.512,1104.869,-150.6],[1,0,0,0],[0,0,0,0],[9E9,9E9,9E9,9E9,9E9,9E9]],v10,seam1,Ni36_2_7_15_35_240\Weave:=weave1,z50,tWeldgun;
    ArcL [[469.081,1105.665,-150.6],[1,0,0,0],[0,0,0,0],[9E9,9E9,9E9,9E9,9E9,9E9]],v10,seam1,Ni36_2_7_15_35_240\Weave:=weave1,z50,tWeldgun;
    ArcL [[469.649,1106.493,-150.6],[1,0,0,0],[0,0,0,0],[9E9,9E9,9E9,9E9,9E9,9E9]],v10,seam1,Ni36_2_7_15_35_240\Weave:=weave1,z50,tWeldgun;
    ArcL [[470.118,1107.203,-150.6],[1,0,0,0],[0,0,0,0],[9E9,9E9,9E9,9E9,9E9,9E9]],v10,seam1,Ni36_2_7_15_35_240\Weave:=weave1,z50,tWeldgun;
    ArcL [[470.653,1108.047,-150.6],[1,0,0,0],[0,0,0,0],[9E9,9E9,9E9,9E9,9E9,9E9]],v10,seam1,Ni36_2_7_15_35_240\Weave:=weave1,z50,tWeldgun;
    ArcL [[471.213,1108.969,-150.6],[1,0,0,0],[0,0,0,0],[9E9,9E9,9E9,9E9,9E9,9E9]],v10,seam1,Ni36_2_7_15_35_240\Weave:=weave1,z50,tWeldgun;
    ArcL [[471.833,1110.043,-150.6],[1,0,0,0],[0,0,0,0],[9E9,9E9,9E9,9E9,9E9,9E9]],v10,seam1,Ni36_2_7_15_35_240\Weave:=weave1,z50,tWeldgun;
    ArcL [[472.261,1110.818,-150.6],[1,0,0,0],[0,0,0,0],[9E9,9E9,9E9,9E9,9E9,9E9]],v10,seam1,Ni36_2_7_15_35_240\Weave:=weave1,z50,tWeldgun;
    ArcL [[472.751,1111.745,-150.6],[1,0,0,0],[0,0,0,0],[9E9,9E9,9E9,9E9,9E9,9E9]],v10,seam1,Ni36_2_7_15_35_240\Weave:=weave1,z50,tWeldgun;
    ArcL [[473.221,1112.675,-150.6],[1,0,0,0],[0,0,0,0],[9E9,9E9,9E9,9E9,9E9,9E9]],v10,seam1,Ni36_2_7_15_35_240\Weave:=weave1,z50,tWeldgun;
    ArcL [[473.533,1113.312,-150.6],[1,0,0,0],[0,0,0,0],[9E9,9E9,9E9,9E9,9E9,9E9]],v10,seam1,Ni36_2_7_15_35_240\Weave:=weave1,z50,tWeldgun;
    ArcL [[474.051,1114.425,-150.6],[1,0,0,0],[0,0,0,0],[9E9,9E9,9E9,9E9,9E9,9E9]],v10,seam1,Ni36_2_7_15_35_240\Weave:=weave1,z50,tWeldgun;
    ArcL [[474.527,1115.506,-150.6],[1,0,0,0],[0,0,0,0],[9E9,9E9,9E9,9E9,9E9,9E9]],v10,seam1,Ni36_2_7_15_35_240\Weave:=weave1,z50,tWeldgun;
    ArcL [[475.038,1116.73,-150.6],[1,0,0,0],[0,0,0,0],[9E9,9E9,9E9,9E9,9E9,9E9]],v10,seam1,Ni36_2_7_15_35_240\Weave:=weave1,z50,tWeldgun;
    ArcL [[475.366,1117.557,-150.6],[1,0,0,0],[0,0,0,0],[9E9,9E9,9E9,9E9,9E9,9E9]],v10,seam1,Ni36_2_7_15_35_240\Weave:=weave1,z50,tWeldgun;
    ArcL [[475.717,1118.477,-150.6],[1,0,0,0],[0,0,0,0],[9E9,9E9,9E9,9E9,9E9,9E9]],v10,seam1,Ni36_2_7_15_35_240\Weave:=weave1,z50,tWeldgun;
    ArcL [[476.132,1119.623,-150.6],[1,0,0,0],[0,0,0,0],[9E9,9E9,9E9,9E9,9E9,9E9]],v10,seam1,Ni36_2_7_15_35_240\Weave:=weave1,z50,tWeldgun;
    ArcL [[476.487,1120.66,-150.6],[1,0,0,0],[0,0,0,0],[9E9,9E9,9E9,9E9,9E9,9E9]],v10,seam1,Ni36_2_7_15_35_240\Weave:=weave1,z50,tWeldgun;
    ArcL [[476.828,1121.701,-150.6],[1,0,0,0],[0,0,0,0],[9E9,9E9,9E9,9E9,9E9,9E9]],v10,seam1,Ni36_2_7_15_35_240\Weave:=weave1,z50,tWeldgun;
    ArcL [[477.151,1122.744,-150.6],[1,0,0,0],[0,0,0,0],[9E9,9E9,9E9,9E9,9E9,9E9]],v10,seam1,Ni36_2_7_15_35_240\Weave:=weave1,z50,tWeldgun;
    ArcL [[477.455,1123.787,-150.6],[1,0,0,0],[0,0,0,0],[9E9,9E9,9E9,9E9,9E9,9E9]],v10,seam1,Ni36_2_7_15_35_240\Weave:=weave1,z50,tWeldgun;
    ArcL [[477.953,1125.584,-150.6],[1,0,0,0],[0,0,0,0],[9E9,9E9,9E9,9E9,9E9,9E9]],v10,seam1,Ni36_2_7_15_35_240\Weave:=weave1,z50,tWeldgun;
    ArcL [[478.524,1127.891,-150.6],[1,0,0,0],[0,0,0,0],[9E9,9E9,9E9,9E9,9E9,9E9]],v10,seam1,Ni36_2_7_15_35_240\Weave:=weave1,z50,tWeldgun;
    ArcL [[479.032,1130.204,-150.6],[1,0,0,0],[0,0,0,0],[9E9,9E9,9E9,9E9,9E9,9E9]],v10,seam1,Ni36_2_7_15_35_240\Weave:=weave1,z50,tWeldgun;
    ArcL [[479.484,1132.531,-150.6],[1,0,0,0],[0,0,0,0],[9E9,9E9,9E9,9E9,9E9,9E9]],v10,seam1,Ni36_2_7_15_35_240\Weave:=weave1,z50,tWeldgun;
    ArcL [[479.852,1134.674,-150.6],[1,0,0,0],[0,0,0,0],[9E9,9E9,9E9,9E9,9E9,9E9]],v10,seam1,Ni36_2_7_15_35_240\Weave:=weave1,z50,tWeldgun;
    ArcL [[480.206,1137.031,-150.6],[1,0,0,0],[0,0,0,0],[9E9,9E9,9E9,9E9,9E9,9E9]],v10,seam1,Ni36_2_7_15_35_240\Weave:=weave1,z50,tWeldgun;
    ArcL [[480.513,1139.384,-150.6],[1,0,0,0],[0,0,0,0],[9E9,9E9,9E9,9E9,9E9,9E9]],v10,seam1,Ni36_2_7_15_35_240\Weave:=weave1,z50,tWeldgun;
    ArcL [[480.753,1141.513,-150.6],[1,0,0,0],[0,0,0,0],[9E9,9E9,9E9,9E9,9E9,9E9]],v10,seam1,Ni36_2_7_15_35_240\Weave:=weave1,z50,tWeldgun;
    ArcL [[480.949,1143.548,-150.6],[1,0,0,0],[0,0,0,0],[9E9,9E9,9E9,9E9,9E9,9E9]],v10,seam1,Ni36_2_7_15_35_240\Weave:=weave1,z50,tWeldgun;
    ArcL [[481.148,1146.056,-150.6],[1,0,0,0],[0,0,0,0],[9E9,9E9,9E9,9E9,9E9,9E9]],v10,seam1,Ni36_2_7_15_35_240\Weave:=weave1,z50,tWeldgun;
    ArcL [[481.287,1148.25,-150.6],[1,0,0,0],[0,0,0,0],[9E9,9E9,9E9,9E9,9E9,9E9]],v10,seam1,Ni36_2_7_15_35_240\Weave:=weave1,z50,tWeldgun;
    ArcL [[481.387,1150.221,-150.6],[1,0,0,0],[0,0,0,0],[9E9,9E9,9E9,9E9,9E9,9E9]],v10,seam1,Ni36_2_7_15_35_240\Weave:=weave1,z50,tWeldgun;
    ArcL [[481.471,1152.625,-150.6],[1,0,0,0],[0,0,0,0],[9E9,9E9,9E9,9E9,9E9,9E9]],v10,seam1,Ni36_2_7_15_35_240\Weave:=weave1,z50,tWeldgun;
    ArcL [[481.512,1154.436,-150.6],[1,0,0,0],[0,0,0,0],[9E9,9E9,9E9,9E9,9E9,9E9]],v10,seam1,Ni36_2_7_15_35_240\Weave:=weave1,z50,tWeldgun;
    ArcL [[481.531,1156.7,-150.6],[1,0,0,0],[0,0,0,0],[9E9,9E9,9E9,9E9,9E9,9E9]],v10,seam1,Ni36_2_7_15_35_240\Weave:=weave1,z50,tWeldgun;
    ArcL [[481.522,1158.656,-150.6],[1,0,0,0],[0,0,0,0],[9E9,9E9,9E9,9E9,9E9,9E9]],v10,seam1,Ni36_2_7_15_35_240\Weave:=weave1,z50,tWeldgun;
    ArcL [[481.492,1160.379,-150.6],[1,0,0,0],[0,0,0,0],[9E9,9E9,9E9,9E9,9E9,9E9]],v10,seam1,Ni36_2_7_15_35_240\Weave:=weave1,z50,tWeldgun;
    ArcL [[481.433,1162.346,-150.6],[1,0,0,0],[0,0,0,0],[9E9,9E9,9E9,9E9,9E9,9E9]],v10,seam1,Ni36_2_7_15_35_240\Weave:=weave1,z50,tWeldgun;
    ArcL [[481.345,1164.351,-150.6],[1,0,0,0],[0,0,0,0],[9E9,9E9,9E9,9E9,9E9,9E9]],v10,seam1,Ni36_2_7_15_35_240\Weave:=weave1,z50,tWeldgun;
    ArcL [[481.242,1166.129,-150.6],[1,0,0,0],[0,0,0,0],[9E9,9E9,9E9,9E9,9E9,9E9]],v10,seam1,Ni36_2_7_15_35_240\Weave:=weave1,z50,tWeldgun;
    ArcL [[481.112,1167.934,-150.6],[1,0,0,0],[0,0,0,0],[9E9,9E9,9E9,9E9,9E9,9E9]],v10,seam1,Ni36_2_7_15_35_240\Weave:=weave1,z50,tWeldgun;
    ArcL [[481.096,1168.12,-150.6],[1,0,0,0],[0,0,0,0],[9E9,9E9,9E9,9E9,9E9,9E9]],v10,seam1,Ni36_2_7_15_35_240\Weave:=weave1,z50,tWeldgun;
    ArcL [[479.432,1167.595,-150.6],[1,0,0,0],[0,0,0,0],[9E9,9E9,9E9,9E9,9E9,9E9]],v10,seam1,Ni36_2_7_15_35_240\Weave:=weave1,z50,tWeldgun;
    ArcL [[477.932,1167.187,-150.6],[1,0,0,0],[0,0,0,0],[9E9,9E9,9E9,9E9,9E9,9E9]],v10,seam1,Ni36_2_7_15_35_240\Weave:=weave1,z50,tWeldgun;
    ArcL [[476.446,1166.841,-150.6],[1,0,0,0],[0,0,0,0],[9E9,9E9,9E9,9E9,9E9,9E9]],v10,seam1,Ni36_2_7_15_35_240\Weave:=weave1,z50,tWeldgun;
    ArcL [[475.001,1166.559,-150.6],[1,0,0,0],[0,0,0,0],[9E9,9E9,9E9,9E9,9E9,9E9]],v10,seam1,Ni36_2_7_15_35_240\Weave:=weave1,z50,tWeldgun;
    ArcL [[473.406,1166.307,-150.6],[1,0,0,0],[0,0,0,0],[9E9,9E9,9E9,9E9,9E9,9E9]],v10,seam1,Ni36_2_7_15_35_240\Weave:=weave1,z50,tWeldgun;
    ArcL [[471.914,1166.127,-150.6],[1,0,0,0],[0,0,0,0],[9E9,9E9,9E9,9E9,9E9,9E9]],v10,seam1,Ni36_2_7_15_35_240\Weave:=weave1,z50,tWeldgun;
    ArcL [[470.362,1165.995,-150.6],[1,0,0,0],[0,0,0,0],[9E9,9E9,9E9,9E9,9E9,9E9]],v10,seam1,Ni36_2_7_15_35_240\Weave:=weave1,z50,tWeldgun;
    ArcL [[468.725,1165.915,-150.6],[1,0,0,0],[0,0,0,0],[9E9,9E9,9E9,9E9,9E9,9E9]],v10,seam1,Ni36_2_7_15_35_240\Weave:=weave1,z50,tWeldgun;
    ArcL [[467.116,1165.896,-150.6],[1,0,0,0],[0,0,0,0],[9E9,9E9,9E9,9E9,9E9,9E9]],v10,seam1,Ni36_2_7_15_35_240\Weave:=weave1,z50,tWeldgun;
    ArcL [[465.517,1165.935,-150.6],[1,0,0,0],[0,0,0,0],[9E9,9E9,9E9,9E9,9E9,9E9]],v10,seam1,Ni36_2_7_15_35_240\Weave:=weave1,z50,tWeldgun;
    ArcL [[463.782,1166.041,-150.6],[1,0,0,0],[0,0,0,0],[9E9,9E9,9E9,9E9,9E9,9E9]],v10,seam1,Ni36_2_7_15_35_240\Weave:=weave1,z50,tWeldgun;
    ArcL [[462.251,1166.19,-150.6],[1,0,0,0],[0,0,0,0],[9E9,9E9,9E9,9E9,9E9,9E9]],v10,seam1,Ni36_2_7_15_35_240\Weave:=weave1,z50,tWeldgun;
    ArcL [[460.525,1166.425,-150.6],[1,0,0,0],[0,0,0,0],[9E9,9E9,9E9,9E9,9E9,9E9]],v10,seam1,Ni36_2_7_15_35_240\Weave:=weave1,z50,tWeldgun;
    ArcL [[458.836,1166.722,-150.6],[1,0,0,0],[0,0,0,0],[9E9,9E9,9E9,9E9,9E9,9E9]],v10,seam1,Ni36_2_7_15_35_240\Weave:=weave1,z50,tWeldgun;
    ArcL [[457.206,1167.072,-150.6],[1,0,0,0],[0,0,0,0],[9E9,9E9,9E9,9E9,9E9,9E9]],v10,seam1,Ni36_2_7_15_35_240\Weave:=weave1,z50,tWeldgun;
    ArcL [[455.562,1167.491,-150.6],[1,0,0,0],[0,0,0,0],[9E9,9E9,9E9,9E9,9E9,9E9]],v10,seam1,Ni36_2_7_15_35_240\Weave:=weave1,z50,tWeldgun;
    ArcL [[453.909,1167.982,-150.6],[1,0,0,0],[0,0,0,0],[9E9,9E9,9E9,9E9,9E9,9E9]],v10,seam1,Ni36_2_7_15_35_240\Weave:=weave1,z50,tWeldgun;
    ArcL [[452.428,1168.48,-150.6],[1,0,0,0],[0,0,0,0],[9E9,9E9,9E9,9E9,9E9,9E9]],v10,seam1,Ni36_2_7_15_35_240\Weave:=weave1,z50,tWeldgun;
    ArcL [[450.783,1169.104,-150.6],[1,0,0,0],[0,0,0,0],[9E9,9E9,9E9,9E9,9E9,9E9]],v10,seam1,Ni36_2_7_15_35_240\Weave:=weave1,z50,tWeldgun;
    ArcL [[449.233,1169.758,-150.6],[1,0,0,0],[0,0,0,0],[9E9,9E9,9E9,9E9,9E9,9E9]],v10,seam1,Ni36_2_7_15_35_240\Weave:=weave1,z50,tWeldgun;
    ArcL [[447.704,1170.471,-150.6],[1,0,0,0],[0,0,0,0],[9E9,9E9,9E9,9E9,9E9,9E9]],v10,seam1,Ni36_2_7_15_35_240\Weave:=weave1,z50,tWeldgun;
    ArcL [[446.246,1171.215,-150.6],[1,0,0,0],[0,0,0,0],[9E9,9E9,9E9,9E9,9E9,9E9]],v10,seam1,Ni36_2_7_15_35_240\Weave:=weave1,z50,tWeldgun;
    ArcL [[444.764,1172.036,-150.6],[1,0,0,0],[0,0,0,0],[9E9,9E9,9E9,9E9,9E9,9E9]],v10,seam1,Ni36_2_7_15_35_240\Weave:=weave1,z50,tWeldgun;
    ArcL [[443.566,1172.756,-150.6],[1,0,0,0],[0,0,0,0],[9E9,9E9,9E9,9E9,9E9,9E9]],v10,seam1,Ni36_2_7_15_35_240\Weave:=weave1,z50,tWeldgun;
    ArcL [[443.321,1172.904,-150.6],[1,0,0,0],[0,0,0,0],[9E9,9E9,9E9,9E9,9E9,9E9]],v10,seam1,Ni36_2_7_15_35_240\Weave:=weave1,z50,tWeldgun;
    ArcL [[441.83,1173.873,-150.6],[1,0,0,0],[0,0,0,0],[9E9,9E9,9E9,9E9,9E9,9E9]],v10,seam1,Ni36_2_7_15_35_240\Weave:=weave1,z50,tWeldgun;
    ArcL [[440.5,1174.8,-150.6],[1,0,0,0],[0,0,0,0],[9E9,9E9,9E9,9E9,9E9,9E9]],v10,seam1,Ni36_2_7_15_35_240\Weave:=weave1,z50,tWeldgun;
    ArcL [[439.106,1175.839,-150.6],[1,0,0,0],[0,0,0,0],[9E9,9E9,9E9,9E9,9E9,9E9]],v10,seam1,Ni36_2_7_15_35_240\Weave:=weave1,z50,tWeldgun;
    ArcL [[438.122,1176.621,-150.6],[1,0,0,0],[0,0,0,0],[9E9,9E9,9E9,9E9,9E9,9E9]],v10,seam1,Ni36_2_7_15_35_240\Weave:=weave1,z50,tWeldgun;
    ArcL [[437.033,1175.759,-150.6],[1,0,0,0],[0,0,0,0],[9E9,9E9,9E9,9E9,9E9,9E9]],v10,seam1,Ni36_2_7_15_35_240\Weave:=weave1,z50,tWeldgun;
    ArcL [[435.567,1174.673,-150.6],[1,0,0,0],[0,0,0,0],[9E9,9E9,9E9,9E9,9E9,9E9]],v10,seam1,Ni36_2_7_15_35_240\Weave:=weave1,z50,tWeldgun;
    ArcL [[434.234,1173.751,-150.6],[1,0,0,0],[0,0,0,0],[9E9,9E9,9E9,9E9,9E9,9E9]],v10,seam1,Ni36_2_7_15_35_240\Weave:=weave1,z50,tWeldgun;
    ArcL [[432.87,1172.871,-150.6],[1,0,0,0],[0,0,0,0],[9E9,9E9,9E9,9E9,9E9,9E9]],v10,seam1,Ni36_2_7_15_35_240\Weave:=weave1,z50,tWeldgun;
    ArcL [[432.678,1172.756,-150.6],[1,0,0,0],[0,0,0,0],[9E9,9E9,9E9,9E9,9E9,9E9]],v10,seam1,Ni36_2_7_15_35_240\Weave:=weave1,z50,tWeldgun;
    ArcL [[431.427,1172.006,-150.6],[1,0,0,0],[0,0,0,0],[9E9,9E9,9E9,9E9,9E9,9E9]],v10,seam1,Ni36_2_7_15_35_240\Weave:=weave1,z50,tWeldgun;
    ArcL [[429.813,1171.118,-150.6],[1,0,0,0],[0,0,0,0],[9E9,9E9,9E9,9E9,9E9,9E9]],v10,seam1,Ni36_2_7_15_35_240\Weave:=weave1,z50,tWeldgun;
    ArcL [[428.335,1170.372,-150.6],[1,0,0,0],[0,0,0,0],[9E9,9E9,9E9,9E9,9E9,9E9]],v10,seam1,Ni36_2_7_15_35_240\Weave:=weave1,z50,tWeldgun;
    ArcL [[426.919,1169.717,-150.6],[1,0,0,0],[0,0,0,0],[9E9,9E9,9E9,9E9,9E9,9E9]],v10,seam1,Ni36_2_7_15_35_240\Weave:=weave1,z50,tWeldgun;
    ArcL [[425.284,1169.033,-150.6],[1,0,0,0],[0,0,0,0],[9E9,9E9,9E9,9E9,9E9,9E9]],v10,seam1,Ni36_2_7_15_35_240\Weave:=weave1,z50,tWeldgun;
    ArcL [[423.745,1168.455,-150.6],[1,0,0,0],[0,0,0,0],[9E9,9E9,9E9,9E9,9E9,9E9]],v10,seam1,Ni36_2_7_15_35_240\Weave:=weave1,z50,tWeldgun;
    ArcL [[422.301,1167.971,-150.6],[1,0,0,0],[0,0,0,0],[9E9,9E9,9E9,9E9,9E9,9E9]],v10,seam1,Ni36_2_7_15_35_240\Weave:=weave1,z50,tWeldgun;
    ArcL [[420.826,1167.534,-150.6],[1,0,0,0],[0,0,0,0],[9E9,9E9,9E9,9E9,9E9,9E9]],v10,seam1,Ni36_2_7_15_35_240\Weave:=weave1,z50,tWeldgun;
    ArcL [[420.375,1167.41,-150.6],[1,0,0,0],[0,0,0,0],[9E9,9E9,9E9,9E9,9E9,9E9]],v10,seam1,Ni36_2_7_15_35_240\Weave:=weave1,z50,tWeldgun;
    ArcL [[418.913,1167.042,-150.6],[1,0,0,0],[0,0,0,0],[9E9,9E9,9E9,9E9,9E9,9E9]],v10,seam1,Ni36_2_7_15_35_240\Weave:=weave1,z50,tWeldgun;
    ArcL [[417.194,1166.68,-150.6],[1,0,0,0],[0,0,0,0],[9E9,9E9,9E9,9E9,9E9,9E9]],v10,seam1,Ni36_2_7_15_35_240\Weave:=weave1,z50,tWeldgun;
    ArcL [[415.639,1166.412,-150.6],[1,0,0,0],[0,0,0,0],[9E9,9E9,9E9,9E9,9E9,9E9]],v10,seam1,Ni36_2_7_15_35_240\Weave:=weave1,z50,tWeldgun;
    ArcL [[413.974,1166.188,-150.6],[1,0,0,0],[0,0,0,0],[9E9,9E9,9E9,9E9,9E9,9E9]],v10,seam1,Ni36_2_7_15_35_240\Weave:=weave1,z50,tWeldgun;
    ArcL [[412.248,1166.024,-150.6],[1,0,0,0],[0,0,0,0],[9E9,9E9,9E9,9E9,9E9,9E9]],v10,seam1,Ni36_2_7_15_35_240\Weave:=weave1,z50,tWeldgun;
    ArcL [[410.616,1165.93,-150.6],[1,0,0,0],[0,0,0,0],[9E9,9E9,9E9,9E9,9E9,9E9]],v10,seam1,Ni36_2_7_15_35_240\Weave:=weave1,z50,tWeldgun;
    ArcL [[408.949,1165.896,-150.6],[1,0,0,0],[0,0,0,0],[9E9,9E9,9E9,9E9,9E9,9E9]],v10,seam1,Ni36_2_7_15_35_240\Weave:=weave1,z50,tWeldgun;
    ArcL [[407.435,1165.918,-150.6],[1,0,0,0],[0,0,0,0],[9E9,9E9,9E9,9E9,9E9,9E9]],v10,seam1,Ni36_2_7_15_35_240\Weave:=weave1,z50,tWeldgun;
    ArcL [[405.935,1165.992,-150.6],[1,0,0,0],[0,0,0,0],[9E9,9E9,9E9,9E9,9E9,9E9]],v10,seam1,Ni36_2_7_15_35_240\Weave:=weave1,z50,tWeldgun;
    ArcL [[404.358,1166.125,-150.6],[1,0,0,0],[0,0,0,0],[9E9,9E9,9E9,9E9,9E9,9E9]],v10,seam1,Ni36_2_7_15_35_240\Weave:=weave1,z50,tWeldgun;
    ArcL [[402.664,1166.331,-150.6],[1,0,0,0],[0,0,0,0],[9E9,9E9,9E9,9E9,9E9,9E9]],v10,seam1,Ni36_2_7_15_35_240\Weave:=weave1,z50,tWeldgun;
    ArcL [[401.092,1166.585,-150.6],[1,0,0,0],[0,0,0,0],[9E9,9E9,9E9,9E9,9E9,9E9]],v10,seam1,Ni36_2_7_15_35_240\Weave:=weave1,z50,tWeldgun;
    ArcL [[399.55,1166.894,-150.6],[1,0,0,0],[0,0,0,0],[9E9,9E9,9E9,9E9,9E9,9E9]],v10,seam1,Ni36_2_7_15_35_240\Weave:=weave1,z50,tWeldgun;
    ArcL [[398.108,1167.238,-150.6],[1,0,0,0],[0,0,0,0],[9E9,9E9,9E9,9E9,9E9,9E9]],v10,seam1,Ni36_2_7_15_35_240\Weave:=weave1,z50,tWeldgun;
    ArcL [[396.609,1167.654,-150.6],[1,0,0,0],[0,0,0,0],[9E9,9E9,9E9,9E9,9E9,9E9]],v10,seam1,Ni36_2_7_15_35_240\Weave:=weave1,z50,tWeldgun;
    ArcL [[395.148,1168.12,-150.6],[1,0,0,0],[0,0,0,0],[9E9,9E9,9E9,9E9,9E9,9E9]],v10,seam1,Ni36_2_7_15_35_240\Weave:=weave1,z50,tWeldgun;
    ! Link Move Starts
    ArcL [[393.838,1168.537,-150.6],[1,0,0,0],[0,0,0,0],[9E9,9E9,9E9,9E9,9E9,9E9]],v10,seam1,Ni36_2_7_15_35_240\Weave:=weave1,z50,tWeldgun;
    ! Welding Move Ends (Arc is about to be stopped)
    ArcLEnd [[393.838,1168.537,-150.6],[1,0,0,0],[0,0,0,0],[9E9,9E9,9E9,9E9,9E9,9E9]],v10,seam1,Ni36_2_7_15_35_240\Weave:=weave1,z50,tWeldgun;
    WaitTime 180;
    MoveL [[392.542,1169.244,-150.6],[1,0,0,0],[0,0,0,0],[9E9,9E9,9E9,9E9,9E9,9E9]],v10,z50,tWeldgun;
    MoveL [[391.603,1170.384,-150.6],[1,0,0,0],[0,0,0,0],[9E9,9E9,9E9,9E9,9E9,9E9]],v10,z50,tWeldgun;
    MoveL [[391.158,1171.792,-150.6],[1,0,0,0],[0,0,0,0],[9E9,9E9,9E9,9E9,9E9,9E9]],v10,z50,tWeldgun;
    MoveL [[390.261,1179.539,-150.6],[1,0,0,0],[0,0,0,0],[9E9,9E9,9E9,9E9,9E9,9E9]],v10,z50,tWeldgun;
    MoveL [[389.967,1179.979,-150.6],[1,0,0,0],[0,0,0,0],[9E9,9E9,9E9,9E9,9E9,9E9]],v10,z50,tWeldgun;
    MoveL [[389.438,1179.997,-150.6],[1,0,0,0],[0,0,0,0],[9E9,9E9,9E9,9E9,9E9,9E9]],v10,z50,tWeldgun;
    MoveL [[389.116,1179.577,-150.6],[1,0,0,0],[0,0,0,0],[9E9,9E9,9E9,9E9,9E9,9E9]],v10,z50,tWeldgun;
    ! Depositing Move Starts
    ! Welding Move Starts (Arc is about to be established)
    ArcLStart [[388.813,1177.922,-150.6],[1,0,0,0],[0,0,0,0],[9E9,9E9,9E9,9E9,9E9,9E9]],v10,seam1,Ni36_2_7_15_35_240\Weave:=weave1,fine,tWeldgun;
    ArcL [[388.527,1176.158,-150.6],[1,0,0,0],[0,0,0,0],[9E9,9E9,9E9,9E9,9E9,9E9]],v10,seam1,Ni36_2_7_15_35_240\Weave:=weave1,z50,tWeldgun;
    ArcL [[388.326,1174.762,-150.6],[1,0,0,0],[0,0,0,0],[9E9,9E9,9E9,9E9,9E9,9E9]],v10,seam1,Ni36_2_7_15_35_240\Weave:=weave1,z50,tWeldgun;
    ArcL [[388.13,1173.235,-150.6],[1,0,0,0],[0,0,0,0],[9E9,9E9,9E9,9E9,9E9,9E9]],v10,seam1,Ni36_2_7_15_35_240\Weave:=weave1,z50,tWeldgun;
    ArcL [[387.937,1171.525,-150.6],[1,0,0,0],[0,0,0,0],[9E9,9E9,9E9,9E9,9E9,9E9]],v10,seam1,Ni36_2_7_15_35_240\Weave:=weave1,z50,tWeldgun;
    ArcL [[387.77,1169.807,-150.6],[1,0,0,0],[0,0,0,0],[9E9,9E9,9E9,9E9,9E9,9E9]],v10,seam1,Ni36_2_7_15_35_240\Weave:=weave1,z50,tWeldgun;
    ArcL [[387.601,1167.737,-150.6],[1,0,0,0],[0,0,0,0],[9E9,9E9,9E9,9E9,9E9,9E9]],v10,seam1,Ni36_2_7_15_35_240\Weave:=weave1,z50,tWeldgun;
    ArcL [[387.474,1165.799,-150.6],[1,0,0,0],[0,0,0,0],[9E9,9E9,9E9,9E9,9E9,9E9]],v10,seam1,Ni36_2_7_15_35_240\Weave:=weave1,z50,tWeldgun;
    ArcL [[387.368,1163.737,-150.6],[1,0,0,0],[0,0,0,0],[9E9,9E9,9E9,9E9,9E9,9E9]],v10,seam1,Ni36_2_7_15_35_240\Weave:=weave1,z50,tWeldgun;
    ArcL [[387.299,1161.945,-150.6],[1,0,0,0],[0,0,0,0],[9E9,9E9,9E9,9E9,9E9,9E9]],v10,seam1,Ni36_2_7_15_35_240\Weave:=weave1,z50,tWeldgun;
    ArcL [[387.244,1159.722,-150.6],[1,0,0,0],[0,0,0,0],[9E9,9E9,9E9,9E9,9E9,9E9]],v10,seam1,Ni36_2_7_15_35_240\Weave:=weave1,z50,tWeldgun;
    ArcL [[387.223,1157.934,-150.6],[1,0,0,0],[0,0,0,0],[9E9,9E9,9E9,9E9,9E9,9E9]],v10,seam1,Ni36_2_7_15_35_240\Weave:=weave1,z50,tWeldgun;
    ArcL [[387.224,1155.722,-150.6],[1,0,0,0],[0,0,0,0],[9E9,9E9,9E9,9E9,9E9,9E9]],v10,seam1,Ni36_2_7_15_35_240\Weave:=weave1,z50,tWeldgun;
    ArcL [[387.249,1153.796,-150.6],[1,0,0,0],[0,0,0,0],[9E9,9E9,9E9,9E9,9E9,9E9]],v10,seam1,Ni36_2_7_15_35_240\Weave:=weave1,z50,tWeldgun;
    ArcL [[387.308,1151.54,-150.6],[1,0,0,0],[0,0,0,0],[9E9,9E9,9E9,9E9,9E9,9E9]],v10,seam1,Ni36_2_7_15_35_240\Weave:=weave1,z50,tWeldgun;
    ArcL [[387.398,1149.303,-150.6],[1,0,0,0],[0,0,0,0],[9E9,9E9,9E9,9E9,9E9,9E9]],v10,seam1,Ni36_2_7_15_35_240\Weave:=weave1,z50,tWeldgun;
    ArcL [[387.524,1146.991,-150.6],[1,0,0,0],[0,0,0,0],[9E9,9E9,9E9,9E9,9E9,9E9]],v10,seam1,Ni36_2_7_15_35_240\Weave:=weave1,z50,tWeldgun;
    ArcL [[387.683,1144.686,-150.6],[1,0,0,0],[0,0,0,0],[9E9,9E9,9E9,9E9,9E9,9E9]],v10,seam1,Ni36_2_7_15_35_240\Weave:=weave1,z50,tWeldgun;
    ArcL [[387.876,1142.398,-150.6],[1,0,0,0],[0,0,0,0],[9E9,9E9,9E9,9E9,9E9,9E9]],v10,seam1,Ni36_2_7_15_35_240\Weave:=weave1,z50,tWeldgun;
    ArcL [[388.102,1140.138,-150.6],[1,0,0,0],[0,0,0,0],[9E9,9E9,9E9,9E9,9E9,9E9]],v10,seam1,Ni36_2_7_15_35_240\Weave:=weave1,z50,tWeldgun;
    ArcL [[388.381,1137.759,-150.6],[1,0,0,0],[0,0,0,0],[9E9,9E9,9E9,9E9,9E9,9E9]],v10,seam1,Ni36_2_7_15_35_240\Weave:=weave1,z50,tWeldgun;
    ArcL [[388.703,1135.381,-150.6],[1,0,0,0],[0,0,0,0],[9E9,9E9,9E9,9E9,9E9,9E9]],v10,seam1,Ni36_2_7_15_35_240\Weave:=weave1,z50,tWeldgun;
    ArcL [[389.073,1133.001,-150.6],[1,0,0,0],[0,0,0,0],[9E9,9E9,9E9,9E9,9E9,9E9]],v10,seam1,Ni36_2_7_15_35_240\Weave:=weave1,z50,tWeldgun;
    ArcL [[389.461,1130.783,-150.6],[1,0,0,0],[0,0,0,0],[9E9,9E9,9E9,9E9,9E9,9E9]],v10,seam1,Ni36_2_7_15_35_240\Weave:=weave1,z50,tWeldgun;
    ArcL [[389.916,1128.481,-150.6],[1,0,0,0],[0,0,0,0],[9E9,9E9,9E9,9E9,9E9,9E9]],v10,seam1,Ni36_2_7_15_35_240\Weave:=weave1,z50,tWeldgun;
    ArcL [[390.474,1125.967,-150.6],[1,0,0,0],[0,0,0,0],[9E9,9E9,9E9,9E9,9E9,9E9]],v10,seam1,Ni36_2_7_15_35_240\Weave:=weave1,z50,tWeldgun;
    ArcL [[391.084,1123.534,-150.6],[1,0,0,0],[0,0,0,0],[9E9,9E9,9E9,9E9,9E9,9E9]],v10,seam1,Ni36_2_7_15_35_240\Weave:=weave1,z50,tWeldgun;
    ArcL [[391.74,1121.173,-150.6],[1,0,0,0],[0,0,0,0],[9E9,9E9,9E9,9E9,9E9,9E9]],v10,seam1,Ni36_2_7_15_35_240\Weave:=weave1,z50,tWeldgun;
    ArcL [[392.075,1120.066,-150.6],[1,0,0,0],[0,0,0,0],[9E9,9E9,9E9,9E9,9E9,9E9]],v10,seam1,Ni36_2_7_15_35_240\Weave:=weave1,z50,tWeldgun;
    ArcL [[392.463,1118.844,-150.6],[1,0,0,0],[0,0,0,0],[9E9,9E9,9E9,9E9,9E9,9E9]],v10,seam1,Ni36_2_7_15_35_240\Weave:=weave1,z50,tWeldgun;
    ArcL [[392.818,1117.784,-150.6],[1,0,0,0],[0,0,0,0],[9E9,9E9,9E9,9E9,9E9,9E9]],v10,seam1,Ni36_2_7_15_35_240\Weave:=weave1,z50,tWeldgun;
    ArcL [[393.248,1116.56,-150.6],[1,0,0,0],[0,0,0,0],[9E9,9E9,9E9,9E9,9E9,9E9]],v10,seam1,Ni36_2_7_15_35_240\Weave:=weave1,z50,tWeldgun;
    ArcL [[393.639,1115.501,-150.6],[1,0,0,0],[0,0,0,0],[9E9,9E9,9E9,9E9,9E9,9E9]],v10,seam1,Ni36_2_7_15_35_240\Weave:=weave1,z50,tWeldgun;
    ArcL [[394.115,1114.275,-150.6],[1,0,0,0],[0,0,0,0],[9E9,9E9,9E9,9E9,9E9,9E9]],v10,seam1,Ni36_2_7_15_35_240\Weave:=weave1,z50,tWeldgun;
    ArcL [[394.545,1113.222,-150.6],[1,0,0,0],[0,0,0,0],[9E9,9E9,9E9,9E9,9E9,9E9]],v10,seam1,Ni36_2_7_15_35_240\Weave:=weave1,z50,tWeldgun;
    ArcL [[395.073,1111.992,-150.6],[1,0,0,0],[0,0,0,0],[9E9,9E9,9E9,9E9,9E9,9E9]],v10,seam1,Ni36_2_7_15_35_240\Weave:=weave1,z50,tWeldgun;
    ArcL [[395.511,1111.017,-150.6],[1,0,0,0],[0,0,0,0],[9E9,9E9,9E9,9E9,9E9,9E9]],v10,seam1,Ni36_2_7_15_35_240\Weave:=weave1,z50,tWeldgun;
    ArcL [[396.041,1109.892,-150.6],[1,0,0,0],[0,0,0,0],[9E9,9E9,9E9,9E9,9E9,9E9]],v10,seam1,Ni36_2_7_15_35_240\Weave:=weave1,z50,tWeldgun;
    ArcL [[396.517,1108.927,-150.6],[1,0,0,0],[0,0,0,0],[9E9,9E9,9E9,9E9,9E9,9E9]],v10,seam1,Ni36_2_7_15_35_240\Weave:=weave1,z50,tWeldgun;
    ArcL [[397.101,1107.794,-150.6],[1,0,0,0],[0,0,0,0],[9E9,9E9,9E9,9E9,9E9,9E9]],v10,seam1,Ni36_2_7_15_35_240\Weave:=weave1,z50,tWeldgun;
    ArcL [[397.621,1106.83,-150.6],[1,0,0,0],[0,0,0,0],[9E9,9E9,9E9,9E9,9E9,9E9]],v10,seam1,Ni36_2_7_15_35_240\Weave:=weave1,z50,tWeldgun;
    ArcL [[398.262,1105.696,-150.6],[1,0,0,0],[0,0,0,0],[9E9,9E9,9E9,9E9,9E9,9E9]],v10,seam1,Ni36_2_7_15_35_240\Weave:=weave1,z50,tWeldgun;
    ArcL [[398.83,1104.735,-150.6],[1,0,0,0],[0,0,0,0],[9E9,9E9,9E9,9E9,9E9,9E9]],v10,seam1,Ni36_2_7_15_35_240\Weave:=weave1,z50,tWeldgun;
    ArcL [[399.532,1103.602,-150.6],[1,0,0,0],[0,0,0,0],[9E9,9E9,9E9,9E9,9E9,9E9]],v10,seam1,Ni36_2_7_15_35_240\Weave:=weave1,z50,tWeldgun;
    ArcL [[400.084,1102.749,-150.6],[1,0,0,0],[0,0,0,0],[9E9,9E9,9E9,9E9,9E9,9E9]],v10,seam1,Ni36_2_7_15_35_240\Weave:=weave1,z50,tWeldgun;
    ArcL [[400.756,1101.75,-150.6],[1,0,0,0],[0,0,0,0],[9E9,9E9,9E9,9E9,9E9,9E9]],v10,seam1,Ni36_2_7_15_35_240\Weave:=weave1,z50,tWeldgun;
    ArcL [[401.351,1100.902,-150.6],[1,0,0,0],[0,0,0,0],[9E9,9E9,9E9,9E9,9E9,9E9]],v10,seam1,Ni36_2_7_15_35_240\Weave:=weave1,z50,tWeldgun;
    ArcL [[402.08,1099.903,-150.6],[1,0,0,0],[0,0,0,0],[9E9,9E9,9E9,9E9,9E9,9E9]],v10,seam1,Ni36_2_7_15_35_240\Weave:=weave1,z50,tWeldgun;
    ArcL [[402.725,1099.055,-150.6],[1,0,0,0],[0,0,0,0],[9E9,9E9,9E9,9E9,9E9,9E9]],v10,seam1,Ni36_2_7_15_35_240\Weave:=weave1,z50,tWeldgun;
    ArcL [[403.516,1098.056,-150.6],[1,0,0,0],[0,0,0,0],[9E9,9E9,9E9,9E9,9E9,9E9]],v10,seam1,Ni36_2_7_15_35_240\Weave:=weave1,z50,tWeldgun;
    ArcL [[404.214,1097.209,-150.6],[1,0,0,0],[0,0,0,0],[9E9,9E9,9E9,9E9,9E9,9E9]],v10,seam1,Ni36_2_7_15_35_240\Weave:=weave1,z50,tWeldgun;
    ArcL [[405.056,1096.227,-150.6],[1,0,0,0],[0,0,0,0],[9E9,9E9,9E9,9E9,9E9,9E9]],v10,seam1,Ni36_2_7_15_35_240\Weave:=weave1,z50,tWeldgun;
    ArcL [[406.476,1094.659,-150.6],[1,0,0,0],[0,0,0,0],[9E9,9E9,9E9,9E9,9E9,9E9]],v10,seam1,Ni36_2_7_15_35_240\Weave:=weave1,z50,tWeldgun;
    ArcL [[407.202,1093.898,-150.6],[1,0,0,0],[0,0,0,0],[9E9,9E9,9E9,9E9,9E9,9E9]],v10,seam1,Ni36_2_7_15_35_240\Weave:=weave1,z50,tWeldgun;
    ArcL [[408.033,1093.053,-150.6],[1,0,0,0],[0,0,0,0],[9E9,9E9,9E9,9E9,9E9,9E9]],v10,seam1,Ni36_2_7_15_35_240\Weave:=weave1,z50,tWeldgun;
    ArcL [[408.806,1092.294,-150.6],[1,0,0,0],[0,0,0,0],[9E9,9E9,9E9,9E9,9E9,9E9]],v10,seam1,Ni36_2_7_15_35_240\Weave:=weave1,z50,tWeldgun;
    ArcL [[409.715,1091.43,-150.6],[1,0,0,0],[0,0,0,0],[9E9,9E9,9E9,9E9,9E9,9E9]],v10,seam1,Ni36_2_7_15_35_240\Weave:=weave1,z50,tWeldgun;
    ArcL [[410.364,1090.831,-150.6],[1,0,0,0],[0,0,0,0],[9E9,9E9,9E9,9E9,9E9,9E9]],v10,seam1,Ni36_2_7_15_35_240\Weave:=weave1,z50,tWeldgun;
    ArcL [[411.296,1089.997,-150.6],[1,0,0,0],[0,0,0,0],[9E9,9E9,9E9,9E9,9E9,9E9]],v10,seam1,Ni36_2_7_15_35_240\Weave:=weave1,z50,tWeldgun;
    ArcL [[412.901,1088.62,-150.6],[1,0,0,0],[0,0,0,0],[9E9,9E9,9E9,9E9,9E9,9E9]],v10,seam1,Ni36_2_7_15_35_240\Weave:=weave1,z50,tWeldgun;
    ArcL [[414.571,1087.266,-150.6],[1,0,0,0],[0,0,0,0],[9E9,9E9,9E9,9E9,9E9,9E9]],v10,seam1,Ni36_2_7_15_35_240\Weave:=weave1,z50,tWeldgun;
    ArcL [[416.259,1085.971,-150.6],[1,0,0,0],[0,0,0,0],[9E9,9E9,9E9,9E9,9E9,9E9]],v10,seam1,Ni36_2_7_15_35_240\Weave:=weave1,z50,tWeldgun;
    ArcL [[417.909,1084.768,-150.6],[1,0,0,0],[0,0,0,0],[9E9,9E9,9E9,9E9,9E9,9E9]],v10,seam1,Ni36_2_7_15_35_240\Weave:=weave1,z50,tWeldgun;
    ArcL [[419.605,1083.596,-150.6],[1,0,0,0],[0,0,0,0],[9E9,9E9,9E9,9E9,9E9,9E9]],v10,seam1,Ni36_2_7_15_35_240\Weave:=weave1,z50,tWeldgun;
    ArcL [[421.302,1082.484,-150.6],[1,0,0,0],[0,0,0,0],[9E9,9E9,9E9,9E9,9E9,9E9]],v10,seam1,Ni36_2_7_15_35_240\Weave:=weave1,z50,tWeldgun;
    ArcL [[422.998,1081.431,-150.6],[1,0,0,0],[0,0,0,0],[9E9,9E9,9E9,9E9,9E9,9E9]],v10,seam1,Ni36_2_7_15_35_240\Weave:=weave1,z50,tWeldgun;
    ArcL [[424.694,1080.433,-150.6],[1,0,0,0],[0,0,0,0],[9E9,9E9,9E9,9E9,9E9,9E9]],v10,seam1,Ni36_2_7_15_35_240\Weave:=weave1,z50,tWeldgun;
    ArcL [[426.621,1079.368,-150.6],[1,0,0,0],[0,0,0,0],[9E9,9E9,9E9,9E9,9E9,9E9]],v10,seam1,Ni36_2_7_15_35_240\Weave:=weave1,z50,tWeldgun;
    ArcL [[428.143,1078.573,-150.6],[1,0,0,0],[0,0,0,0],[9E9,9E9,9E9,9E9,9E9,9E9]],v10,seam1,Ni36_2_7_15_35_240\Weave:=weave1,z50,tWeldgun;
    ArcL [[429.761,1077.776,-150.6],[1,0,0,0],[0,0,0,0],[9E9,9E9,9E9,9E9,9E9,9E9]],v10,seam1,Ni36_2_7_15_35_240\Weave:=weave1,z50,tWeldgun;
    ArcL [[431.551,1076.95,-150.6],[1,0,0,0],[0,0,0,0],[9E9,9E9,9E9,9E9,9E9,9E9]],v10,seam1,Ni36_2_7_15_35_240\Weave:=weave1,z50,tWeldgun;
    ArcL [[433.212,1076.236,-150.6],[1,0,0,0],[0,0,0,0],[9E9,9E9,9E9,9E9,9E9,9E9]],v10,seam1,Ni36_2_7_15_35_240\Weave:=weave1,z50,tWeldgun;
    ArcL [[434.884,1075.568,-150.6],[1,0,0,0],[0,0,0,0],[9E9,9E9,9E9,9E9,9E9,9E9]],v10,seam1,Ni36_2_7_15_35_240\Weave:=weave1,z50,tWeldgun;
    ArcL [[436.633,1074.924,-150.6],[1,0,0,0],[0,0,0,0],[9E9,9E9,9E9,9E9,9E9,9E9]],v10,seam1,Ni36_2_7_15_35_240\Weave:=weave1,z50,tWeldgun;
    ArcL [[438.122,1074.42,-150.6],[1,0,0,0],[0,0,0,0],[9E9,9E9,9E9,9E9,9E9,9E9]],v10,seam1,Ni36_2_7_15_35_240\Weave:=weave1,z50,tWeldgun;
    ArcL [[440.04,1075.078,-150.6],[1,0,0,0],[0,0,0,0],[9E9,9E9,9E9,9E9,9E9,9E9]],v10,seam1,Ni36_2_7_15_35_240\Weave:=weave1,z50,tWeldgun;
    ArcL [[441.556,1075.644,-150.6],[1,0,0,0],[0,0,0,0],[9E9,9E9,9E9,9E9,9E9,9E9]],v10,seam1,Ni36_2_7_15_35_240\Weave:=weave1,z50,tWeldgun;
    ArcL [[443.221,1076.315,-150.6],[1,0,0,0],[0,0,0,0],[9E9,9E9,9E9,9E9,9E9,9E9]],v10,seam1,Ni36_2_7_15_35_240\Weave:=weave1,z50,tWeldgun;
    ArcL [[444.894,1077.04,-150.6],[1,0,0,0],[0,0,0,0],[9E9,9E9,9E9,9E9,9E9,9E9]],v10,seam1,Ni36_2_7_15_35_240\Weave:=weave1,z50,tWeldgun;
    ArcL [[446.57,1077.818,-150.6],[1,0,0,0],[0,0,0,0],[9E9,9E9,9E9,9E9,9E9,9E9]],v10,seam1,Ni36_2_7_15_35_240\Weave:=weave1,z50,tWeldgun;
    ArcL [[448.383,1078.719,-150.6],[1,0,0,0],[0,0,0,0],[9E9,9E9,9E9,9E9,9E9,9E9]],v10,seam1,Ni36_2_7_15_35_240\Weave:=weave1,z50,tWeldgun;
    ArcL [[450.069,1079.61,-150.6],[1,0,0,0],[0,0,0,0],[9E9,9E9,9E9,9E9,9E9,9E9]],v10,seam1,Ni36_2_7_15_35_240\Weave:=weave1,z50,tWeldgun;
    ArcL [[451.644,1080.489,-150.6],[1,0,0,0],[0,0,0,0],[9E9,9E9,9E9,9E9,9E9,9E9]],v10,seam1,Ni36_2_7_15_35_240\Weave:=weave1,z50,tWeldgun;
    ArcL [[453.261,1081.44,-150.6],[1,0,0,0],[0,0,0,0],[9E9,9E9,9E9,9E9,9E9,9E9]],v10,seam1,Ni36_2_7_15_35_240\Weave:=weave1,z50,tWeldgun;
    ArcL [[454.942,1082.484,-150.6],[1,0,0,0],[0,0,0,0],[9E9,9E9,9E9,9E9,9E9,9E9]],v10,seam1,Ni36_2_7_15_35_240\Weave:=weave1,z50,tWeldgun;
    ArcL [[456.638,1083.596,-150.6],[1,0,0,0],[0,0,0,0],[9E9,9E9,9E9,9E9,9E9,9E9]],v10,seam1,Ni36_2_7_15_35_240\Weave:=weave1,z50,tWeldgun;
    ArcL [[458.335,1084.768,-150.6],[1,0,0,0],[0,0,0,0],[9E9,9E9,9E9,9E9,9E9,9E9]],v10,seam1,Ni36_2_7_15_35_240\Weave:=weave1,z50,tWeldgun;
    ArcL [[460.004,1085.984,-150.6],[1,0,0,0],[0,0,0,0],[9E9,9E9,9E9,9E9,9E9,9E9]],v10,seam1,Ni36_2_7_15_35_240\Weave:=weave1,z50,tWeldgun;
    ArcL [[461.673,1087.266,-150.6],[1,0,0,0],[0,0,0,0],[9E9,9E9,9E9,9E9,9E9,9E9]],v10,seam1,Ni36_2_7_15_35_240\Weave:=weave1,z50,tWeldgun;
    ArcL [[463.342,1088.62,-150.6],[1,0,0,0],[0,0,0,0],[9E9,9E9,9E9,9E9,9E9,9E9]],v10,seam1,Ni36_2_7_15_35_240\Weave:=weave1,z50,tWeldgun;
    ArcL [[465.151,1090.176,-150.6],[1,0,0,0],[0,0,0,0],[9E9,9E9,9E9,9E9,9E9,9E9]],v10,seam1,Ni36_2_7_15_35_240\Weave:=weave1,z50,tWeldgun;
    ArcL [[465.954,1090.9,-150.6],[1,0,0,0],[0,0,0,0],[9E9,9E9,9E9,9E9,9E9,9E9]],v10,seam1,Ni36_2_7_15_35_240\Weave:=weave1,z50,tWeldgun;
    ArcL [[466.85,1091.733,-150.6],[1,0,0,0],[0,0,0,0],[9E9,9E9,9E9,9E9,9E9,9E9]],v10,seam1,Ni36_2_7_15_35_240\Weave:=weave1,z50,tWeldgun;
    ArcL [[467.622,1092.473,-150.6],[1,0,0,0],[0,0,0,0],[9E9,9E9,9E9,9E9,9E9,9E9]],v10,seam1,Ni36_2_7_15_35_240\Weave:=weave1,z50,tWeldgun;
    ArcL [[468.514,1093.358,-150.6],[1,0,0,0],[0,0,0,0],[9E9,9E9,9E9,9E9,9E9,9E9]],v10,seam1,Ni36_2_7_15_35_240\Weave:=weave1,z50,tWeldgun;
    ArcL [[469.217,1094.08,-150.6],[1,0,0,0],[0,0,0,0],[9E9,9E9,9E9,9E9,9E9,9E9]],v10,seam1,Ni36_2_7_15_35_240\Weave:=weave1,z50,tWeldgun;
    ArcL [[470.132,1095.057,-150.6],[1,0,0,0],[0,0,0,0],[9E9,9E9,9E9,9E9,9E9,9E9]],v10,seam1,Ni36_2_7_15_35_240\Weave:=weave1,z50,tWeldgun;
    ArcL [[471.307,1096.362,-150.6],[1,0,0,0],[0,0,0,0],[9E9,9E9,9E9,9E9,9E9,9E9]],v10,seam1,Ni36_2_7_15_35_240\Weave:=weave1,z50,tWeldgun;
    ArcL [[472.226,1097.443,-150.6],[1,0,0,0],[0,0,0,0],[9E9,9E9,9E9,9E9,9E9,9E9]],v10,seam1,Ni36_2_7_15_35_240\Weave:=weave1,z50,tWeldgun;
    ArcL [[472.921,1098.296,-150.6],[1,0,0,0],[0,0,0,0],[9E9,9E9,9E9,9E9,9E9,9E9]],v10,seam1,Ni36_2_7_15_35_240\Weave:=weave1,z50,tWeldgun;
    ArcL [[473.706,1099.298,-150.6],[1,0,0,0],[0,0,0,0],[9E9,9E9,9E9,9E9,9E9,9E9]],v10,seam1,Ni36_2_7_15_35_240\Weave:=weave1,z50,tWeldgun;
    ArcL [[474.347,1100.15,-150.6],[1,0,0,0],[0,0,0,0],[9E9,9E9,9E9,9E9,9E9,9E9]],v10,seam1,Ni36_2_7_15_35_240\Weave:=weave1,z50,tWeldgun;
    ArcL [[475.072,1101.153,-150.6],[1,0,0,0],[0,0,0,0],[9E9,9E9,9E9,9E9,9E9,9E9]],v10,seam1,Ni36_2_7_15_35_240\Weave:=weave1,z50,tWeldgun;
    ArcL [[475.664,1102.007,-150.6],[1,0,0,0],[0,0,0,0],[9E9,9E9,9E9,9E9,9E9,9E9]],v10,seam1,Ni36_2_7_15_35_240\Weave:=weave1,z50,tWeldgun;
    ArcL [[476.331,1103.009,-150.6],[1,0,0,0],[0,0,0,0],[9E9,9E9,9E9,9E9,9E9,9E9]],v10,seam1,Ni36_2_7_15_35_240\Weave:=weave1,z50,tWeldgun;
    ArcL [[476.873,1103.857,-150.6],[1,0,0,0],[0,0,0,0],[9E9,9E9,9E9,9E9,9E9,9E9]],v10,seam1,Ni36_2_7_15_35_240\Weave:=weave1,z50,tWeldgun;
    ArcL [[477.568,1104.993,-150.6],[1,0,0,0],[0,0,0,0],[9E9,9E9,9E9,9E9,9E9,9E9]],v10,seam1,Ni36_2_7_15_35_240\Weave:=weave1,z50,tWeldgun;
    ArcL [[478.135,1105.962,-150.6],[1,0,0,0],[0,0,0,0],[9E9,9E9,9E9,9E9,9E9,9E9]],v10,seam1,Ni36_2_7_15_35_240\Weave:=weave1,z50,tWeldgun;
    ArcL [[478.773,1107.105,-150.6],[1,0,0,0],[0,0,0,0],[9E9,9E9,9E9,9E9,9E9,9E9]],v10,seam1,Ni36_2_7_15_35_240\Weave:=weave1,z50,tWeldgun;
    ArcL [[479.291,1108.076,-150.6],[1,0,0,0],[0,0,0,0],[9E9,9E9,9E9,9E9,9E9,9E9]],v10,seam1,Ni36_2_7_15_35_240\Weave:=weave1,z50,tWeldgun;
    ArcL [[479.872,1109.217,-150.6],[1,0,0,0],[0,0,0,0],[9E9,9E9,9E9,9E9,9E9,9E9]],v10,seam1,Ni36_2_7_15_35_240\Weave:=weave1,z50,tWeldgun;
    ArcL [[480.345,1110.191,-150.6],[1,0,0,0],[0,0,0,0],[9E9,9E9,9E9,9E9,9E9,9E9]],v10,seam1,Ni36_2_7_15_35_240\Weave:=weave1,z50,tWeldgun;
    ArcL [[480.872,1111.323,-150.6],[1,0,0,0],[0,0,0,0],[9E9,9E9,9E9,9E9,9E9,9E9]],v10,seam1,Ni36_2_7_15_35_240\Weave:=weave1,z50,tWeldgun;
    ArcL [[481.304,1112.298,-150.6],[1,0,0,0],[0,0,0,0],[9E9,9E9,9E9,9E9,9E9,9E9]],v10,seam1,Ni36_2_7_15_35_240\Weave:=weave1,z50,tWeldgun;
    ArcL [[481.829,1113.536,-150.6],[1,0,0,0],[0,0,0,0],[9E9,9E9,9E9,9E9,9E9,9E9]],v10,seam1,Ni36_2_7_15_35_240\Weave:=weave1,z50,tWeldgun;
    ArcL [[482.255,1114.596,-150.6],[1,0,0,0],[0,0,0,0],[9E9,9E9,9E9,9E9,9E9,9E9]],v10,seam1,Ni36_2_7_15_35_240\Weave:=weave1,z50,tWeldgun;
    ArcL [[482.729,1115.833,-150.6],[1,0,0,0],[0,0,0,0],[9E9,9E9,9E9,9E9,9E9,9E9]],v10,seam1,Ni36_2_7_15_35_240\Weave:=weave1,z50,tWeldgun;
    ArcL [[483.119,1116.903,-150.6],[1,0,0,0],[0,0,0,0],[9E9,9E9,9E9,9E9,9E9,9E9]],v10,seam1,Ni36_2_7_15_35_240\Weave:=weave1,z50,tWeldgun;
    ArcL [[483.545,1118.135,-150.6],[1,0,0,0],[0,0,0,0],[9E9,9E9,9E9,9E9,9E9,9E9]],v10,seam1,Ni36_2_7_15_35_240\Weave:=weave1,z50,tWeldgun;
    ArcL [[483.898,1119.208,-150.6],[1,0,0,0],[0,0,0,0],[9E9,9E9,9E9,9E9,9E9,9E9]],v10,seam1,Ni36_2_7_15_35_240\Weave:=weave1,z50,tWeldgun;
    ArcL [[484.283,1120.438,-150.6],[1,0,0,0],[0,0,0,0],[9E9,9E9,9E9,9E9,9E9,9E9]],v10,seam1,Ni36_2_7_15_35_240\Weave:=weave1,z50,tWeldgun;
    ArcL [[484.584,1121.452,-150.6],[1,0,0,0],[0,0,0,0],[9E9,9E9,9E9,9E9,9E9,9E9]],v10,seam1,Ni36_2_7_15_35_240\Weave:=weave1,z50,tWeldgun;
    ArcL [[485.263,1123.923,-150.6],[1,0,0,0],[0,0,0,0],[9E9,9E9,9E9,9E9,9E9,9E9]],v10,seam1,Ni36_2_7_15_35_240\Weave:=weave1,z50,tWeldgun;
    ArcL [[485.802,1126.106,-150.6],[1,0,0,0],[0,0,0,0],[9E9,9E9,9E9,9E9,9E9,9E9]],v10,seam1,Ni36_2_7_15_35_240\Weave:=weave1,z50,tWeldgun;
    ArcL [[486.377,1128.72,-150.6],[1,0,0,0],[0,0,0,0],[9E9,9E9,9E9,9E9,9E9,9E9]],v10,seam1,Ni36_2_7_15_35_240\Weave:=weave1,z50,tWeldgun;
    ArcL [[486.849,1131.148,-150.6],[1,0,0,0],[0,0,0,0],[9E9,9E9,9E9,9E9,9E9,9E9]],v10,seam1,Ni36_2_7_15_35_240\Weave:=weave1,z50,tWeldgun;
    ArcL [[487.247,1133.465,-150.6],[1,0,0,0],[0,0,0,0],[9E9,9E9,9E9,9E9,9E9,9E9]],v10,seam1,Ni36_2_7_15_35_240\Weave:=weave1,z50,tWeldgun;
    ArcL [[487.628,1135.99,-150.6],[1,0,0,0],[0,0,0,0],[9E9,9E9,9E9,9E9,9E9,9E9]],v10,seam1,Ni36_2_7_15_35_240\Weave:=weave1,z50,tWeldgun;
    ArcL [[487.947,1138.442,-150.6],[1,0,0,0],[0,0,0,0],[9E9,9E9,9E9,9E9,9E9,9E9]],v10,seam1,Ni36_2_7_15_35_240\Weave:=weave1,z50,tWeldgun;
    ArcL [[488.221,1140.89,-150.6],[1,0,0,0],[0,0,0,0],[9E9,9E9,9E9,9E9,9E9,9E9]],v10,seam1,Ni36_2_7_15_35_240\Weave:=weave1,z50,tWeldgun;
    ArcL [[488.442,1143.243,-150.6],[1,0,0,0],[0,0,0,0],[9E9,9E9,9E9,9E9,9E9,9E9]],v10,seam1,Ni36_2_7_15_35_240\Weave:=weave1,z50,tWeldgun;
    ArcL [[488.621,1145.505,-150.6],[1,0,0,0],[0,0,0,0],[9E9,9E9,9E9,9E9,9E9,9E9]],v10,seam1,Ni36_2_7_15_35_240\Weave:=weave1,z50,tWeldgun;
    ArcL [[488.774,1147.929,-150.6],[1,0,0,0],[0,0,0,0],[9E9,9E9,9E9,9E9,9E9,9E9]],v10,seam1,Ni36_2_7_15_35_240\Weave:=weave1,z50,tWeldgun;
    ArcL [[488.883,1150.131,-150.6],[1,0,0,0],[0,0,0,0],[9E9,9E9,9E9,9E9,9E9,9E9]],v10,seam1,Ni36_2_7_15_35_240\Weave:=weave1,z50,tWeldgun;
    ArcL [[488.956,1152.267,-150.6],[1,0,0,0],[0,0,0,0],[9E9,9E9,9E9,9E9,9E9,9E9]],v10,seam1,Ni36_2_7_15_35_240\Weave:=weave1,z50,tWeldgun;
    ArcL [[489.006,1154.512,-150.6],[1,0,0,0],[0,0,0,0],[9E9,9E9,9E9,9E9,9E9,9E9]],v10,seam1,Ni36_2_7_15_35_240\Weave:=weave1,z50,tWeldgun;
    ArcL [[489.024,1156.421,-150.6],[1,0,0,0],[0,0,0,0],[9E9,9E9,9E9,9E9,9E9,9E9]],v10,seam1,Ni36_2_7_15_35_240\Weave:=weave1,z50,tWeldgun;
    ArcL [[489.013,1158.795,-150.6],[1,0,0,0],[0,0,0,0],[9E9,9E9,9E9,9E9,9E9,9E9]],v10,seam1,Ni36_2_7_15_35_240\Weave:=weave1,z50,tWeldgun;
    ArcL [[488.984,1160.507,-150.6],[1,0,0,0],[0,0,0,0],[9E9,9E9,9E9,9E9,9E9,9E9]],v10,seam1,Ni36_2_7_15_35_240\Weave:=weave1,z50,tWeldgun;
    ArcL [[488.92,1162.676,-150.6],[1,0,0,0],[0,0,0,0],[9E9,9E9,9E9,9E9,9E9,9E9]],v10,seam1,Ni36_2_7_15_35_240\Weave:=weave1,z50,tWeldgun;
    ArcL [[488.85,1164.327,-150.6],[1,0,0,0],[0,0,0,0],[9E9,9E9,9E9,9E9,9E9,9E9]],v10,seam1,Ni36_2_7_15_35_240\Weave:=weave1,z50,tWeldgun;
    ArcL [[488.759,1166.016,-150.6],[1,0,0,0],[0,0,0,0],[9E9,9E9,9E9,9E9,9E9,9E9]],v10,seam1,Ni36_2_7_15_35_240\Weave:=weave1,z50,tWeldgun;
    ArcL [[488.607,1168.199,-150.6],[1,0,0,0],[0,0,0,0],[9E9,9E9,9E9,9E9,9E9,9E9]],v10,seam1,Ni36_2_7_15_35_240\Weave:=weave1,z50,tWeldgun;
    ArcL [[488.463,1169.916,-150.6],[1,0,0,0],[0,0,0,0],[9E9,9E9,9E9,9E9,9E9,9E9]],v10,seam1,Ni36_2_7_15_35_240\Weave:=weave1,z50,tWeldgun;
    ArcL [[488.286,1171.716,-150.6],[1,0,0,0],[0,0,0,0],[9E9,9E9,9E9,9E9,9E9,9E9]],v10,seam1,Ni36_2_7_15_35_240\Weave:=weave1,z50,tWeldgun;
    ArcL [[488.098,1173.362,-150.6],[1,0,0,0],[0,0,0,0],[9E9,9E9,9E9,9E9,9E9,9E9]],v10,seam1,Ni36_2_7_15_35_240\Weave:=weave1,z50,tWeldgun;
    ArcL [[487.871,1175.087,-150.6],[1,0,0,0],[0,0,0,0],[9E9,9E9,9E9,9E9,9E9,9E9]],v10,seam1,Ni36_2_7_15_35_240\Weave:=weave1,z50,tWeldgun;
    ArcL [[487.621,1176.762,-150.6],[1,0,0,0],[0,0,0,0],[9E9,9E9,9E9,9E9,9E9,9E9]],v10,seam1,Ni36_2_7_15_35_240\Weave:=weave1,z50,tWeldgun;
    ArcL [[487.38,1178.215,-150.6],[1,0,0,0],[0,0,0,0],[9E9,9E9,9E9,9E9,9E9,9E9]],v10,seam1,Ni36_2_7_15_35_240\Weave:=weave1,z50,tWeldgun;
    ArcL [[487.128,1179.577,-150.6],[1,0,0,0],[0,0,0,0],[9E9,9E9,9E9,9E9,9E9,9E9]],v10,seam1,Ni36_2_7_15_35_240\Weave:=weave1,z50,tWeldgun;
    ArcL [[486.122,1178.875,-150.6],[1,0,0,0],[0,0,0,0],[9E9,9E9,9E9,9E9,9E9,9E9]],v10,seam1,Ni36_2_7_15_35_240\Weave:=weave1,z50,tWeldgun;
    ArcL [[485.008,1178.165,-150.6],[1,0,0,0],[0,0,0,0],[9E9,9E9,9E9,9E9,9E9,9E9]],v10,seam1,Ni36_2_7_15_35_240\Weave:=weave1,z50,tWeldgun;
    ArcL [[484.123,1177.645,-150.6],[1,0,0,0],[0,0,0,0],[9E9,9E9,9E9,9E9,9E9,9E9]],v10,seam1,Ni36_2_7_15_35_240\Weave:=weave1,z50,tWeldgun;
    ArcL [[482.99,1177.036,-150.6],[1,0,0,0],[0,0,0,0],[9E9,9E9,9E9,9E9,9E9,9E9]],v10,seam1,Ni36_2_7_15_35_240\Weave:=weave1,z50,tWeldgun;
    ArcL [[481.993,1176.546,-150.6],[1,0,0,0],[0,0,0,0],[9E9,9E9,9E9,9E9,9E9,9E9]],v10,seam1,Ni36_2_7_15_35_240\Weave:=weave1,z50,tWeldgun;
    ArcL [[480.882,1176.051,-150.6],[1,0,0,0],[0,0,0,0],[9E9,9E9,9E9,9E9,9E9,9E9]],v10,seam1,Ni36_2_7_15_35_240\Weave:=weave1,z50,tWeldgun;
    ArcL [[479.652,1175.561,-150.6],[1,0,0,0],[0,0,0,0],[9E9,9E9,9E9,9E9,9E9,9E9]],v10,seam1,Ni36_2_7_15_35_240\Weave:=weave1,z50,tWeldgun;
    ArcL [[478.468,1175.144,-150.6],[1,0,0,0],[0,0,0,0],[9E9,9E9,9E9,9E9,9E9,9E9]],v10,seam1,Ni36_2_7_15_35_240\Weave:=weave1,z50,tWeldgun;
    ArcL [[477.445,1174.82,-150.6],[1,0,0,0],[0,0,0,0],[9E9,9E9,9E9,9E9,9E9,9E9]],v10,seam1,Ni36_2_7_15_35_240\Weave:=weave1,z50,tWeldgun;
    ArcL [[476.231,1174.484,-150.6],[1,0,0,0],[0,0,0,0],[9E9,9E9,9E9,9E9,9E9,9E9]],v10,seam1,Ni36_2_7_15_35_240\Weave:=weave1,z50,tWeldgun;
    ArcL [[475.016,1174.197,-150.6],[1,0,0,0],[0,0,0,0],[9E9,9E9,9E9,9E9,9E9,9E9]],v10,seam1,Ni36_2_7_15_35_240\Weave:=weave1,z50,tWeldgun;
    ArcL [[473.802,1173.955,-150.6],[1,0,0,0],[0,0,0,0],[9E9,9E9,9E9,9E9,9E9,9E9]],v10,seam1,Ni36_2_7_15_35_240\Weave:=weave1,z50,tWeldgun;
    ArcL [[472.495,1173.745,-150.6],[1,0,0,0],[0,0,0,0],[9E9,9E9,9E9,9E9,9E9,9E9]],v10,seam1,Ni36_2_7_15_35_240\Weave:=weave1,z50,tWeldgun;
    ArcL [[471.189,1173.585,-150.6],[1,0,0,0],[0,0,0,0],[9E9,9E9,9E9,9E9,9E9,9E9]],v10,seam1,Ni36_2_7_15_35_240\Weave:=weave1,z50,tWeldgun;
    ArcL [[469.882,1173.472,-150.6],[1,0,0,0],[0,0,0,0],[9E9,9E9,9E9,9E9,9E9,9E9]],v10,seam1,Ni36_2_7_15_35_240\Weave:=weave1,z50,tWeldgun;
    ArcL [[468.576,1173.407,-150.6],[1,0,0,0],[0,0,0,0],[9E9,9E9,9E9,9E9,9E9,9E9]],v10,seam1,Ni36_2_7_15_35_240\Weave:=weave1,z50,tWeldgun;
    ArcL [[467.21,1173.388,-150.6],[1,0,0,0],[0,0,0,0],[9E9,9E9,9E9,9E9,9E9,9E9]],v10,seam1,Ni36_2_7_15_35_240\Weave:=weave1,z50,tWeldgun;
    ArcL [[465.844,1173.42,-150.6],[1,0,0,0],[0,0,0,0],[9E9,9E9,9E9,9E9,9E9,9E9]],v10,seam1,Ni36_2_7_15_35_240\Weave:=weave1,z50,tWeldgun;
    ArcL [[464.479,1173.501,-150.6],[1,0,0,0],[0,0,0,0],[9E9,9E9,9E9,9E9,9E9,9E9]],v10,seam1,Ni36_2_7_15_35_240\Weave:=weave1,z50,tWeldgun;
    ArcL [[463.113,1173.634,-150.6],[1,0,0,0],[0,0,0,0],[9E9,9E9,9E9,9E9,9E9,9E9]],v10,seam1,Ni36_2_7_15_35_240\Weave:=weave1,z50,tWeldgun;
    ArcL [[461.744,1173.818,-150.6],[1,0,0,0],[0,0,0,0],[9E9,9E9,9E9,9E9,9E9,9E9]],v10,seam1,Ni36_2_7_15_35_240\Weave:=weave1,z50,tWeldgun;
    ArcL [[460.375,1174.055,-150.6],[1,0,0,0],[0,0,0,0],[9E9,9E9,9E9,9E9,9E9,9E9]],v10,seam1,Ni36_2_7_15_35_240\Weave:=weave1,z50,tWeldgun;
    ArcL [[459.006,1174.345,-150.6],[1,0,0,0],[0,0,0,0],[9E9,9E9,9E9,9E9,9E9,9E9]],v10,seam1,Ni36_2_7_15_35_240\Weave:=weave1,z50,tWeldgun;
    ArcL [[457.637,1174.691,-150.6],[1,0,0,0],[0,0,0,0],[9E9,9E9,9E9,9E9,9E9,9E9]],v10,seam1,Ni36_2_7_15_35_240\Weave:=weave1,z50,tWeldgun;
    ArcL [[456.311,1175.08,-150.6],[1,0,0,0],[0,0,0,0],[9E9,9E9,9E9,9E9,9E9,9E9]],v10,seam1,Ni36_2_7_15_35_240\Weave:=weave1,z50,tWeldgun;
    ArcL [[454.985,1175.523,-150.6],[1,0,0,0],[0,0,0,0],[9E9,9E9,9E9,9E9,9E9,9E9]],v10,seam1,Ni36_2_7_15_35_240\Weave:=weave1,z50,tWeldgun;
    ArcL [[453.66,1176.022,-150.6],[1,0,0,0],[0,0,0,0],[9E9,9E9,9E9,9E9,9E9,9E9]],v10,seam1,Ni36_2_7_15_35_240\Weave:=weave1,z50,tWeldgun;
    ArcL [[452.334,1176.579,-150.6],[1,0,0,0],[0,0,0,0],[9E9,9E9,9E9,9E9,9E9,9E9]],v10,seam1,Ni36_2_7_15_35_240\Weave:=weave1,z50,tWeldgun;
    ArcL [[451.074,1177.163,-150.6],[1,0,0,0],[0,0,0,0],[9E9,9E9,9E9,9E9,9E9,9E9]],v10,seam1,Ni36_2_7_15_35_240\Weave:=weave1,z50,tWeldgun;
    ArcL [[449.815,1177.803,-150.6],[1,0,0,0],[0,0,0,0],[9E9,9E9,9E9,9E9,9E9,9E9]],v10,seam1,Ni36_2_7_15_35_240\Weave:=weave1,z50,tWeldgun;
    ArcL [[448.555,1178.5,-150.6],[1,0,0,0],[0,0,0,0],[9E9,9E9,9E9,9E9,9E9,9E9]],v10,seam1,Ni36_2_7_15_35_240\Weave:=weave1,z50,tWeldgun;
    ArcL [[447.296,1179.255,-150.6],[1,0,0,0],[0,0,0,0],[9E9,9E9,9E9,9E9,9E9,9E9]],v10,seam1,Ni36_2_7_15_35_240\Weave:=weave1,z50,tWeldgun;
    ArcL [[446.111,1180.022,-150.6],[1,0,0,0],[0,0,0,0],[9E9,9E9,9E9,9E9,9E9,9E9]],v10,seam1,Ni36_2_7_15_35_240\Weave:=weave1,z50,tWeldgun;
    ArcL [[444.927,1180.845,-150.6],[1,0,0,0],[0,0,0,0],[9E9,9E9,9E9,9E9,9E9,9E9]],v10,seam1,Ni36_2_7_15_35_240\Weave:=weave1,z50,tWeldgun;
    ArcL [[443.742,1181.726,-150.6],[1,0,0,0],[0,0,0,0],[9E9,9E9,9E9,9E9,9E9,9E9]],v10,seam1,Ni36_2_7_15_35_240\Weave:=weave1,z50,tWeldgun;
    ArcL [[442.557,1182.667,-150.6],[1,0,0,0],[0,0,0,0],[9E9,9E9,9E9,9E9,9E9,9E9]],v10,seam1,Ni36_2_7_15_35_240\Weave:=weave1,z50,tWeldgun;
    ArcL [[441.448,1183.605,-150.6],[1,0,0,0],[0,0,0,0],[9E9,9E9,9E9,9E9,9E9,9E9]],v10,seam1,Ni36_2_7_15_35_240\Weave:=weave1,z50,tWeldgun;
    ArcL [[440.34,1184.6,-150.6],[1,0,0,0],[0,0,0,0],[9E9,9E9,9E9,9E9,9E9,9E9]],v10,seam1,Ni36_2_7_15_35_240\Weave:=weave1,z50,tWeldgun;
    ArcL [[439.231,1185.655,-150.6],[1,0,0,0],[0,0,0,0],[9E9,9E9,9E9,9E9,9E9,9E9]],v10,seam1,Ni36_2_7_15_35_240\Weave:=weave1,z50,tWeldgun;
    ArcL [[438.122,1186.772,-150.6],[1,0,0,0],[0,0,0,0],[9E9,9E9,9E9,9E9,9E9,9E9]],v10,seam1,Ni36_2_7_15_35_240\Weave:=weave1,z50,tWeldgun;
    ArcL [[437.013,1185.655,-150.6],[1,0,0,0],[0,0,0,0],[9E9,9E9,9E9,9E9,9E9,9E9]],v10,seam1,Ni36_2_7_15_35_240\Weave:=weave1,z50,tWeldgun;
    ArcL [[435.904,1184.6,-150.6],[1,0,0,0],[0,0,0,0],[9E9,9E9,9E9,9E9,9E9,9E9]],v10,seam1,Ni36_2_7_15_35_240\Weave:=weave1,z50,tWeldgun;
    ArcL [[434.795,1183.605,-150.6],[1,0,0,0],[0,0,0,0],[9E9,9E9,9E9,9E9,9E9,9E9]],v10,seam1,Ni36_2_7_15_35_240\Weave:=weave1,z50,tWeldgun;
    ArcL [[433.686,1182.667,-150.6],[1,0,0,0],[0,0,0,0],[9E9,9E9,9E9,9E9,9E9,9E9]],v10,seam1,Ni36_2_7_15_35_240\Weave:=weave1,z50,tWeldgun;
    ArcL [[432.502,1181.726,-150.6],[1,0,0,0],[0,0,0,0],[9E9,9E9,9E9,9E9,9E9,9E9]],v10,seam1,Ni36_2_7_15_35_240\Weave:=weave1,z50,tWeldgun;
    ArcL [[431.317,1180.845,-150.6],[1,0,0,0],[0,0,0,0],[9E9,9E9,9E9,9E9,9E9,9E9]],v10,seam1,Ni36_2_7_15_35_240\Weave:=weave1,z50,tWeldgun;
    ArcL [[430.132,1180.022,-150.6],[1,0,0,0],[0,0,0,0],[9E9,9E9,9E9,9E9,9E9,9E9]],v10,seam1,Ni36_2_7_15_35_240\Weave:=weave1,z50,tWeldgun;
    ArcL [[428.948,1179.255,-150.6],[1,0,0,0],[0,0,0,0],[9E9,9E9,9E9,9E9,9E9,9E9]],v10,seam1,Ni36_2_7_15_35_240\Weave:=weave1,z50,tWeldgun;
    ArcL [[427.688,1178.5,-150.6],[1,0,0,0],[0,0,0,0],[9E9,9E9,9E9,9E9,9E9,9E9]],v10,seam1,Ni36_2_7_15_35_240\Weave:=weave1,z50,tWeldgun;
    ArcL [[426.429,1177.803,-150.6],[1,0,0,0],[0,0,0,0],[9E9,9E9,9E9,9E9,9E9,9E9]],v10,seam1,Ni36_2_7_15_35_240\Weave:=weave1,z50,tWeldgun;
    ArcL [[425.169,1177.163,-150.6],[1,0,0,0],[0,0,0,0],[9E9,9E9,9E9,9E9,9E9,9E9]],v10,seam1,Ni36_2_7_15_35_240\Weave:=weave1,z50,tWeldgun;
    ArcL [[423.91,1176.579,-150.6],[1,0,0,0],[0,0,0,0],[9E9,9E9,9E9,9E9,9E9,9E9]],v10,seam1,Ni36_2_7_15_35_240\Weave:=weave1,z50,tWeldgun;
    ArcL [[422.584,1176.022,-150.6],[1,0,0,0],[0,0,0,0],[9E9,9E9,9E9,9E9,9E9,9E9]],v10,seam1,Ni36_2_7_15_35_240\Weave:=weave1,z50,tWeldgun;
    ArcL [[421.258,1175.523,-150.6],[1,0,0,0],[0,0,0,0],[9E9,9E9,9E9,9E9,9E9,9E9]],v10,seam1,Ni36_2_7_15_35_240\Weave:=weave1,z50,tWeldgun;
    ArcL [[419.932,1175.08,-150.6],[1,0,0,0],[0,0,0,0],[9E9,9E9,9E9,9E9,9E9,9E9]],v10,seam1,Ni36_2_7_15_35_240\Weave:=weave1,z50,tWeldgun;
    ArcL [[418.606,1174.691,-150.6],[1,0,0,0],[0,0,0,0],[9E9,9E9,9E9,9E9,9E9,9E9]],v10,seam1,Ni36_2_7_15_35_240\Weave:=weave1,z50,tWeldgun;
    ArcL [[417.237,1174.345,-150.6],[1,0,0,0],[0,0,0,0],[9E9,9E9,9E9,9E9,9E9,9E9]],v10,seam1,Ni36_2_7_15_35_240\Weave:=weave1,z50,tWeldgun;
    ArcL [[415.869,1174.055,-150.6],[1,0,0,0],[0,0,0,0],[9E9,9E9,9E9,9E9,9E9,9E9]],v10,seam1,Ni36_2_7_15_35_240\Weave:=weave1,z50,tWeldgun;
    ArcL [[414.5,1173.818,-150.6],[1,0,0,0],[0,0,0,0],[9E9,9E9,9E9,9E9,9E9,9E9]],v10,seam1,Ni36_2_7_15_35_240\Weave:=weave1,z50,tWeldgun;
    ArcL [[413.131,1173.634,-150.6],[1,0,0,0],[0,0,0,0],[9E9,9E9,9E9,9E9,9E9,9E9]],v10,seam1,Ni36_2_7_15_35_240\Weave:=weave1,z50,tWeldgun;
    ArcL [[411.765,1173.501,-150.6],[1,0,0,0],[0,0,0,0],[9E9,9E9,9E9,9E9,9E9,9E9]],v10,seam1,Ni36_2_7_15_35_240\Weave:=weave1,z50,tWeldgun;
    ArcL [[410.399,1173.42,-150.6],[1,0,0,0],[0,0,0,0],[9E9,9E9,9E9,9E9,9E9,9E9]],v10,seam1,Ni36_2_7_15_35_240\Weave:=weave1,z50,tWeldgun;
    ArcL [[409.033,1173.388,-150.6],[1,0,0,0],[0,0,0,0],[9E9,9E9,9E9,9E9,9E9,9E9]],v10,seam1,Ni36_2_7_15_35_240\Weave:=weave1,z50,tWeldgun;
    ArcL [[407.668,1173.407,-150.6],[1,0,0,0],[0,0,0,0],[9E9,9E9,9E9,9E9,9E9,9E9]],v10,seam1,Ni36_2_7_15_35_240\Weave:=weave1,z50,tWeldgun;
    ArcL [[406.361,1173.472,-150.6],[1,0,0,0],[0,0,0,0],[9E9,9E9,9E9,9E9,9E9,9E9]],v10,seam1,Ni36_2_7_15_35_240\Weave:=weave1,z50,tWeldgun;
    ArcL [[405.055,1173.585,-150.6],[1,0,0,0],[0,0,0,0],[9E9,9E9,9E9,9E9,9E9,9E9]],v10,seam1,Ni36_2_7_15_35_240\Weave:=weave1,z50,tWeldgun;
    ArcL [[403.748,1173.745,-150.6],[1,0,0,0],[0,0,0,0],[9E9,9E9,9E9,9E9,9E9,9E9]],v10,seam1,Ni36_2_7_15_35_240\Weave:=weave1,z50,tWeldgun;
    ArcL [[402.442,1173.955,-150.6],[1,0,0,0],[0,0,0,0],[9E9,9E9,9E9,9E9,9E9,9E9]],v10,seam1,Ni36_2_7_15_35_240\Weave:=weave1,z50,tWeldgun;
    ArcL [[401.227,1174.197,-150.6],[1,0,0,0],[0,0,0,0],[9E9,9E9,9E9,9E9,9E9,9E9]],v10,seam1,Ni36_2_7_15_35_240\Weave:=weave1,z50,tWeldgun;
    ArcL [[400.013,1174.484,-150.6],[1,0,0,0],[0,0,0,0],[9E9,9E9,9E9,9E9,9E9,9E9]],v10,seam1,Ni36_2_7_15_35_240\Weave:=weave1,z50,tWeldgun;
    ArcL [[398.798,1174.82,-150.6],[1,0,0,0],[0,0,0,0],[9E9,9E9,9E9,9E9,9E9,9E9]],v10,seam1,Ni36_2_7_15_35_240\Weave:=weave1,z50,tWeldgun;
    ArcL [[397.584,1175.206,-150.6],[1,0,0,0],[0,0,0,0],[9E9,9E9,9E9,9E9,9E9,9E9]],v10,seam1,Ni36_2_7_15_35_240\Weave:=weave1,z50,tWeldgun;
    ArcL [[396.354,1175.651,-150.6],[1,0,0,0],[0,0,0,0],[9E9,9E9,9E9,9E9,9E9,9E9]],v10,seam1,Ni36_2_7_15_35_240\Weave:=weave1,z50,tWeldgun;
    ArcL [[395.245,1176.101,-150.6],[1,0,0,0],[0,0,0,0],[9E9,9E9,9E9,9E9,9E9,9E9]],v10,seam1,Ni36_2_7_15_35_240\Weave:=weave1,z50,tWeldgun;
    ArcL [[394.251,1176.546,-150.6],[1,0,0,0],[0,0,0,0],[9E9,9E9,9E9,9E9,9E9,9E9]],v10,seam1,Ni36_2_7_15_35_240\Weave:=weave1,z50,tWeldgun;
    ArcL [[393.086,1177.122,-150.6],[1,0,0,0],[0,0,0,0],[9E9,9E9,9E9,9E9,9E9,9E9]],v10,seam1,Ni36_2_7_15_35_240\Weave:=weave1,z50,tWeldgun;
    ArcL [[392.109,1177.652,-150.6],[1,0,0,0],[0,0,0,0],[9E9,9E9,9E9,9E9,9E9,9E9]],v10,seam1,Ni36_2_7_15_35_240\Weave:=weave1,z50,tWeldgun;
    ArcL [[391.021,1178.297,-150.6],[1,0,0,0],[0,0,0,0],[9E9,9E9,9E9,9E9,9E9,9E9]],v10,seam1,Ni36_2_7_15_35_240\Weave:=weave1,z50,tWeldgun;
    ArcL [[390.018,1178.946,-150.6],[1,0,0,0],[0,0,0,0],[9E9,9E9,9E9,9E9,9E9,9E9]],v10,seam1,Ni36_2_7_15_35_240\Weave:=weave1,z50,tWeldgun;
    ArcL [[389.116,1179.577,-150.6],[1,0,0,0],[0,0,0,0],[9E9,9E9,9E9,9E9,9E9,9E9]],v10,seam1,Ni36_2_7_15_35_240\Weave:=weave1,z50,tWeldgun;
    ! Lead Out Move Starts
    ArcL [[388.826,1179.78,-150.454],[1,0,0,0],[0,0,0,0],[9E9,9E9,9E9,9E9,9E9,9E9]],v10,seam1,Ni36_2_7_15_35_240\Weave:=weave1,z50,tWeldgun;
    ! Welding Move Ends (Arc is about to be stopped)
    ArcLEnd [[388.826,1179.78,-150.454],[1,0,0,0],[0,0,0,0],[9E9,9E9,9E9,9E9,9E9,9E9]],v10,seam1,Ni36_2_7_15_35_240\Weave:=weave1,z50,tWeldgun;
    WaitTime 180;
    MoveL [[388.706,1179.864,-150.1],[1,0,0,0],[0,0,0,0],[9E9,9E9,9E9,9E9,9E9,9E9]],v10,z50,tWeldgun;
    ! Rapid Move Starts
    MoveL [[388.706,1179.864,-120.12],[1,0,0,0],[0,0,0,0],[9E9,9E9,9E9,9E9,9E9,9E9]],v20,z50,tWeldgun;
    MoveL [[437.622,1082.359,-120.12],[1,0,0,0],[0,0,0,0],[9E9,9E9,9E9,9E9,9E9,9E9]],v20,z50,tWeldgun;
    MoveL [[437.622,1082.359,-145.884],[1,0,0,0],[0,0,0,0],[9E9,9E9,9E9,9E9,9E9,9E9]],v20,z50,tWeldgun;
    ! Plunge Move Starts
    MoveL [[437.622,1082.359,-147.916],[1,0,0,0],[0,0,0,0],[9E9,9E9,9E9,9E9,9E9,9E9]],v5,z50,tWeldgun;
    ! Lead In Move Starts
    MoveL [[437.768,1082.359,-148.269],[1,0,0,0],[0,0,0,0],[9E9,9E9,9E9,9E9,9E9,9E9]],v10,z50,tWeldgun;
    MoveL [[438.122,1082.359,-148.416],[1,0,0,0],[0,0,0,0],[9E9,9E9,9E9,9E9,9E9,9E9]],v10,z50,tWeldgun;
    ! Depositing Move Starts
    ! Welding Move Starts (Arc is about to be established)
    ArcLStart [[438.122,1082.359,-148.416],[1,0,0,0],[0,0,0,0],[9E9,9E9,9E9,9E9,9E9,9E9]],v10,seam1,Ni36_2_7_15_35_240\Weave:=weave1,fine,tWeldgun;
    ! Lead Out Move Starts
    ArcL [[438.475,1082.359,-148.269],[1,0,0,0],[0,0,0,0],[9E9,9E9,9E9,9E9,9E9,9E9]],v10,seam1,Ni36_2_7_15_35_240\Weave:=weave1,z50,tWeldgun;
    ! Welding Move Ends (Arc is about to be stopped)
    ArcLEnd [[438.475,1082.359,-148.269],[1,0,0,0],[0,0,0,0],[9E9,9E9,9E9,9E9,9E9,9E9]],v10,seam1,Ni36_2_7_15_35_240\Weave:=weave1,z50,tWeldgun;
    WaitTime 180;
    MoveL [[438.622,1082.359,-147.916],[1,0,0,0],[0,0,0,0],[9E9,9E9,9E9,9E9,9E9,9E9]],v10,z50,tWeldgun;
    ! Rapid Move Starts
    MoveL [[438.622,1082.359,-120.12],[1,0,0,0],[0,0,0,0],[9E9,9E9,9E9,9E9,9E9,9E9]],v20,z50,tWeldgun;
    MoveL [[423.598,1089.61,-120.12],[1,0,0,0],[0,0,0,0],[9E9,9E9,9E9,9E9,9E9,9E9]],v20,z50,tWeldgun;
    MoveL [[423.598,1089.61,-145.884],[1,0,0,0],[0,0,0,0],[9E9,9E9,9E9,9E9,9E9,9E9]],v20,z50,tWeldgun;
    ! Plunge Move Starts
    MoveL [[423.598,1089.61,-147.916],[1,0,0,0],[0,0,0,0],[9E9,9E9,9E9,9E9,9E9,9E9]],v5,z50,tWeldgun;
    ! Lead In Move Starts
    MoveL [[423.744,1089.61,-148.269],[1,0,0,0],[0,0,0,0],[9E9,9E9,9E9,9E9,9E9,9E9]],v10,z50,tWeldgun;
    MoveL [[424.098,1089.61,-148.416],[1,0,0,0],[0,0,0,0],[9E9,9E9,9E9,9E9,9E9,9E9]],v10,z50,tWeldgun;
    ! Depositing Move Starts
    ! Welding Move Starts (Arc is about to be established)
    ArcLStart [[452.146,1089.61,-148.416],[1,0,0,0],[0,0,0,0],[9E9,9E9,9E9,9E9,9E9,9E9]],v10,seam1,Ni36_2_7_15_35_240\Weave:=weave1,fine,tWeldgun;
    ! Lead Out Move Starts
    ArcL [[452.499,1089.61,-148.269],[1,0,0,0],[0,0,0,0],[9E9,9E9,9E9,9E9,9E9,9E9]],v10,seam1,Ni36_2_7_15_35_240\Weave:=weave1,z50,tWeldgun;
    ! Welding Move Ends (Arc is about to be stopped)
    ArcLEnd [[452.499,1089.61,-148.269],[1,0,0,0],[0,0,0,0],[9E9,9E9,9E9,9E9,9E9,9E9]],v10,seam1,Ni36_2_7_15_35_240\Weave:=weave1,z50,tWeldgun;
    WaitTime 180;
    MoveL [[452.646,1089.61,-147.916],[1,0,0,0],[0,0,0,0],[9E9,9E9,9E9,9E9,9E9,9E9]],v10,z50,tWeldgun;
    ! Rapid Move Starts
    MoveL [[452.646,1089.61,-120.12],[1,0,0,0],[0,0,0,0],[9E9,9E9,9E9,9E9,9E9,9E9]],v20,z50,tWeldgun;
    MoveL [[414.379,1096.861,-120.12],[1,0,0,0],[0,0,0,0],[9E9,9E9,9E9,9E9,9E9,9E9]],v20,z50,tWeldgun;
    MoveL [[414.379,1096.861,-145.884],[1,0,0,0],[0,0,0,0],[9E9,9E9,9E9,9E9,9E9,9E9]],v20,z50,tWeldgun;
    ! Plunge Move Starts
    MoveL [[414.379,1096.861,-147.916],[1,0,0,0],[0,0,0,0],[9E9,9E9,9E9,9E9,9E9,9E9]],v5,z50,tWeldgun;
    ! Lead In Move Starts
    MoveL [[414.525,1096.861,-148.269],[1,0,0,0],[0,0,0,0],[9E9,9E9,9E9,9E9,9E9,9E9]],v10,z50,tWeldgun;
    MoveL [[414.879,1096.861,-148.416],[1,0,0,0],[0,0,0,0],[9E9,9E9,9E9,9E9,9E9,9E9]],v10,z50,tWeldgun;
    ! Depositing Move Starts
    ! Welding Move Starts (Arc is about to be established)
    ArcLStart [[461.364,1096.861,-148.416],[1,0,0,0],[0,0,0,0],[9E9,9E9,9E9,9E9,9E9,9E9]],v10,seam1,Ni36_2_7_15_35_240\Weave:=weave1,fine,tWeldgun;
    ! Lead Out Move Starts
    ArcL [[461.717,1096.861,-148.269],[1,0,0,0],[0,0,0,0],[9E9,9E9,9E9,9E9,9E9,9E9]],v10,seam1,Ni36_2_7_15_35_240\Weave:=weave1,z50,tWeldgun;
    ! Welding Move Ends (Arc is about to be stopped)
    ArcLEnd [[461.717,1096.861,-148.269],[1,0,0,0],[0,0,0,0],[9E9,9E9,9E9,9E9,9E9,9E9]],v10,seam1,Ni36_2_7_15_35_240\Weave:=weave1,z50,tWeldgun;
    WaitTime 180;
    MoveL [[461.864,1096.861,-147.916],[1,0,0,0],[0,0,0,0],[9E9,9E9,9E9,9E9,9E9,9E9]],v10,z50,tWeldgun;
    ! Rapid Move Starts
    MoveL [[461.864,1096.861,-120.12],[1,0,0,0],[0,0,0,0],[9E9,9E9,9E9,9E9,9E9,9E9]],v20,z50,tWeldgun;
    MoveL [[407.792,1104.112,-120.12],[1,0,0,0],[0,0,0,0],[9E9,9E9,9E9,9E9,9E9,9E9]],v20,z50,tWeldgun;
    MoveL [[407.792,1104.112,-145.884],[1,0,0,0],[0,0,0,0],[9E9,9E9,9E9,9E9,9E9,9E9]],v20,z50,tWeldgun;
    ! Plunge Move Starts
    MoveL [[407.792,1104.112,-147.916],[1,0,0,0],[0,0,0,0],[9E9,9E9,9E9,9E9,9E9,9E9]],v5,z50,tWeldgun;
    ! Lead In Move Starts
    MoveL [[407.939,1104.112,-148.269],[1,0,0,0],[0,0,0,0],[9E9,9E9,9E9,9E9,9E9,9E9]],v10,z50,tWeldgun;
    MoveL [[408.292,1104.112,-148.416],[1,0,0,0],[0,0,0,0],[9E9,9E9,9E9,9E9,9E9,9E9]],v10,z50,tWeldgun;
    ! Depositing Move Starts
    ! Welding Move Starts (Arc is about to be established)
    ArcLStart [[467.951,1104.112,-148.416],[1,0,0,0],[0,0,0,0],[9E9,9E9,9E9,9E9,9E9,9E9]],v10,seam1,Ni36_2_7_15_35_240\Weave:=weave1,fine,tWeldgun;
    ! Lead Out Move Starts
    ArcL [[468.305,1104.112,-148.269],[1,0,0,0],[0,0,0,0],[9E9,9E9,9E9,9E9,9E9,9E9]],v10,seam1,Ni36_2_7_15_35_240\Weave:=weave1,z50,tWeldgun;
    ! Welding Move Ends (Arc is about to be stopped)
    ArcLEnd [[468.305,1104.112,-148.269],[1,0,0,0],[0,0,0,0],[9E9,9E9,9E9,9E9,9E9,9E9]],v10,seam1,Ni36_2_7_15_35_240\Weave:=weave1,z50,tWeldgun;
    WaitTime 180;
    MoveL [[468.451,1104.112,-147.916],[1,0,0,0],[0,0,0,0],[9E9,9E9,9E9,9E9,9E9,9E9]],v10,z50,tWeldgun;
    ! Rapid Move Starts
    MoveL [[468.451,1104.112,-120.12],[1,0,0,0],[0,0,0,0],[9E9,9E9,9E9,9E9,9E9,9E9]],v20,z50,tWeldgun;
    MoveL [[403.191,1111.363,-120.12],[1,0,0,0],[0,0,0,0],[9E9,9E9,9E9,9E9,9E9,9E9]],v20,z50,tWeldgun;
    MoveL [[403.191,1111.363,-145.884],[1,0,0,0],[0,0,0,0],[9E9,9E9,9E9,9E9,9E9,9E9]],v20,z50,tWeldgun;
    ! Plunge Move Starts
    MoveL [[403.191,1111.363,-147.916],[1,0,0,0],[0,0,0,0],[9E9,9E9,9E9,9E9,9E9,9E9]],v5,z50,tWeldgun;
    ! Lead In Move Starts
    MoveL [[403.337,1111.363,-148.269],[1,0,0,0],[0,0,0,0],[9E9,9E9,9E9,9E9,9E9,9E9]],v10,z50,tWeldgun;
    MoveL [[403.691,1111.363,-148.416],[1,0,0,0],[0,0,0,0],[9E9,9E9,9E9,9E9,9E9,9E9]],v10,z50,tWeldgun;
    ! Depositing Move Starts
    ! Welding Move Starts (Arc is about to be established)
    ArcLStart [[472.553,1111.363,-148.416],[1,0,0,0],[0,0,0,0],[9E9,9E9,9E9,9E9,9E9,9E9]],v10,seam1,Ni36_2_7_15_35_240\Weave:=weave1,fine,tWeldgun;
    ! Lead Out Move Starts
    ArcL [[472.907,1111.363,-148.269],[1,0,0,0],[0,0,0,0],[9E9,9E9,9E9,9E9,9E9,9E9]],v10,seam1,Ni36_2_7_15_35_240\Weave:=weave1,z50,tWeldgun;
    ! Welding Move Ends (Arc is about to be stopped)
    ArcLEnd [[472.907,1111.363,-148.269],[1,0,0,0],[0,0,0,0],[9E9,9E9,9E9,9E9,9E9,9E9]],v10,seam1,Ni36_2_7_15_35_240\Weave:=weave1,z50,tWeldgun;
    WaitTime 180;
    MoveL [[473.053,1111.363,-147.916],[1,0,0,0],[0,0,0,0],[9E9,9E9,9E9,9E9,9E9,9E9]],v10,z50,tWeldgun;
    ! Rapid Move Starts
    MoveL [[473.053,1111.363,-120.12],[1,0,0,0],[0,0,0,0],[9E9,9E9,9E9,9E9,9E9,9E9]],v20,z50,tWeldgun;
    MoveL [[399.976,1118.614,-120.12],[1,0,0,0],[0,0,0,0],[9E9,9E9,9E9,9E9,9E9,9E9]],v20,z50,tWeldgun;
    MoveL [[399.976,1118.614,-145.884],[1,0,0,0],[0,0,0,0],[9E9,9E9,9E9,9E9,9E9,9E9]],v20,z50,tWeldgun;
    ! Plunge Move Starts
    MoveL [[399.976,1118.614,-147.916],[1,0,0,0],[0,0,0,0],[9E9,9E9,9E9,9E9,9E9,9E9]],v5,z50,tWeldgun;
    ! Lead In Move Starts
    MoveL [[400.123,1118.614,-148.269],[1,0,0,0],[0,0,0,0],[9E9,9E9,9E9,9E9,9E9,9E9]],v10,z50,tWeldgun;
    MoveL [[400.476,1118.614,-148.416],[1,0,0,0],[0,0,0,0],[9E9,9E9,9E9,9E9,9E9,9E9]],v10,z50,tWeldgun;
    ! Depositing Move Starts
    ! Welding Move Starts (Arc is about to be established)
    ArcLStart [[475.767,1118.614,-148.416],[1,0,0,0],[0,0,0,0],[9E9,9E9,9E9,9E9,9E9,9E9]],v10,seam1,Ni36_2_7_15_35_240\Weave:=weave1,fine,tWeldgun;
    ! Lead Out Move Starts
    ArcL [[476.121,1118.614,-148.269],[1,0,0,0],[0,0,0,0],[9E9,9E9,9E9,9E9,9E9,9E9]],v10,seam1,Ni36_2_7_15_35_240\Weave:=weave1,z50,tWeldgun;
    ! Welding Move Ends (Arc is about to be stopped)
    ArcLEnd [[476.121,1118.614,-148.269],[1,0,0,0],[0,0,0,0],[9E9,9E9,9E9,9E9,9E9,9E9]],v10,seam1,Ni36_2_7_15_35_240\Weave:=weave1,z50,tWeldgun;
    WaitTime 180;
    MoveL [[476.267,1118.614,-147.916],[1,0,0,0],[0,0,0,0],[9E9,9E9,9E9,9E9,9E9,9E9]],v10,z50,tWeldgun;
    ! Rapid Move Starts
    MoveL [[476.267,1118.614,-120.12],[1,0,0,0],[0,0,0,0],[9E9,9E9,9E9,9E9,9E9,9E9]],v20,z50,tWeldgun;
    MoveL [[397.72,1125.865,-120.12],[1,0,0,0],[0,0,0,0],[9E9,9E9,9E9,9E9,9E9,9E9]],v20,z50,tWeldgun;
    MoveL [[397.72,1125.865,-145.884],[1,0,0,0],[0,0,0,0],[9E9,9E9,9E9,9E9,9E9,9E9]],v20,z50,tWeldgun;
    ! Plunge Move Starts
    MoveL [[397.72,1125.865,-147.916],[1,0,0,0],[0,0,0,0],[9E9,9E9,9E9,9E9,9E9,9E9]],v5,z50,tWeldgun;
    ! Lead In Move Starts
    MoveL [[397.866,1125.865,-148.269],[1,0,0,0],[0,0,0,0],[9E9,9E9,9E9,9E9,9E9,9E9]],v10,z50,tWeldgun;
    MoveL [[398.22,1125.865,-148.416],[1,0,0,0],[0,0,0,0],[9E9,9E9,9E9,9E9,9E9,9E9]],v10,z50,tWeldgun;
    ! Depositing Move Starts
    ! Welding Move Starts (Arc is about to be established)
    ArcLStart [[478.024,1125.865,-148.416],[1,0,0,0],[0,0,0,0],[9E9,9E9,9E9,9E9,9E9,9E9]],v10,seam1,Ni36_2_7_15_35_240\Weave:=weave1,fine,tWeldgun;
    ! Lead Out Move Starts
    ArcL [[478.377,1125.865,-148.269],[1,0,0,0],[0,0,0,0],[9E9,9E9,9E9,9E9,9E9,9E9]],v10,seam1,Ni36_2_7_15_35_240\Weave:=weave1,z50,tWeldgun;
    ! Welding Move Ends (Arc is about to be stopped)
    ArcLEnd [[478.377,1125.865,-148.269],[1,0,0,0],[0,0,0,0],[9E9,9E9,9E9,9E9,9E9,9E9]],v10,seam1,Ni36_2_7_15_35_240\Weave:=weave1,z50,tWeldgun;
    WaitTime 180;
    MoveL [[478.524,1125.865,-147.916],[1,0,0,0],[0,0,0,0],[9E9,9E9,9E9,9E9,9E9,9E9]],v10,z50,tWeldgun;
    ! Rapid Move Starts
    MoveL [[478.524,1125.865,-120.12],[1,0,0,0],[0,0,0,0],[9E9,9E9,9E9,9E9,9E9,9E9]],v20,z50,tWeldgun;
    MoveL [[396.159,1133.116,-120.12],[1,0,0,0],[0,0,0,0],[9E9,9E9,9E9,9E9,9E9,9E9]],v20,z50,tWeldgun;
    MoveL [[396.159,1133.116,-145.884],[1,0,0,0],[0,0,0,0],[9E9,9E9,9E9,9E9,9E9,9E9]],v20,z50,tWeldgun;
    ! Plunge Move Starts
    MoveL [[396.159,1133.116,-147.916],[1,0,0,0],[0,0,0,0],[9E9,9E9,9E9,9E9,9E9,9E9]],v5,z50,tWeldgun;
    ! Lead In Move Starts
    MoveL [[396.306,1133.116,-148.269],[1,0,0,0],[0,0,0,0],[9E9,9E9,9E9,9E9,9E9,9E9]],v10,z50,tWeldgun;
    MoveL [[396.659,1133.116,-148.416],[1,0,0,0],[0,0,0,0],[9E9,9E9,9E9,9E9,9E9,9E9]],v10,z50,tWeldgun;
    ! Depositing Move Starts
    ! Welding Move Starts (Arc is about to be established)
    ArcLStart [[479.584,1133.116,-148.416],[1,0,0,0],[0,0,0,0],[9E9,9E9,9E9,9E9,9E9,9E9]],v10,seam1,Ni36_2_7_15_35_240\Weave:=weave1,fine,tWeldgun;
    ! Lead Out Move Starts
    ArcL [[479.938,1133.116,-148.269],[1,0,0,0],[0,0,0,0],[9E9,9E9,9E9,9E9,9E9,9E9]],v10,seam1,Ni36_2_7_15_35_240\Weave:=weave1,z50,tWeldgun;
    ! Welding Move Ends (Arc is about to be stopped)
    ArcLEnd [[479.938,1133.116,-148.269],[1,0,0,0],[0,0,0,0],[9E9,9E9,9E9,9E9,9E9,9E9]],v10,seam1,Ni36_2_7_15_35_240\Weave:=weave1,z50,tWeldgun;
    WaitTime 180;
    MoveL [[480.084,1133.116,-147.916],[1,0,0,0],[0,0,0,0],[9E9,9E9,9E9,9E9,9E9,9E9]],v10,z50,tWeldgun;
    ! Rapid Move Starts
    MoveL [[480.084,1133.116,-120.12],[1,0,0,0],[0,0,0,0],[9E9,9E9,9E9,9E9,9E9,9E9]],v20,z50,tWeldgun;
    MoveL [[395.119,1140.366,-120.12],[1,0,0,0],[0,0,0,0],[9E9,9E9,9E9,9E9,9E9,9E9]],v20,z50,tWeldgun;
    MoveL [[395.119,1140.366,-145.884],[1,0,0,0],[0,0,0,0],[9E9,9E9,9E9,9E9,9E9,9E9]],v20,z50,tWeldgun;
    ! Plunge Move Starts
    MoveL [[395.119,1140.366,-147.916],[1,0,0,0],[0,0,0,0],[9E9,9E9,9E9,9E9,9E9,9E9]],v5,z50,tWeldgun;
    ! Lead In Move Starts
    MoveL [[395.265,1140.366,-148.269],[1,0,0,0],[0,0,0,0],[9E9,9E9,9E9,9E9,9E9,9E9]],v10,z50,tWeldgun;
    MoveL [[395.619,1140.366,-148.416],[1,0,0,0],[0,0,0,0],[9E9,9E9,9E9,9E9,9E9,9E9]],v10,z50,tWeldgun;
    ! Depositing Move Starts
    ! Welding Move Starts (Arc is about to be established)
    ArcLStart [[480.625,1140.366,-148.416],[1,0,0,0],[0,0,0,0],[9E9,9E9,9E9,9E9,9E9,9E9]],v10,seam1,Ni36_2_7_15_35_240\Weave:=weave1,fine,tWeldgun;
    ! Lead Out Move Starts
    ArcL [[480.978,1140.366,-148.269],[1,0,0,0],[0,0,0,0],[9E9,9E9,9E9,9E9,9E9,9E9]],v10,seam1,Ni36_2_7_15_35_240\Weave:=weave1,z50,tWeldgun;
    ! Welding Move Ends (Arc is about to be stopped)
    ArcLEnd [[480.978,1140.366,-148.269],[1,0,0,0],[0,0,0,0],[9E9,9E9,9E9,9E9,9E9,9E9]],v10,seam1,Ni36_2_7_15_35_240\Weave:=weave1,z50,tWeldgun;
    WaitTime 180;
    MoveL [[481.125,1140.366,-147.916],[1,0,0,0],[0,0,0,0],[9E9,9E9,9E9,9E9,9E9,9E9]],v10,z50,tWeldgun;
    ! Rapid Move Starts
    MoveL [[481.125,1140.366,-120.12],[1,0,0,0],[0,0,0,0],[9E9,9E9,9E9,9E9,9E9,9E9]],v20,z50,tWeldgun;
    MoveL [[394.493,1147.617,-120.12],[1,0,0,0],[0,0,0,0],[9E9,9E9,9E9,9E9,9E9,9E9]],v20,z50,tWeldgun;
    MoveL [[394.493,1147.617,-145.884],[1,0,0,0],[0,0,0,0],[9E9,9E9,9E9,9E9,9E9,9E9]],v20,z50,tWeldgun;
    ! Plunge Move Starts
    MoveL [[394.493,1147.617,-147.916],[1,0,0,0],[0,0,0,0],[9E9,9E9,9E9,9E9,9E9,9E9]],v5,z50,tWeldgun;
    ! Lead In Move Starts
    MoveL [[394.639,1147.617,-148.269],[1,0,0,0],[0,0,0,0],[9E9,9E9,9E9,9E9,9E9,9E9]],v10,z50,tWeldgun;
    MoveL [[394.993,1147.617,-148.416],[1,0,0,0],[0,0,0,0],[9E9,9E9,9E9,9E9,9E9,9E9]],v10,z50,tWeldgun;
    ! Depositing Move Starts
    ! Welding Move Starts (Arc is about to be established)
    ArcLStart [[481.251,1147.617,-148.416],[1,0,0,0],[0,0,0,0],[9E9,9E9,9E9,9E9,9E9,9E9]],v10,seam1,Ni36_2_7_15_35_240\Weave:=weave1,fine,tWeldgun;
    ! Lead Out Move Starts
    ArcL [[481.605,1147.617,-148.269],[1,0,0,0],[0,0,0,0],[9E9,9E9,9E9,9E9,9E9,9E9]],v10,seam1,Ni36_2_7_15_35_240\Weave:=weave1,z50,tWeldgun;
    ! Welding Move Ends (Arc is about to be stopped)
    ArcLEnd [[481.605,1147.617,-148.269],[1,0,0,0],[0,0,0,0],[9E9,9E9,9E9,9E9,9E9,9E9]],v10,seam1,Ni36_2_7_15_35_240\Weave:=weave1,z50,tWeldgun;
    WaitTime 180;
    MoveL [[481.751,1147.617,-147.916],[1,0,0,0],[0,0,0,0],[9E9,9E9,9E9,9E9,9E9,9E9]],v10,z50,tWeldgun;
    ! Rapid Move Starts
    MoveL [[481.751,1147.617,-120.12],[1,0,0,0],[0,0,0,0],[9E9,9E9,9E9,9E9,9E9,9E9]],v20,z50,tWeldgun;
    MoveL [[394.227,1154.868,-120.12],[1,0,0,0],[0,0,0,0],[9E9,9E9,9E9,9E9,9E9,9E9]],v20,z50,tWeldgun;
    MoveL [[394.227,1154.868,-145.884],[1,0,0,0],[0,0,0,0],[9E9,9E9,9E9,9E9,9E9,9E9]],v20,z50,tWeldgun;
    ! Plunge Move Starts
    MoveL [[394.227,1154.868,-147.916],[1,0,0,0],[0,0,0,0],[9E9,9E9,9E9,9E9,9E9,9E9]],v5,z50,tWeldgun;
    ! Lead In Move Starts
    MoveL [[394.374,1154.868,-148.269],[1,0,0,0],[0,0,0,0],[9E9,9E9,9E9,9E9,9E9,9E9]],v10,z50,tWeldgun;
    MoveL [[394.727,1154.868,-148.416],[1,0,0,0],[0,0,0,0],[9E9,9E9,9E9,9E9,9E9,9E9]],v10,z50,tWeldgun;
    ! Depositing Move Starts
    ! Welding Move Starts (Arc is about to be established)
    ArcLStart [[481.515,1154.868,-148.416],[1,0,0,0],[0,0,0,0],[9E9,9E9,9E9,9E9,9E9,9E9]],v10,seam1,Ni36_2_7_15_35_240\Weave:=weave1,fine,tWeldgun;
    ! Lead Out Move Starts
    ArcL [[481.869,1154.868,-148.269],[1,0,0,0],[0,0,0,0],[9E9,9E9,9E9,9E9,9E9,9E9]],v10,seam1,Ni36_2_7_15_35_240\Weave:=weave1,z50,tWeldgun;
    ! Welding Move Ends (Arc is about to be stopped)
    ArcLEnd [[481.869,1154.868,-148.269],[1,0,0,0],[0,0,0,0],[9E9,9E9,9E9,9E9,9E9,9E9]],v10,seam1,Ni36_2_7_15_35_240\Weave:=weave1,z50,tWeldgun;
    WaitTime 180;
    MoveL [[482.015,1154.868,-147.916],[1,0,0,0],[0,0,0,0],[9E9,9E9,9E9,9E9,9E9,9E9]],v10,z50,tWeldgun;
    ! Rapid Move Starts
    MoveL [[482.015,1154.868,-120.12],[1,0,0,0],[0,0,0,0],[9E9,9E9,9E9,9E9,9E9,9E9]],v20,z50,tWeldgun;
    MoveL [[394.301,1162.119,-120.12],[1,0,0,0],[0,0,0,0],[9E9,9E9,9E9,9E9,9E9,9E9]],v20,z50,tWeldgun;
    MoveL [[394.301,1162.119,-145.884],[1,0,0,0],[0,0,0,0],[9E9,9E9,9E9,9E9,9E9,9E9]],v20,z50,tWeldgun;
    ! Plunge Move Starts
    MoveL [[394.301,1162.119,-147.916],[1,0,0,0],[0,0,0,0],[9E9,9E9,9E9,9E9,9E9,9E9]],v5,z50,tWeldgun;
    ! Lead In Move Starts
    MoveL [[394.447,1162.119,-148.269],[1,0,0,0],[0,0,0,0],[9E9,9E9,9E9,9E9,9E9,9E9]],v10,z50,tWeldgun;
    MoveL [[394.801,1162.119,-148.416],[1,0,0,0],[0,0,0,0],[9E9,9E9,9E9,9E9,9E9,9E9]],v10,z50,tWeldgun;
    ! Depositing Move Starts
    ! Welding Move Starts (Arc is about to be established)
    ArcLStart [[481.443,1162.119,-148.416],[1,0,0,0],[0,0,0,0],[9E9,9E9,9E9,9E9,9E9,9E9]],v10,seam1,Ni36_2_7_15_35_240\Weave:=weave1,fine,tWeldgun;
    ! Lead Out Move Starts
    ArcL [[481.796,1162.119,-148.269],[1,0,0,0],[0,0,0,0],[9E9,9E9,9E9,9E9,9E9,9E9]],v10,seam1,Ni36_2_7_15_35_240\Weave:=weave1,z50,tWeldgun;
    ! Welding Move Ends (Arc is about to be stopped)
    ArcLEnd [[481.796,1162.119,-148.269],[1,0,0,0],[0,0,0,0],[9E9,9E9,9E9,9E9,9E9,9E9]],v10,seam1,Ni36_2_7_15_35_240\Weave:=weave1,z50,tWeldgun;
    WaitTime 180;
    MoveL [[481.943,1162.119,-147.916],[1,0,0,0],[0,0,0,0],[9E9,9E9,9E9,9E9,9E9,9E9]],v10,z50,tWeldgun;
    ! Rapid Move Starts
    MoveL [[481.943,1162.119,-120.12],[1,0,0,0],[0,0,0,0],[9E9,9E9,9E9,9E9,9E9,9E9]],v20,z50,tWeldgun;
    MoveL [[425.595,1169.37,-120.12],[1,0,0,0],[0,0,0,0],[9E9,9E9,9E9,9E9,9E9,9E9]],v20,z50,tWeldgun;
    MoveL [[425.595,1169.37,-145.884],[1,0,0,0],[0,0,0,0],[9E9,9E9,9E9,9E9,9E9,9E9]],v20,z50,tWeldgun;
    ! Plunge Move Starts
    MoveL [[425.595,1169.37,-147.916],[1,0,0,0],[0,0,0,0],[9E9,9E9,9E9,9E9,9E9,9E9]],v5,z50,tWeldgun;
    ! Lead In Move Starts
    MoveL [[425.742,1169.37,-148.269],[1,0,0,0],[0,0,0,0],[9E9,9E9,9E9,9E9,9E9,9E9]],v10,z50,tWeldgun;
    MoveL [[426.095,1169.37,-148.416],[1,0,0,0],[0,0,0,0],[9E9,9E9,9E9,9E9,9E9,9E9]],v10,z50,tWeldgun;
    ! Depositing Move Starts
    ! Welding Move Starts (Arc is about to be established)
    ArcLStart [[450.148,1169.37,-148.416],[1,0,0,0],[0,0,0,0],[9E9,9E9,9E9,9E9,9E9,9E9]],v10,seam1,Ni36_2_7_15_35_240\Weave:=weave1,fine,tWeldgun;
    ! Link Move Starts
    ArcL [[450.778,1169.606,-148.416],[1,0,0,0],[0,0,0,0],[9E9,9E9,9E9,9E9,9E9,9E9]],v10,seam1,Ni36_2_7_15_35_240\Weave:=weave1,z50,tWeldgun;
    ! Welding Move Ends (Arc is about to be stopped)
    ArcLEnd [[450.778,1169.606,-148.416],[1,0,0,0],[0,0,0,0],[9E9,9E9,9E9,9E9,9E9,9E9]],v10,seam1,Ni36_2_7_15_35_240\Weave:=weave1,z50,tWeldgun;
    WaitTime 180;
    MoveL [[451.098,1170.199,-148.416],[1,0,0,0],[0,0,0,0],[9E9,9E9,9E9,9E9,9E9,9E9]],v10,z50,tWeldgun;
    MoveL [[450.949,1170.855,-148.416],[1,0,0,0],[0,0,0,0],[9E9,9E9,9E9,9E9,9E9,9E9]],v10,z50,tWeldgun;
