MODULE WAAM

PROC Main()

    ! Layer 1
    !   Outer pass 1
    MoveL [[5.743,108.114,1.000],[1,0,0,0]],v500,fine,tool0;
    MoveL [[5.749,111.169,1.000],[1,0,0,0]],v50,fine,tWeldgun;
    MoveL [[5.888,114.221,1.000],[1,0,0,0]],v50,fine,tWeldgun;
    MoveL [[6.160,117.263,1.000],[1,0,0,0]],v50,fine,tWeldgun;
    MoveL [[6.563,120.291,1.000],[1,0,0,0]],v50,fine,tWeldgun;
    MoveL [[7.098,123.299,1.000],[1,0,0,0]],v50,fine,tWeldgun;
    MoveL [[7.763,126.281,1.000],[1,0,0,0]],v50,fine,tWeldgun;
    MoveL [[8.558,129.230,1.000],[1,0,0,0]],v50,fine,tWeldgun;
    MoveL [[9.479,132.143,1.000],[1,0,0,0]],v50,fine,tWeldgun;
    MoveL [[10.527,135.012,1.000],[1,0,0,0]],v50,fine,tWeldgun;
    MoveL [[11.699,137.833,1.000],[1,0,0,0]],v50,fine,tWeldgun;
    MoveL [[12.650,139.869,1.000],[1,0,0,0]],v50,fine,tWeldgun;
    MoveL [[12.677,139.851,1.000],[1,0,0,0]],v50,fine,tWeldgun;
    MoveL [[13.749,139.184,1.000],[1,0,0,0]],v50,fine,tWeldgun;
    MoveL [[13.786,139.161,1.000],[1,0,0,0]],v50,fine,tWeldgun;
    MoveL [[14.007,139.030,1.000],[1,0,0,0]],v50,fine,tWeldgun;
    MoveL [[15.144,138.388,1.000],[1,0,0,0]],v50,fine,tWeldgun;
    MoveL [[15.370,138.266,1.000],[1,0,0,0]],v50,fine,tWeldgun;
    MoveL [[16.534,137.673,1.000],[1,0,0,0]],v50,fine,tWeldgun;
    MoveL [[16.765,137.561,1.000],[1,0,0,0]],v50,fine,tWeldgun;
    MoveL [[17.953,137.019,1.000],[1,0,0,0]],v50,fine,tWeldgun;
    MoveL [[18.189,136.917,1.000],[1,0,0,0]],v50,fine,tWeldgun;
    MoveL [[19.399,136.426,1.000],[1,0,0,0]],v50,fine,tWeldgun;
    MoveL [[19.639,136.334,1.000],[1,0,0,0]],v50,fine,tWeldgun;
    MoveL [[20.829,135.910,1.000],[1,0,0,0]],v50,fine,tWeldgun;
    MoveL [[20.869,135.896,1.000],[1,0,0,0]],v50,fine,tWeldgun;
    MoveL [[21.113,135.814,1.000],[1,0,0,0]],v50,fine,tWeldgun;
    MoveL [[22.360,135.429,1.000],[1,0,0,0]],v50,fine,tWeldgun;
    MoveL [[22.608,135.358,1.000],[1,0,0,0]],v50,fine,tWeldgun;
    MoveL [[23.829,135.037,1.000],[1,0,0,0]],v50,fine,tWeldgun;
    MoveL [[23.870,135.026,1.000],[1,0,0,0]],v50,fine,tWeldgun;
    MoveL [[24.120,134.966,1.000],[1,0,0,0]],v50,fine,tWeldgun;
    MoveL [[25.396,134.688,1.000],[1,0,0,0]],v50,fine,tWeldgun;
    MoveL [[25.649,134.639,1.000],[1,0,0,0]],v50,fine,tWeldgun;
    MoveL [[26.893,134.424,1.000],[1,0,0,0]],v50,fine,tWeldgun;
    MoveL [[26.935,134.416,1.000],[1,0,0,0]],v50,fine,tWeldgun;
    MoveL [[27.190,134.378,1.000],[1,0,0,0]],v50,fine,tWeldgun;
    MoveL [[28.442,134.216,1.000],[1,0,0,0]],v50,fine,tWeldgun;
    MoveL [[28.485,134.211,1.000],[1,0,0,0]],v50,fine,tWeldgun;
    MoveL [[28.740,134.183,1.000],[1,0,0,0]],v50,fine,tWeldgun;
    MoveL [[30.041,134.071,1.000],[1,0,0,0]],v50,fine,tWeldgun;
    MoveL [[30.298,134.055,1.000],[1,0,0,0]],v50,fine,tWeldgun;
    MoveL [[31.602,133.999,1.000],[1,0,0,0]],v50,fine,tWeldgun;
    MoveL [[31.859,133.993,1.000],[1,0,0,0]],v50,fine,tWeldgun;
    MoveL [[33.165,133.993,1.000],[1,0,0,0]],v50,fine,tWeldgun;
    MoveL [[33.422,133.999,1.000],[1,0,0,0]],v50,fine,tWeldgun;
    MoveL [[34.684,134.053,1.000],[1,0,0,0]],v50,fine,tWeldgun;
    MoveL [[34.727,134.055,1.000],[1,0,0,0]],v50,fine,tWeldgun;
    MoveL [[34.983,134.071,1.000],[1,0,0,0]],v50,fine,tWeldgun;
    MoveL [[36.242,134.179,1.000],[1,0,0,0]],v50,fine,tWeldgun;
    MoveL [[36.284,134.183,1.000],[1,0,0,0]],v50,fine,tWeldgun;
    MoveL [[36.540,134.211,1.000],[1,0,0,0]],v50,fine,tWeldgun;
    MoveL [[37.835,134.378,1.000],[1,0,0,0]],v50,fine,tWeldgun;
    MoveL [[38.089,134.416,1.000],[1,0,0,0]],v50,fine,tWeldgun;
    MoveL [[39.376,134.639,1.000],[1,0,0,0]],v50,fine,tWeldgun;
    MoveL [[39.628,134.688,1.000],[1,0,0,0]],v50,fine,tWeldgun;
    MoveL [[40.862,134.957,1.000],[1,0,0,0]],v50,fine,tWeldgun;
    MoveL [[40.904,134.966,1.000],[1,0,0,0]],v50,fine,tWeldgun;
    MoveL [[41.154,135.026,1.000],[1,0,0,0]],v50,fine,tWeldgun;
    MoveL [[42.375,135.347,1.000],[1,0,0,0]],v50,fine,tWeldgun;
    MoveL [[42.417,135.358,1.000],[1,0,0,0]],v50,fine,tWeldgun;
    MoveL [[42.664,135.429,1.000],[1,0,0,0]],v50,fine,tWeldgun;
    MoveL [[43.871,135.802,1.000],[1,0,0,0]],v50,fine,tWeldgun;
    MoveL [[43.912,135.814,1.000],[1,0,0,0]],v50,fine,tWeldgun;
    MoveL [[44.155,135.896,1.000],[1,0,0,0]],v50,fine,tWeldgun;
    MoveL [[45.385,136.334,1.000],[1,0,0,0]],v50,fine,tWeldgun;
    MoveL [[45.626,136.426,1.000],[1,0,0,0]],v50,fine,tWeldgun;
    MoveL [[46.796,136.901,1.000],[1,0,0,0]],v50,fine,tWeldgun;
    MoveL [[46.835,136.917,1.000],[1,0,0,0]],v50,fine,tWeldgun;
    MoveL [[47.072,137.019,1.000],[1,0,0,0]],v50,fine,tWeldgun;
    MoveL [[48.220,137.544,1.000],[1,0,0,0]],v50,fine,tWeldgun;
    MoveL [[48.259,137.561,1.000],[1,0,0,0]],v50,fine,tWeldgun;
    MoveL [[48.491,137.673,1.000],[1,0,0,0]],v50,fine,tWeldgun;
    MoveL [[49.616,138.247,1.000],[1,0,0,0]],v50,fine,tWeldgun;
    MoveL [[49.654,138.266,1.000],[1,0,0,0]],v50,fine,tWeldgun;
    MoveL [[49.881,138.388,1.000],[1,0,0,0]],v50,fine,tWeldgun;
    MoveL [[50.980,139.009,1.000],[1,0,0,0]],v50,fine,tWeldgun;
    MoveL [[51.018,139.030,1.000],[1,0,0,0]],v50,fine,tWeldgun;
    MoveL [[51.239,139.161,1.000],[1,0,0,0]],v50,fine,tWeldgun;
    MoveL [[52.347,139.851,1.000],[1,0,0,0]],v50,fine,tWeldgun;
    MoveL [[52.562,139.992,1.000],[1,0,0,0]],v50,fine,tWeldgun;
    MoveL [[53.605,140.705,1.000],[1,0,0,0]],v50,fine,tWeldgun;
    MoveL [[53.640,140.729,1.000],[1,0,0,0]],v50,fine,tWeldgun;
    MoveL [[53.849,140.879,1.000],[1,0,0,0]],v50,fine,tWeldgun;
    MoveL [[54.220,141.156,1.000],[1,0,0,0]],v50,fine,tWeldgun;
    MoveL [[54.591,140.879,1.000],[1,0,0,0]],v50,fine,tWeldgun;
    MoveL [[54.800,140.729,1.000],[1,0,0,0]],v50,fine,tWeldgun;
    MoveL [[55.878,139.992,1.000],[1,0,0,0]],v50,fine,tWeldgun;
    MoveL [[56.093,139.851,1.000],[1,0,0,0]],v50,fine,tWeldgun;
    MoveL [[57.165,139.184,1.000],[1,0,0,0]],v50,fine,tWeldgun;
    MoveL [[57.202,139.161,1.000],[1,0,0,0]],v50,fine,tWeldgun;
    MoveL [[57.423,139.030,1.000],[1,0,0,0]],v50,fine,tWeldgun;
    MoveL [[58.560,138.388,1.000],[1,0,0,0]],v50,fine,tWeldgun;
    MoveL [[58.786,138.266,1.000],[1,0,0,0]],v50,fine,tWeldgun;
    MoveL [[59.950,137.673,1.000],[1,0,0,0]],v50,fine,tWeldgun;
    MoveL [[60.181,137.561,1.000],[1,0,0,0]],v50,fine,tWeldgun;
    MoveL [[61.369,137.019,1.000],[1,0,0,0]],v50,fine,tWeldgun;
    MoveL [[61.605,136.917,1.000],[1,0,0,0]],v50,fine,tWeldgun;
    MoveL [[62.815,136.426,1.000],[1,0,0,0]],v50,fine,tWeldgun;
    MoveL [[63.055,136.334,1.000],[1,0,0,0]],v50,fine,tWeldgun;
    MoveL [[64.245,135.910,1.000],[1,0,0,0]],v50,fine,tWeldgun;
    MoveL [[64.285,135.896,1.000],[1,0,0,0]],v50,fine,tWeldgun;
    MoveL [[64.529,135.814,1.000],[1,0,0,0]],v50,fine,tWeldgun;
    MoveL [[65.776,135.429,1.000],[1,0,0,0]],v50,fine,tWeldgun;
    MoveL [[66.024,135.358,1.000],[1,0,0,0]],v50,fine,tWeldgun;
    MoveL [[67.245,135.037,1.000],[1,0,0,0]],v50,fine,tWeldgun;
    MoveL [[67.287,135.026,1.000],[1,0,0,0]],v50,fine,tWeldgun;
    MoveL [[67.536,134.966,1.000],[1,0,0,0]],v50,fine,tWeldgun;
    MoveL [[68.812,134.688,1.000],[1,0,0,0]],v50,fine,tWeldgun;
    MoveL [[69.065,134.639,1.000],[1,0,0,0]],v50,fine,tWeldgun;
    MoveL [[70.309,134.424,1.000],[1,0,0,0]],v50,fine,tWeldgun;
    MoveL [[70.351,134.416,1.000],[1,0,0,0]],v50,fine,tWeldgun;
    MoveL [[70.606,134.378,1.000],[1,0,0,0]],v50,fine,tWeldgun;
    MoveL [[71.858,134.216,1.000],[1,0,0,0]],v50,fine,tWeldgun;
    MoveL [[71.901,134.211,1.000],[1,0,0,0]],v50,fine,tWeldgun;
    MoveL [[72.156,134.183,1.000],[1,0,0,0]],v50,fine,tWeldgun;
    MoveL [[73.457,134.071,1.000],[1,0,0,0]],v50,fine,tWeldgun;
    MoveL [[73.714,134.055,1.000],[1,0,0,0]],v50,fine,tWeldgun;
    MoveL [[75.018,133.999,1.000],[1,0,0,0]],v50,fine,tWeldgun;
    MoveL [[75.275,133.993,1.000],[1,0,0,0]],v50,fine,tWeldgun;
    MoveL [[76.581,133.993,1.000],[1,0,0,0]],v50,fine,tWeldgun;
    MoveL [[76.838,133.999,1.000],[1,0,0,0]],v50,fine,tWeldgun;
    MoveL [[78.100,134.053,1.000],[1,0,0,0]],v50,fine,tWeldgun;
    MoveL [[78.143,134.055,1.000],[1,0,0,0]],v50,fine,tWeldgun;
    MoveL [[78.399,134.071,1.000],[1,0,0,0]],v50,fine,tWeldgun;
    MoveL [[79.658,134.179,1.000],[1,0,0,0]],v50,fine,tWeldgun;
    MoveL [[79.700,134.183,1.000],[1,0,0,0]],v50,fine,tWeldgun;
    MoveL [[79.956,134.211,1.000],[1,0,0,0]],v50,fine,tWeldgun;
    MoveL [[81.251,134.378,1.000],[1,0,0,0]],v50,fine,tWeldgun;
    MoveL [[81.505,134.416,1.000],[1,0,0,0]],v50,fine,tWeldgun;
    MoveL [[82.792,134.639,1.000],[1,0,0,0]],v50,fine,tWeldgun;
    MoveL [[83.044,134.688,1.000],[1,0,0,0]],v50,fine,tWeldgun;
    MoveL [[84.278,134.957,1.000],[1,0,0,0]],v50,fine,tWeldgun;
    MoveL [[84.320,134.966,1.000],[1,0,0,0]],v50,fine,tWeldgun;
    MoveL [[84.570,135.026,1.000],[1,0,0,0]],v50,fine,tWeldgun;
    MoveL [[85.791,135.347,1.000],[1,0,0,0]],v50,fine,tWeldgun;
    MoveL [[85.833,135.358,1.000],[1,0,0,0]],v50,fine,tWeldgun;
    MoveL [[86.080,135.429,1.000],[1,0,0,0]],v50,fine,tWeldgun;
    MoveL [[87.287,135.802,1.000],[1,0,0,0]],v50,fine,tWeldgun;
    MoveL [[87.328,135.814,1.000],[1,0,0,0]],v50,fine,tWeldgun;
    MoveL [[87.571,135.896,1.000],[1,0,0,0]],v50,fine,tWeldgun;
    MoveL [[88.801,136.334,1.000],[1,0,0,0]],v50,fine,tWeldgun;
    MoveL [[89.042,136.426,1.000],[1,0,0,0]],v50,fine,tWeldgun;
    MoveL [[90.212,136.901,1.000],[1,0,0,0]],v50,fine,tWeldgun;
    MoveL [[90.251,136.917,1.000],[1,0,0,0]],v50,fine,tWeldgun;
    MoveL [[90.488,137.019,1.000],[1,0,0,0]],v50,fine,tWeldgun;
    MoveL [[91.636,137.544,1.000],[1,0,0,0]],v50,fine,tWeldgun;
    MoveL [[91.675,137.561,1.000],[1,0,0,0]],v50,fine,tWeldgun;
    MoveL [[91.907,137.673,1.000],[1,0,0,0]],v50,fine,tWeldgun;
    MoveL [[93.032,138.247,1.000],[1,0,0,0]],v50,fine,tWeldgun;
    MoveL [[93.070,138.266,1.000],[1,0,0,0]],v50,fine,tWeldgun;
    MoveL [[93.297,138.388,1.000],[1,0,0,0]],v50,fine,tWeldgun;
    MoveL [[94.396,139.009,1.000],[1,0,0,0]],v50,fine,tWeldgun;
    MoveL [[94.434,139.030,1.000],[1,0,0,0]],v50,fine,tWeldgun;
    MoveL [[94.655,139.161,1.000],[1,0,0,0]],v50,fine,tWeldgun;
    MoveL [[95.763,139.851,1.000],[1,0,0,0]],v50,fine,tWeldgun;
    MoveL [[95.790,139.869,1.000],[1,0,0,0]],v50,fine,tWeldgun;
    MoveL [[96.742,137.833,1.000],[1,0,0,0]],v50,fine,tWeldgun;
    MoveL [[97.913,135.012,1.000],[1,0,0,0]],v50,fine,tWeldgun;
    MoveL [[98.961,132.143,1.000],[1,0,0,0]],v50,fine,tWeldgun;
    MoveL [[99.883,129.230,1.000],[1,0,0,0]],v50,fine,tWeldgun;
    MoveL [[100.677,126.281,1.000],[1,0,0,0]],v50,fine,tWeldgun;
    MoveL [[101.342,123.299,1.000],[1,0,0,0]],v50,fine,tWeldgun;
    MoveL [[101.877,120.291,1.000],[1,0,0,0]],v50,fine,tWeldgun;
    MoveL [[102.281,117.263,1.000],[1,0,0,0]],v50,fine,tWeldgun;
    MoveL [[102.552,114.221,1.000],[1,0,0,0]],v50,fine,tWeldgun;
    MoveL [[102.691,111.169,1.000],[1,0,0,0]],v50,fine,tWeldgun;
    MoveL [[102.697,108.114,1.000],[1,0,0,0]],v50,fine,tWeldgun;
    MoveL [[102.570,105.062,1.000],[1,0,0,0]],v50,fine,tWeldgun;
    MoveL [[102.310,102.018,1.000],[1,0,0,0]],v50,fine,tWeldgun;
    MoveL [[101.918,98.989,1.000],[1,0,0,0]],v50,fine,tWeldgun;
    MoveL [[101.395,95.979,1.000],[1,0,0,0]],v50,fine,tWeldgun;
    MoveL [[100.741,92.995,1.000],[1,0,0,0]],v50,fine,tWeldgun;
    MoveL [[99.958,90.042,1.000],[1,0,0,0]],v50,fine,tWeldgun;
    MoveL [[99.048,87.126,1.000],[1,0,0,0]],v50,fine,tWeldgun;
    MoveL [[98.011,84.253,1.000],[1,0,0,0]],v50,fine,tWeldgun;
    MoveL [[96.850,81.427,1.000],[1,0,0,0]],v50,fine,tWeldgun;
    MoveL [[95.568,78.655,1.000],[1,0,0,0]],v50,fine,tWeldgun;
    MoveL [[94.166,75.941,1.000],[1,0,0,0]],v50,fine,tWeldgun;
    MoveL [[92.647,73.290,1.000],[1,0,0,0]],v50,fine,tWeldgun;
    MoveL [[91.015,70.708,1.000],[1,0,0,0]],v50,fine,tWeldgun;
    MoveL [[89.271,68.200,1.000],[1,0,0,0]],v50,fine,tWeldgun;
    MoveL [[87.420,65.769,1.000],[1,0,0,0]],v50,fine,tWeldgun;
    MoveL [[85.466,63.422,1.000],[1,0,0,0]],v50,fine,tWeldgun;
    MoveL [[83.411,61.162,1.000],[1,0,0,0]],v50,fine,tWeldgun;
    MoveL [[81.259,58.993,1.000],[1,0,0,0]],v50,fine,tWeldgun;
    MoveL [[79.015,56.920,1.000],[1,0,0,0]],v50,fine,tWeldgun;
    MoveL [[76.683,54.947,1.000],[1,0,0,0]],v50,fine,tWeldgun;
    MoveL [[74.268,53.077,1.000],[1,0,0,0]],v50,fine,tWeldgun;
    MoveL [[71.773,51.314,1.000],[1,0,0,0]],v50,fine,tWeldgun;
    MoveL [[69.204,49.661,1.000],[1,0,0,0]],v50,fine,tWeldgun;
    MoveL [[66.566,48.121,1.000],[1,0,0,0]],v50,fine,tWeldgun;
    MoveL [[63.863,46.697,1.000],[1,0,0,0]],v50,fine,tWeldgun;
    MoveL [[61.101,45.393,1.000],[1,0,0,0]],v50,fine,tWeldgun;
    MoveL [[58.284,44.210,1.000],[1,0,0,0]],v50,fine,tWeldgun;
    MoveL [[55.419,43.150,1.000],[1,0,0,0]],v50,fine,tWeldgun;
    MoveL [[54.220,42.766,1.000],[1,0,0,0]],v50,fine,tWeldgun;
    MoveL [[53.021,43.150,1.000],[1,0,0,0]],v50,fine,tWeldgun;
    MoveL [[50.156,44.210,1.000],[1,0,0,0]],v50,fine,tWeldgun;
    MoveL [[47.340,45.393,1.000],[1,0,0,0]],v50,fine,tWeldgun;
    MoveL [[44.577,46.697,1.000],[1,0,0,0]],v50,fine,tWeldgun;
    MoveL [[41.875,48.121,1.000],[1,0,0,0]],v50,fine,tWeldgun;
    MoveL [[39.236,49.661,1.000],[1,0,0,0]],v50,fine,tWeldgun;
    MoveL [[36.667,51.314,1.000],[1,0,0,0]],v50,fine,tWeldgun;
    MoveL [[34.173,53.077,1.000],[1,0,0,0]],v50,fine,tWeldgun;
    MoveL [[31.757,54.947,1.000],[1,0,0,0]],v50,fine,tWeldgun;
    MoveL [[29.425,56.920,1.000],[1,0,0,0]],v50,fine,tWeldgun;
    MoveL [[27.181,58.993,1.000],[1,0,0,0]],v50,fine,tWeldgun;
    MoveL [[25.030,61.162,1.000],[1,0,0,0]],v50,fine,tWeldgun;
    MoveL [[22.975,63.422,1.000],[1,0,0,0]],v50,fine,tWeldgun;
    MoveL [[21.020,65.769,1.000],[1,0,0,0]],v50,fine,tWeldgun;
    MoveL [[19.169,68.200,1.000],[1,0,0,0]],v50,fine,tWeldgun;
    MoveL [[17.426,70.708,1.000],[1,0,0,0]],v50,fine,tWeldgun;
    MoveL [[15.793,73.290,1.000],[1,0,0,0]],v50,fine,tWeldgun;
    MoveL [[14.275,75.941,1.000],[1,0,0,0]],v50,fine,tWeldgun;
    MoveL [[12.873,78.655,1.000],[1,0,0,0]],v50,fine,tWeldgun;
    MoveL [[11.590,81.427,1.000],[1,0,0,0]],v50,fine,tWeldgun;
    MoveL [[10.429,84.253,1.000],[1,0,0,0]],v50,fine,tWeldgun;
    MoveL [[9.393,87.126,1.000],[1,0,0,0]],v50,fine,tWeldgun;
    MoveL [[8.482,90.042,1.000],[1,0,0,0]],v50,fine,tWeldgun;
    MoveL [[7.699,92.995,1.000],[1,0,0,0]],v50,fine,tWeldgun;
    MoveL [[7.045,95.979,1.000],[1,0,0,0]],v50,fine,tWeldgun;
    MoveL [[6.522,98.989,1.000],[1,0,0,0]],v50,fine,tWeldgun;
    MoveL [[6.130,102.018,1.000],[1,0,0,0]],v50,fine,tWeldgun;
    MoveL [[5.871,105.062,1.000],[1,0,0,0]],v50,fine,tWeldgun;
    MoveL [[5.743,108.114,1.000],[1,0,0,0]],v50,fine,tWeldgun;
    WaitTime 10.0;
    !   Outer pass 2
    MoveL [[17.744,108.352,1.000],[1,0,0,0]],v500,fine,tool0;
    MoveL [[17.749,110.885,1.000],[1,0,0,0]],v50,fine,tWeldgun;
    MoveL [[17.864,113.415,1.000],[1,0,0,0]],v50,fine,tWeldgun;
    MoveL [[18.089,115.937,1.000],[1,0,0,0]],v50,fine,tWeldgun;
    MoveL [[18.423,118.447,1.000],[1,0,0,0]],v50,fine,tWeldgun;
    MoveL [[18.867,120.941,1.000],[1,0,0,0]],v50,fine,tWeldgun;
    MoveL [[19.418,123.412,1.000],[1,0,0,0]],v50,fine,tWeldgun;
    MoveL [[19.513,123.764,1.000],[1,0,0,0]],v50,fine,tWeldgun;
    MoveL [[19.557,123.752,1.000],[1,0,0,0]],v50,fine,tWeldgun;
    MoveL [[20.778,123.431,1.000],[1,0,0,0]],v50,fine,tWeldgun;
    MoveL [[20.820,123.420,1.000],[1,0,0,0]],v50,fine,tWeldgun;
    MoveL [[21.069,123.358,1.000],[1,0,0,0]],v50,fine,tWeldgun;
    MoveL [[21.319,123.298,1.000],[1,0,0,0]],v50,fine,tWeldgun;
    MoveL [[21.569,123.240,1.000],[1,0,0,0]],v50,fine,tWeldgun;
    MoveL [[22.845,122.963,1.000],[1,0,0,0]],v50,fine,tWeldgun;
    MoveL [[23.097,122.911,1.000],[1,0,0,0]],v50,fine,tWeldgun;
    MoveL [[23.349,122.861,1.000],[1,0,0,0]],v50,fine,tWeldgun;
    MoveL [[23.602,122.815,1.000],[1,0,0,0]],v50,fine,tWeldgun;
    MoveL [[24.847,122.599,1.000],[1,0,0,0]],v50,fine,tWeldgun;
    MoveL [[24.889,122.592,1.000],[1,0,0,0]],v50,fine,tWeldgun;
    MoveL [[25.143,122.551,1.000],[1,0,0,0]],v50,fine,tWeldgun;
    MoveL [[25.397,122.513,1.000],[1,0,0,0]],v50,fine,tWeldgun;
    MoveL [[25.651,122.477,1.000],[1,0,0,0]],v50,fine,tWeldgun;
    MoveL [[26.904,122.315,1.000],[1,0,0,0]],v50,fine,tWeldgun;
    MoveL [[26.946,122.310,1.000],[1,0,0,0]],v50,fine,tWeldgun;
    MoveL [[27.202,122.279,1.000],[1,0,0,0]],v50,fine,tWeldgun;
    MoveL [[27.457,122.252,1.000],[1,0,0,0]],v50,fine,tWeldgun;
    MoveL [[27.713,122.227,1.000],[1,0,0,0]],v50,fine,tWeldgun;
    MoveL [[29.014,122.115,1.000],[1,0,0,0]],v50,fine,tWeldgun;
    MoveL [[29.271,122.096,1.000],[1,0,0,0]],v50,fine,tWeldgun;
    MoveL [[29.527,122.080,1.000],[1,0,0,0]],v50,fine,tWeldgun;
    MoveL [[29.784,122.066,1.000],[1,0,0,0]],v50,fine,tWeldgun;
    MoveL [[31.088,122.010,1.000],[1,0,0,0]],v50,fine,tWeldgun;
    MoveL [[31.345,122.002,1.000],[1,0,0,0]],v50,fine,tWeldgun;
    MoveL [[31.602,121.996,1.000],[1,0,0,0]],v50,fine,tWeldgun;
    MoveL [[31.859,121.993,1.000],[1,0,0,0]],v50,fine,tWeldgun;
    MoveL [[33.165,121.993,1.000],[1,0,0,0]],v50,fine,tWeldgun;
    MoveL [[33.422,121.996,1.000],[1,0,0,0]],v50,fine,tWeldgun;
    MoveL [[33.679,122.002,1.000],[1,0,0,0]],v50,fine,tWeldgun;
    MoveL [[33.936,122.010,1.000],[1,0,0,0]],v50,fine,tWeldgun;
    MoveL [[35.198,122.064,1.000],[1,0,0,0]],v50,fine,tWeldgun;
    MoveL [[35.241,122.066,1.000],[1,0,0,0]],v50,fine,tWeldgun;
    MoveL [[35.497,122.080,1.000],[1,0,0,0]],v50,fine,tWeldgun;
    MoveL [[35.754,122.096,1.000],[1,0,0,0]],v50,fine,tWeldgun;
    MoveL [[36.010,122.115,1.000],[1,0,0,0]],v50,fine,tWeldgun;
    MoveL [[37.269,122.223,1.000],[1,0,0,0]],v50,fine,tWeldgun;
    MoveL [[37.311,122.227,1.000],[1,0,0,0]],v50,fine,tWeldgun;
    MoveL [[37.567,122.252,1.000],[1,0,0,0]],v50,fine,tWeldgun;
    MoveL [[37.823,122.279,1.000],[1,0,0,0]],v50,fine,tWeldgun;
    MoveL [[38.078,122.310,1.000],[1,0,0,0]],v50,fine,tWeldgun;
    MoveL [[39.373,122.477,1.000],[1,0,0,0]],v50,fine,tWeldgun;
    MoveL [[39.628,122.513,1.000],[1,0,0,0]],v50,fine,tWeldgun;
    MoveL [[39.882,122.551,1.000],[1,0,0,0]],v50,fine,tWeldgun;
    MoveL [[40.136,122.592,1.000],[1,0,0,0]],v50,fine,tWeldgun;
    MoveL [[41.422,122.815,1.000],[1,0,0,0]],v50,fine,tWeldgun;
    MoveL [[41.675,122.861,1.000],[1,0,0,0]],v50,fine,tWeldgun;
    MoveL [[41.927,122.911,1.000],[1,0,0,0]],v50,fine,tWeldgun;
    MoveL [[42.179,122.963,1.000],[1,0,0,0]],v50,fine,tWeldgun;
    MoveL [[43.413,123.231,1.000],[1,0,0,0]],v50,fine,tWeldgun;
    MoveL [[43.455,123.240,1.000],[1,0,0,0]],v50,fine,tWeldgun;
    MoveL [[43.706,123.298,1.000],[1,0,0,0]],v50,fine,tWeldgun;
    MoveL [[43.956,123.358,1.000],[1,0,0,0]],v50,fine,tWeldgun;
    MoveL [[44.205,123.420,1.000],[1,0,0,0]],v50,fine,tWeldgun;
    MoveL [[45.426,123.741,1.000],[1,0,0,0]],v50,fine,tWeldgun;
    MoveL [[45.468,123.752,1.000],[1,0,0,0]],v50,fine,tWeldgun;
    MoveL [[45.716,123.820,1.000],[1,0,0,0]],v50,fine,tWeldgun;
    MoveL [[45.963,123.891,1.000],[1,0,0,0]],v50,fine,tWeldgun;
    MoveL [[46.209,123.964,1.000],[1,0,0,0]],v50,fine,tWeldgun;
    MoveL [[47.416,124.337,1.000],[1,0,0,0]],v50,fine,tWeldgun;
    MoveL [[47.457,124.350,1.000],[1,0,0,0]],v50,fine,tWeldgun;
    MoveL [[47.702,124.429,1.000],[1,0,0,0]],v50,fine,tWeldgun;
    MoveL [[47.946,124.510,1.000],[1,0,0,0]],v50,fine,tWeldgun;
    MoveL [[48.189,124.594,1.000],[1,0,0,0]],v50,fine,tWeldgun;
    MoveL [[49.418,125.032,1.000],[1,0,0,0]],v50,fine,tWeldgun;
    MoveL [[49.660,125.121,1.000],[1,0,0,0]],v50,fine,tWeldgun;
    MoveL [[49.900,125.213,1.000],[1,0,0,0]],v50,fine,tWeldgun;
    MoveL [[50.139,125.307,1.000],[1,0,0,0]],v50,fine,tWeldgun;
    MoveL [[51.309,125.782,1.000],[1,0,0,0]],v50,fine,tWeldgun;
    MoveL [[51.349,125.798,1.000],[1,0,0,0]],v50,fine,tWeldgun;
    MoveL [[51.586,125.898,1.000],[1,0,0,0]],v50,fine,tWeldgun;
    MoveL [[51.822,125.999,1.000],[1,0,0,0]],v50,fine,tWeldgun;
    MoveL [[52.057,126.104,1.000],[1,0,0,0]],v50,fine,tWeldgun;
    MoveL [[53.206,126.628,1.000],[1,0,0,0]],v50,fine,tWeldgun;
    MoveL [[53.245,126.646,1.000],[1,0,0,0]],v50,fine,tWeldgun;
    MoveL [[53.478,126.755,1.000],[1,0,0,0]],v50,fine,tWeldgun;
    MoveL [[53.709,126.867,1.000],[1,0,0,0]],v50,fine,tWeldgun;
    MoveL [[53.939,126.981,1.000],[1,0,0,0]],v50,fine,tWeldgun;
    MoveL [[54.220,127.125,1.000],[1,0,0,0]],v50,fine,tWeldgun;
    MoveL [[54.501,126.981,1.000],[1,0,0,0]],v50,fine,tWeldgun;
    MoveL [[54.732,126.867,1.000],[1,0,0,0]],v50,fine,tWeldgun;
    MoveL [[54.963,126.755,1.000],[1,0,0,0]],v50,fine,tWeldgun;
    MoveL [[55.196,126.646,1.000],[1,0,0,0]],v50,fine,tWeldgun;
    MoveL [[56.383,126.104,1.000],[1,0,0,0]],v50,fine,tWeldgun;
    MoveL [[56.618,125.999,1.000],[1,0,0,0]],v50,fine,tWeldgun;
    MoveL [[56.854,125.898,1.000],[1,0,0,0]],v50,fine,tWeldgun;
    MoveL [[57.092,125.798,1.000],[1,0,0,0]],v50,fine,tWeldgun;
    MoveL [[58.302,125.307,1.000],[1,0,0,0]],v50,fine,tWeldgun;
    MoveL [[58.541,125.213,1.000],[1,0,0,0]],v50,fine,tWeldgun;
    MoveL [[58.781,125.121,1.000],[1,0,0,0]],v50,fine,tWeldgun;
    MoveL [[59.022,125.032,1.000],[1,0,0,0]],v50,fine,tWeldgun;
    MoveL [[60.212,124.608,1.000],[1,0,0,0]],v50,fine,tWeldgun;
    MoveL [[60.252,124.594,1.000],[1,0,0,0]],v50,fine,tWeldgun;
    MoveL [[60.495,124.510,1.000],[1,0,0,0]],v50,fine,tWeldgun;
    MoveL [[60.739,124.429,1.000],[1,0,0,0]],v50,fine,tWeldgun;
    MoveL [[60.984,124.350,1.000],[1,0,0,0]],v50,fine,tWeldgun;
    MoveL [[62.231,123.964,1.000],[1,0,0,0]],v50,fine,tWeldgun;
    MoveL [[62.478,123.891,1.000],[1,0,0,0]],v50,fine,tWeldgun;
    MoveL [[62.725,123.820,1.000],[1,0,0,0]],v50,fine,tWeldgun;
    MoveL [[62.973,123.752,1.000],[1,0,0,0]],v50,fine,tWeldgun;
    MoveL [[64.194,123.431,1.000],[1,0,0,0]],v50,fine,tWeldgun;
    MoveL [[64.236,123.420,1.000],[1,0,0,0]],v50,fine,tWeldgun;
    MoveL [[64.485,123.358,1.000],[1,0,0,0]],v50,fine,tWeldgun;
    MoveL [[64.735,123.298,1.000],[1,0,0,0]],v50,fine,tWeldgun;
    MoveL [[64.985,123.240,1.000],[1,0,0,0]],v50,fine,tWeldgun;
    MoveL [[66.261,122.963,1.000],[1,0,0,0]],v50,fine,tWeldgun;
    MoveL [[66.513,122.911,1.000],[1,0,0,0]],v50,fine,tWeldgun;
    MoveL [[66.765,122.861,1.000],[1,0,0,0]],v50,fine,tWeldgun;
    MoveL [[67.018,122.815,1.000],[1,0,0,0]],v50,fine,tWeldgun;
    MoveL [[68.263,122.599,1.000],[1,0,0,0]],v50,fine,tWeldgun;
    MoveL [[68.305,122.592,1.000],[1,0,0,0]],v50,fine,tWeldgun;
    MoveL [[68.559,122.551,1.000],[1,0,0,0]],v50,fine,tWeldgun;
    MoveL [[68.813,122.513,1.000],[1,0,0,0]],v50,fine,tWeldgun;
    MoveL [[69.067,122.477,1.000],[1,0,0,0]],v50,fine,tWeldgun;
    MoveL [[70.320,122.315,1.000],[1,0,0,0]],v50,fine,tWeldgun;
    MoveL [[70.362,122.310,1.000],[1,0,0,0]],v50,fine,tWeldgun;
    MoveL [[70.618,122.279,1.000],[1,0,0,0]],v50,fine,tWeldgun;
    MoveL [[70.873,122.252,1.000],[1,0,0,0]],v50,fine,tWeldgun;
    MoveL [[71.129,122.227,1.000],[1,0,0,0]],v50,fine,tWeldgun;
    MoveL [[72.430,122.115,1.000],[1,0,0,0]],v50,fine,tWeldgun;
    MoveL [[72.687,122.096,1.000],[1,0,0,0]],v50,fine,tWeldgun;
    MoveL [[72.943,122.080,1.000],[1,0,0,0]],v50,fine,tWeldgun;
    MoveL [[73.200,122.066,1.000],[1,0,0,0]],v50,fine,tWeldgun;
    MoveL [[74.504,122.010,1.000],[1,0,0,0]],v50,fine,tWeldgun;
    MoveL [[74.761,122.002,1.000],[1,0,0,0]],v50,fine,tWeldgun;
    MoveL [[75.018,121.996,1.000],[1,0,0,0]],v50,fine,tWeldgun;
    MoveL [[75.275,121.993,1.000],[1,0,0,0]],v50,fine,tWeldgun;
    MoveL [[76.581,121.993,1.000],[1,0,0,0]],v50,fine,tWeldgun;
    MoveL [[76.838,121.996,1.000],[1,0,0,0]],v50,fine,tWeldgun;
    MoveL [[77.095,122.002,1.000],[1,0,0,0]],v50,fine,tWeldgun;
    MoveL [[77.352,122.010,1.000],[1,0,0,0]],v50,fine,tWeldgun;
    MoveL [[78.614,122.064,1.000],[1,0,0,0]],v50,fine,tWeldgun;
    MoveL [[78.657,122.066,1.000],[1,0,0,0]],v50,fine,tWeldgun;
    MoveL [[78.913,122.080,1.000],[1,0,0,0]],v50,fine,tWeldgun;
    MoveL [[79.170,122.096,1.000],[1,0,0,0]],v50,fine,tWeldgun;
    MoveL [[79.426,122.115,1.000],[1,0,0,0]],v50,fine,tWeldgun;
    MoveL [[80.685,122.223,1.000],[1,0,0,0]],v50,fine,tWeldgun;
    MoveL [[80.727,122.227,1.000],[1,0,0,0]],v50,fine,tWeldgun;
    MoveL [[80.983,122.252,1.000],[1,0,0,0]],v50,fine,tWeldgun;
    MoveL [[81.239,122.279,1.000],[1,0,0,0]],v50,fine,tWeldgun;
    MoveL [[81.494,122.310,1.000],[1,0,0,0]],v50,fine,tWeldgun;
    MoveL [[82.789,122.477,1.000],[1,0,0,0]],v50,fine,tWeldgun;
    MoveL [[83.044,122.513,1.000],[1,0,0,0]],v50,fine,tWeldgun;
    MoveL [[83.298,122.551,1.000],[1,0,0,0]],v50,fine,tWeldgun;
    MoveL [[83.552,122.592,1.000],[1,0,0,0]],v50,fine,tWeldgun;
    MoveL [[84.838,122.815,1.000],[1,0,0,0]],v50,fine,tWeldgun;
    MoveL [[85.091,122.861,1.000],[1,0,0,0]],v50,fine,tWeldgun;
    MoveL [[85.343,122.911,1.000],[1,0,0,0]],v50,fine,tWeldgun;
    MoveL [[85.595,122.963,1.000],[1,0,0,0]],v50,fine,tWeldgun;
    MoveL [[86.829,123.231,1.000],[1,0,0,0]],v50,fine,tWeldgun;
    MoveL [[86.871,123.240,1.000],[1,0,0,0]],v50,fine,tWeldgun;
    MoveL [[87.122,123.298,1.000],[1,0,0,0]],v50,fine,tWeldgun;
    MoveL [[87.372,123.358,1.000],[1,0,0,0]],v50,fine,tWeldgun;
    MoveL [[87.621,123.420,1.000],[1,0,0,0]],v50,fine,tWeldgun;
    MoveL [[88.842,123.741,1.000],[1,0,0,0]],v50,fine,tWeldgun;
    MoveL [[88.884,123.752,1.000],[1,0,0,0]],v50,fine,tWeldgun;
    MoveL [[88.927,123.764,1.000],[1,0,0,0]],v50,fine,tWeldgun;
    MoveL [[89.022,123.412,1.000],[1,0,0,0]],v50,fine,tWeldgun;
    MoveL [[89.574,120.941,1.000],[1,0,0,0]],v50,fine,tWeldgun;
    MoveL [[90.017,118.447,1.000],[1,0,0,0]],v50,fine,tWeldgun;
    MoveL [[90.352,115.937,1.000],[1,0,0,0]],v50,fine,tWeldgun;
    MoveL [[90.577,113.415,1.000],[1,0,0,0]],v50,fine,tWeldgun;
    MoveL [[90.692,110.885,1.000],[1,0,0,0]],v50,fine,tWeldgun;
    MoveL [[90.697,108.352,1.000],[1,0,0,0]],v50,fine,tWeldgun;
    MoveL [[90.591,105.822,1.000],[1,0,0,0]],v50,fine,tWeldgun;
    MoveL [[90.376,103.299,1.000],[1,0,0,0]],v50,fine,tWeldgun;
    MoveL [[90.051,100.787,1.000],[1,0,0,0]],v50,fine,tWeldgun;
    MoveL [[89.617,98.292,1.000],[1,0,0,0]],v50,fine,tWeldgun;
    MoveL [[89.075,95.818,1.000],[1,0,0,0]],v50,fine,tWeldgun;
    MoveL [[88.426,93.370,1.000],[1,0,0,0]],v50,fine,tWeldgun;
    MoveL [[87.671,90.953,1.000],[1,0,0,0]],v50,fine,tWeldgun;
    MoveL [[86.812,88.571,1.000],[1,0,0,0]],v50,fine,tWeldgun;
    MoveL [[85.850,86.228,1.000],[1,0,0,0]],v50,fine,tWeldgun;
    MoveL [[84.786,83.930,1.000],[1,0,0,0]],v50,fine,tWeldgun;
    MoveL [[83.624,81.680,1.000],[1,0,0,0]],v50,fine,tWeldgun;
    MoveL [[82.365,79.482,1.000],[1,0,0,0]],v50,fine,tWeldgun;
    MoveL [[81.012,77.342,1.000],[1,0,0,0]],v50,fine,tWeldgun;
    MoveL [[79.566,75.262,1.000],[1,0,0,0]],v50,fine,tWeldgun;
    MoveL [[78.032,73.248,1.000],[1,0,0,0]],v50,fine,tWeldgun;
    MoveL [[76.411,71.302,1.000],[1,0,0,0]],v50,fine,tWeldgun;
    MoveL [[74.708,69.428,1.000],[1,0,0,0]],v50,fine,tWeldgun;
    MoveL [[72.924,67.630,1.000],[1,0,0,0]],v50,fine,tWeldgun;
    MoveL [[71.064,65.912,1.000],[1,0,0,0]],v50,fine,tWeldgun;
    MoveL [[69.131,64.276,1.000],[1,0,0,0]],v50,fine,tWeldgun;
    MoveL [[67.128,62.725,1.000],[1,0,0,0]],v50,fine,tWeldgun;
    MoveL [[65.060,61.264,1.000],[1,0,0,0]],v50,fine,tWeldgun;
    MoveL [[62.931,59.893,1.000],[1,0,0,0]],v50,fine,tWeldgun;
    MoveL [[60.743,58.617,1.000],[1,0,0,0]],v50,fine,tWeldgun;
    MoveL [[58.503,57.437,1.000],[1,0,0,0]],v50,fine,tWeldgun;
    MoveL [[56.213,56.355,1.000],[1,0,0,0]],v50,fine,tWeldgun;
    MoveL [[54.220,55.518,1.000],[1,0,0,0]],v50,fine,tWeldgun;
    MoveL [[52.228,56.355,1.000],[1,0,0,0]],v50,fine,tWeldgun;
    MoveL [[49.938,57.437,1.000],[1,0,0,0]],v50,fine,tWeldgun;
    MoveL [[47.697,58.617,1.000],[1,0,0,0]],v50,fine,tWeldgun;
    MoveL [[45.510,59.893,1.000],[1,0,0,0]],v50,fine,tWeldgun;
    MoveL [[43.380,61.264,1.000],[1,0,0,0]],v50,fine,tWeldgun;
    MoveL [[41.312,62.725,1.000],[1,0,0,0]],v50,fine,tWeldgun;
    MoveL [[39.310,64.276,1.000],[1,0,0,0]],v50,fine,tWeldgun;
    MoveL [[37.377,65.912,1.000],[1,0,0,0]],v50,fine,tWeldgun;
    MoveL [[35.516,67.630,1.000],[1,0,0,0]],v50,fine,tWeldgun;
    MoveL [[33.733,69.428,1.000],[1,0,0,0]],v50,fine,tWeldgun;
    MoveL [[32.029,71.302,1.000],[1,0,0,0]],v50,fine,tWeldgun;
    MoveL [[30.408,73.248,1.000],[1,0,0,0]],v50,fine,tWeldgun;
    MoveL [[28.874,75.262,1.000],[1,0,0,0]],v50,fine,tWeldgun;
    MoveL [[27.429,77.342,1.000],[1,0,0,0]],v50,fine,tWeldgun;
    MoveL [[26.075,79.482,1.000],[1,0,0,0]],v50,fine,tWeldgun;
    MoveL [[24.816,81.680,1.000],[1,0,0,0]],v50,fine,tWeldgun;
    MoveL [[23.654,83.930,1.000],[1,0,0,0]],v50,fine,tWeldgun;
    MoveL [[22.591,86.228,1.000],[1,0,0,0]],v50,fine,tWeldgun;
    MoveL [[21.629,88.571,1.000],[1,0,0,0]],v50,fine,tWeldgun;
    MoveL [[20.769,90.953,1.000],[1,0,0,0]],v50,fine,tWeldgun;
    MoveL [[20.014,93.370,1.000],[1,0,0,0]],v50,fine,tWeldgun;
    MoveL [[19.365,95.818,1.000],[1,0,0,0]],v50,fine,tWeldgun;
    MoveL [[18.823,98.292,1.000],[1,0,0,0]],v50,fine,tWeldgun;
    MoveL [[18.389,100.787,1.000],[1,0,0,0]],v50,fine,tWeldgun;
    MoveL [[18.065,103.299,1.000],[1,0,0,0]],v50,fine,tWeldgun;
    MoveL [[17.849,105.822,1.000],[1,0,0,0]],v50,fine,tWeldgun;
    MoveL [[17.744,108.352,1.000],[1,0,0,0]],v50,fine,tWeldgun;
    WaitTime 10.0;
    !   Infill (zigzag)
    MoveL [[40.106,44.985,1.000],[1,0,0,0]],v500,fine,tool0;
    MoveL [[68.334,44.985,1.000],[1,0,0,0]],v50,fine,tWeldgun;
    WaitTime 10.0;
    MoveL [[84.337,56.985,1.000],[1,0,0,0]],v500,fine,tool0;
    MoveL [[24.103,56.985,1.000],[1,0,0,0]],v50,fine,tWeldgun;
    WaitTime 10.0;
    MoveL [[14.256,68.985,1.000],[1,0,0,0]],v500,fine,tool0;
    MoveL [[94.184,68.985,1.000],[1,0,0,0]],v50,fine,tWeldgun;
    WaitTime 10.0;
    MoveL [[100.560,80.985,1.000],[1,0,0,0]],v500,fine,tool0;
    MoveL [[7.880,80.985,1.000],[1,0,0,0]],v50,fine,tWeldgun;
    WaitTime 10.0;
    MoveL [[4.016,92.985,1.000],[1,0,0,0]],v500,fine,tool0;
    MoveL [[104.424,92.985,1.000],[1,0,0,0]],v50,fine,tWeldgun;
    WaitTime 10.0;
    MoveL [[106.170,104.985,1.000],[1,0,0,0]],v500,fine,tool0;
    MoveL [[2.271,104.985,1.000],[1,0,0,0]],v50,fine,tWeldgun;
    WaitTime 10.0;
    MoveL [[2.520,116.985,1.000],[1,0,0,0]],v500,fine,tool0;
    MoveL [[105.920,116.985,1.000],[1,0,0,0]],v50,fine,tWeldgun;
    WaitTime 10.0;
    MoveL [[103.677,128.985,1.000],[1,0,0,0]],v500,fine,tool0;
    MoveL [[4.763,128.985,1.000],[1,0,0,0]],v50,fine,tWeldgun;
    WaitTime 10.0;
    MoveL [[9.198,140.985,1.000],[1,0,0,0]],v500,fine,tool0;
    MoveL [[17.965,140.985,1.000],[1,0,0,0]],v50,fine,tWeldgun;
    WaitTime 10.0;
    MoveL [[61.381,140.985,1.000],[1,0,0,0]],v500,fine,tool0;
    MoveL [[47.060,140.985,1.000],[1,0,0,0]],v50,fine,tWeldgun;
    WaitTime 10.0;
    MoveL [[90.476,140.985,1.000],[1,0,0,0]],v500,fine,tool0;
    MoveL [[99.243,140.985,1.000],[1,0,0,0]],v50,fine,tWeldgun;
    WaitTime 10.0;
    WaitTime 60.0;
    ! Layer 2
    !   Outer pass 1
    MoveL [[12.686,139.869,3.000],[1,0,0,0]],v500,fine,tool0;
    MoveL [[12.713,139.851,3.000],[1,0,0,0]],v50,fine,tWeldgun;
    MoveL [[13.713,139.229,3.000],[1,0,0,0]],v50,fine,tWeldgun;
    MoveL [[13.822,139.161,3.000],[1,0,0,0]],v50,fine,tWeldgun;
    MoveL [[14.043,139.030,3.000],[1,0,0,0]],v50,fine,tWeldgun;
    MoveL [[15.068,138.451,3.000],[1,0,0,0]],v50,fine,tWeldgun;
    MoveL [[15.180,138.388,3.000],[1,0,0,0]],v50,fine,tWeldgun;
    MoveL [[15.406,138.266,3.000],[1,0,0,0]],v50,fine,tWeldgun;
    MoveL [[16.455,137.732,3.000],[1,0,0,0]],v50,fine,tWeldgun;
    MoveL [[16.570,137.673,3.000],[1,0,0,0]],v50,fine,tWeldgun;
    MoveL [[16.801,137.561,3.000],[1,0,0,0]],v50,fine,tWeldgun;
    MoveL [[17.872,137.072,3.000],[1,0,0,0]],v50,fine,tWeldgun;
    MoveL [[17.989,137.019,3.000],[1,0,0,0]],v50,fine,tWeldgun;
    MoveL [[18.225,136.917,3.000],[1,0,0,0]],v50,fine,tWeldgun;
    MoveL [[19.316,136.474,3.000],[1,0,0,0]],v50,fine,tWeldgun;
    MoveL [[19.435,136.426,3.000],[1,0,0,0]],v50,fine,tWeldgun;
    MoveL [[19.675,136.334,3.000],[1,0,0,0]],v50,fine,tWeldgun;
    MoveL [[20.784,135.939,3.000],[1,0,0,0]],v50,fine,tWeldgun;
    MoveL [[20.905,135.896,3.000],[1,0,0,0]],v50,fine,tWeldgun;
    MoveL [[21.149,135.814,3.000],[1,0,0,0]],v50,fine,tWeldgun;
    MoveL [[22.274,135.467,3.000],[1,0,0,0]],v50,fine,tWeldgun;
    MoveL [[22.397,135.429,3.000],[1,0,0,0]],v50,fine,tWeldgun;
    MoveL [[22.644,135.358,3.000],[1,0,0,0]],v50,fine,tWeldgun;
    MoveL [[23.782,135.059,3.000],[1,0,0,0]],v50,fine,tWeldgun;
    MoveL [[23.907,135.026,3.000],[1,0,0,0]],v50,fine,tWeldgun;
    MoveL [[24.157,134.966,3.000],[1,0,0,0]],v50,fine,tWeldgun;
    MoveL [[25.307,134.716,3.000],[1,0,0,0]],v50,fine,tWeldgun;
    MoveL [[25.432,134.688,3.000],[1,0,0,0]],v50,fine,tWeldgun;
    MoveL [[25.685,134.639,3.000],[1,0,0,0]],v50,fine,tWeldgun;
    MoveL [[26.845,134.438,3.000],[1,0,0,0]],v50,fine,tWeldgun;
    MoveL [[26.971,134.416,3.000],[1,0,0,0]],v50,fine,tWeldgun;
    MoveL [[27.226,134.378,3.000],[1,0,0,0]],v50,fine,tWeldgun;
    MoveL [[28.393,134.227,3.000],[1,0,0,0]],v50,fine,tWeldgun;
    MoveL [[28.521,134.211,3.000],[1,0,0,0]],v50,fine,tWeldgun;
    MoveL [[28.776,134.183,3.000],[1,0,0,0]],v50,fine,tWeldgun;
    MoveL [[29.949,134.082,3.000],[1,0,0,0]],v50,fine,tWeldgun;
    MoveL [[30.077,134.071,3.000],[1,0,0,0]],v50,fine,tWeldgun;
    MoveL [[30.334,134.055,3.000],[1,0,0,0]],v50,fine,tWeldgun;
    MoveL [[31.510,134.004,3.000],[1,0,0,0]],v50,fine,tWeldgun;
    MoveL [[31.638,133.999,3.000],[1,0,0,0]],v50,fine,tWeldgun;
    MoveL [[31.895,133.993,3.000],[1,0,0,0]],v50,fine,tWeldgun;
    MoveL [[33.201,133.993,3.000],[1,0,0,0]],v50,fine,tWeldgun;
    MoveL [[33.458,133.999,3.000],[1,0,0,0]],v50,fine,tWeldgun;
    MoveL [[34.634,134.049,3.000],[1,0,0,0]],v50,fine,tWeldgun;
    MoveL [[34.763,134.055,3.000],[1,0,0,0]],v50,fine,tWeldgun;
    MoveL [[35.019,134.071,3.000],[1,0,0,0]],v50,fine,tWeldgun;
    MoveL [[36.192,134.172,3.000],[1,0,0,0]],v50,fine,tWeldgun;
    MoveL [[36.320,134.183,3.000],[1,0,0,0]],v50,fine,tWeldgun;
    MoveL [[36.576,134.211,3.000],[1,0,0,0]],v50,fine,tWeldgun;
    MoveL [[37.744,134.361,3.000],[1,0,0,0]],v50,fine,tWeldgun;
    MoveL [[37.871,134.378,3.000],[1,0,0,0]],v50,fine,tWeldgun;
    MoveL [[38.125,134.416,3.000],[1,0,0,0]],v50,fine,tWeldgun;
    MoveL [[39.285,134.617,3.000],[1,0,0,0]],v50,fine,tWeldgun;
    MoveL [[39.412,134.639,3.000],[1,0,0,0]],v50,fine,tWeldgun;
    MoveL [[39.664,134.688,3.000],[1,0,0,0]],v50,fine,tWeldgun;
    MoveL [[40.815,134.939,3.000],[1,0,0,0]],v50,fine,tWeldgun;
    MoveL [[40.940,134.966,3.000],[1,0,0,0]],v50,fine,tWeldgun;
    MoveL [[41.190,135.026,3.000],[1,0,0,0]],v50,fine,tWeldgun;
    MoveL [[42.329,135.325,3.000],[1,0,0,0]],v50,fine,tWeldgun;
    MoveL [[42.453,135.358,3.000],[1,0,0,0]],v50,fine,tWeldgun;
    MoveL [[42.700,135.429,3.000],[1,0,0,0]],v50,fine,tWeldgun;
    MoveL [[43.825,135.776,3.000],[1,0,0,0]],v50,fine,tWeldgun;
    MoveL [[43.948,135.814,3.000],[1,0,0,0]],v50,fine,tWeldgun;
    MoveL [[44.192,135.896,3.000],[1,0,0,0]],v50,fine,tWeldgun;
    MoveL [[45.300,136.291,3.000],[1,0,0,0]],v50,fine,tWeldgun;
    MoveL [[45.421,136.334,3.000],[1,0,0,0]],v50,fine,tWeldgun;
    MoveL [[45.662,136.426,3.000],[1,0,0,0]],v50,fine,tWeldgun;
    MoveL [[46.752,136.869,3.000],[1,0,0,0]],v50,fine,tWeldgun;
    MoveL [[46.872,136.917,3.000],[1,0,0,0]],v50,fine,tWeldgun;
    MoveL [[47.108,137.019,3.000],[1,0,0,0]],v50,fine,tWeldgun;
    MoveL [[48.178,137.508,3.000],[1,0,0,0]],v50,fine,tWeldgun;
    MoveL [[48.295,137.561,3.000],[1,0,0,0]],v50,fine,tWeldgun;
    MoveL [[48.527,137.673,3.000],[1,0,0,0]],v50,fine,tWeldgun;
    MoveL [[49.576,138.208,3.000],[1,0,0,0]],v50,fine,tWeldgun;
    MoveL [[49.690,138.266,3.000],[1,0,0,0]],v50,fine,tWeldgun;
    MoveL [[49.917,138.388,3.000],[1,0,0,0]],v50,fine,tWeldgun;
    MoveL [[50.942,138.967,3.000],[1,0,0,0]],v50,fine,tWeldgun;
    MoveL [[51.054,139.030,3.000],[1,0,0,0]],v50,fine,tWeldgun;
    MoveL [[51.275,139.161,3.000],[1,0,0,0]],v50,fine,tWeldgun;
    MoveL [[52.274,139.783,3.000],[1,0,0,0]],v50,fine,tWeldgun;
    MoveL [[52.383,139.851,3.000],[1,0,0,0]],v50,fine,tWeldgun;
    MoveL [[52.599,139.992,3.000],[1,0,0,0]],v50,fine,tWeldgun;
    MoveL [[53.570,140.656,3.000],[1,0,0,0]],v50,fine,tWeldgun;
    MoveL [[53.676,140.729,3.000],[1,0,0,0]],v50,fine,tWeldgun;
    MoveL [[53.885,140.879,3.000],[1,0,0,0]],v50,fine,tWeldgun;
    MoveL [[54.256,141.156,3.000],[1,0,0,0]],v50,fine,tWeldgun;
    MoveL [[54.524,140.956,3.000],[1,0,0,0]],v50,fine,tWeldgun;
    MoveL [[54.627,140.879,3.000],[1,0,0,0]],v50,fine,tWeldgun;
    MoveL [[54.836,140.729,3.000],[1,0,0,0]],v50,fine,tWeldgun;
    MoveL [[55.808,140.064,3.000],[1,0,0,0]],v50,fine,tWeldgun;
    MoveL [[55.914,139.992,3.000],[1,0,0,0]],v50,fine,tWeldgun;
    MoveL [[56.129,139.851,3.000],[1,0,0,0]],v50,fine,tWeldgun;
    MoveL [[57.129,139.229,3.000],[1,0,0,0]],v50,fine,tWeldgun;
    MoveL [[57.238,139.161,3.000],[1,0,0,0]],v50,fine,tWeldgun;
    MoveL [[57.459,139.030,3.000],[1,0,0,0]],v50,fine,tWeldgun;
    MoveL [[58.484,138.451,3.000],[1,0,0,0]],v50,fine,tWeldgun;
    MoveL [[58.596,138.388,3.000],[1,0,0,0]],v50,fine,tWeldgun;
    MoveL [[58.822,138.266,3.000],[1,0,0,0]],v50,fine,tWeldgun;
    MoveL [[59.871,137.732,3.000],[1,0,0,0]],v50,fine,tWeldgun;
    MoveL [[59.986,137.673,3.000],[1,0,0,0]],v50,fine,tWeldgun;
    MoveL [[60.217,137.561,3.000],[1,0,0,0]],v50,fine,tWeldgun;
    MoveL [[61.288,137.072,3.000],[1,0,0,0]],v50,fine,tWeldgun;
    MoveL [[61.405,137.019,3.000],[1,0,0,0]],v50,fine,tWeldgun;
    MoveL [[61.641,136.917,3.000],[1,0,0,0]],v50,fine,tWeldgun;
    MoveL [[62.732,136.474,3.000],[1,0,0,0]],v50,fine,tWeldgun;
    MoveL [[62.851,136.426,3.000],[1,0,0,0]],v50,fine,tWeldgun;
    MoveL [[63.091,136.334,3.000],[1,0,0,0]],v50,fine,tWeldgun;
    MoveL [[64.200,135.939,3.000],[1,0,0,0]],v50,fine,tWeldgun;
    MoveL [[64.321,135.896,3.000],[1,0,0,0]],v50,fine,tWeldgun;
    MoveL [[64.565,135.814,3.000],[1,0,0,0]],v50,fine,tWeldgun;
    MoveL [[65.690,135.467,3.000],[1,0,0,0]],v50,fine,tWeldgun;
    MoveL [[65.813,135.429,3.000],[1,0,0,0]],v50,fine,tWeldgun;
    MoveL [[66.060,135.358,3.000],[1,0,0,0]],v50,fine,tWeldgun;
    MoveL [[67.198,135.059,3.000],[1,0,0,0]],v50,fine,tWeldgun;
    MoveL [[67.323,135.026,3.000],[1,0,0,0]],v50,fine,tWeldgun;
    MoveL [[67.573,134.966,3.000],[1,0,0,0]],v50,fine,tWeldgun;
    MoveL [[68.723,134.716,3.000],[1,0,0,0]],v50,fine,tWeldgun;
    MoveL [[68.848,134.688,3.000],[1,0,0,0]],v50,fine,tWeldgun;
    MoveL [[69.101,134.639,3.000],[1,0,0,0]],v50,fine,tWeldgun;
    MoveL [[70.261,134.438,3.000],[1,0,0,0]],v50,fine,tWeldgun;
    MoveL [[70.387,134.416,3.000],[1,0,0,0]],v50,fine,tWeldgun;
    MoveL [[70.642,134.378,3.000],[1,0,0,0]],v50,fine,tWeldgun;
    MoveL [[71.809,134.227,3.000],[1,0,0,0]],v50,fine,tWeldgun;
    MoveL [[71.937,134.211,3.000],[1,0,0,0]],v50,fine,tWeldgun;
    MoveL [[72.192,134.183,3.000],[1,0,0,0]],v50,fine,tWeldgun;
    MoveL [[73.365,134.082,3.000],[1,0,0,0]],v50,fine,tWeldgun;
    MoveL [[73.493,134.071,3.000],[1,0,0,0]],v50,fine,tWeldgun;
    MoveL [[73.750,134.055,3.000],[1,0,0,0]],v50,fine,tWeldgun;
    MoveL [[74.926,134.004,3.000],[1,0,0,0]],v50,fine,tWeldgun;
    MoveL [[75.054,133.999,3.000],[1,0,0,0]],v50,fine,tWeldgun;
    MoveL [[75.311,133.993,3.000],[1,0,0,0]],v50,fine,tWeldgun;
    MoveL [[76.617,133.993,3.000],[1,0,0,0]],v50,fine,tWeldgun;
    MoveL [[76.874,133.999,3.000],[1,0,0,0]],v50,fine,tWeldgun;
    MoveL [[78.050,134.049,3.000],[1,0,0,0]],v50,fine,tWeldgun;
    MoveL [[78.179,134.055,3.000],[1,0,0,0]],v50,fine,tWeldgun;
    MoveL [[78.435,134.071,3.000],[1,0,0,0]],v50,fine,tWeldgun;
    MoveL [[79.608,134.172,3.000],[1,0,0,0]],v50,fine,tWeldgun;
    MoveL [[79.736,134.183,3.000],[1,0,0,0]],v50,fine,tWeldgun;
    MoveL [[79.992,134.211,3.000],[1,0,0,0]],v50,fine,tWeldgun;
    MoveL [[81.160,134.361,3.000],[1,0,0,0]],v50,fine,tWeldgun;
    MoveL [[81.287,134.378,3.000],[1,0,0,0]],v50,fine,tWeldgun;
    MoveL [[81.541,134.416,3.000],[1,0,0,0]],v50,fine,tWeldgun;
    MoveL [[82.701,134.617,3.000],[1,0,0,0]],v50,fine,tWeldgun;
    MoveL [[82.828,134.639,3.000],[1,0,0,0]],v50,fine,tWeldgun;
    MoveL [[83.080,134.688,3.000],[1,0,0,0]],v50,fine,tWeldgun;
    MoveL [[84.231,134.939,3.000],[1,0,0,0]],v50,fine,tWeldgun;
    MoveL [[84.356,134.966,3.000],[1,0,0,0]],v50,fine,tWeldgun;
    MoveL [[84.606,135.026,3.000],[1,0,0,0]],v50,fine,tWeldgun;
    MoveL [[85.745,135.325,3.000],[1,0,0,0]],v50,fine,tWeldgun;
    MoveL [[85.869,135.358,3.000],[1,0,0,0]],v50,fine,tWeldgun;
    MoveL [[86.116,135.429,3.000],[1,0,0,0]],v50,fine,tWeldgun;
    MoveL [[87.241,135.776,3.000],[1,0,0,0]],v50,fine,tWeldgun;
    MoveL [[87.364,135.814,3.000],[1,0,0,0]],v50,fine,tWeldgun;
    MoveL [[87.608,135.896,3.000],[1,0,0,0]],v50,fine,tWeldgun;
    MoveL [[88.716,136.291,3.000],[1,0,0,0]],v50,fine,tWeldgun;
    MoveL [[88.837,136.334,3.000],[1,0,0,0]],v50,fine,tWeldgun;
    MoveL [[89.078,136.426,3.000],[1,0,0,0]],v50,fine,tWeldgun;
    MoveL [[90.168,136.869,3.000],[1,0,0,0]],v50,fine,tWeldgun;
    MoveL [[90.288,136.917,3.000],[1,0,0,0]],v50,fine,tWeldgun;
    MoveL [[90.524,137.019,3.000],[1,0,0,0]],v50,fine,tWeldgun;
    MoveL [[91.594,137.508,3.000],[1,0,0,0]],v50,fine,tWeldgun;
    MoveL [[91.711,137.561,3.000],[1,0,0,0]],v50,fine,tWeldgun;
    MoveL [[91.943,137.673,3.000],[1,0,0,0]],v50,fine,tWeldgun;
    MoveL [[92.992,138.208,3.000],[1,0,0,0]],v50,fine,tWeldgun;
    MoveL [[93.106,138.266,3.000],[1,0,0,0]],v50,fine,tWeldgun;
    MoveL [[93.333,138.388,3.000],[1,0,0,0]],v50,fine,tWeldgun;
    MoveL [[94.358,138.967,3.000],[1,0,0,0]],v50,fine,tWeldgun;
    MoveL [[94.470,139.030,3.000],[1,0,0,0]],v50,fine,tWeldgun;
    MoveL [[94.691,139.161,3.000],[1,0,0,0]],v50,fine,tWeldgun;
    MoveL [[95.690,139.783,3.000],[1,0,0,0]],v50,fine,tWeldgun;
    MoveL [[95.799,139.851,3.000],[1,0,0,0]],v50,fine,tWeldgun;
    MoveL [[95.827,139.869,3.000],[1,0,0,0]],v50,fine,tWeldgun;
    MoveL [[96.778,137.833,3.000],[1,0,0,0]],v50,fine,tWeldgun;
    MoveL [[96.853,137.653,3.000],[1,0,0,0]],v50,fine,tWeldgun;
    MoveL [[97.949,135.012,3.000],[1,0,0,0]],v50,fine,tWeldgun;
    MoveL [[98.017,134.828,3.000],[1,0,0,0]],v50,fine,tWeldgun;
    MoveL [[98.997,132.143,3.000],[1,0,0,0]],v50,fine,tWeldgun;
    MoveL [[99.056,131.956,3.000],[1,0,0,0]],v50,fine,tWeldgun;
    MoveL [[99.919,129.230,3.000],[1,0,0,0]],v50,fine,tWeldgun;
    MoveL [[99.970,129.041,3.000],[1,0,0,0]],v50,fine,tWeldgun;
    MoveL [[100.713,126.281,3.000],[1,0,0,0]],v50,fine,tWeldgun;
    MoveL [[100.756,126.089,3.000],[1,0,0,0]],v50,fine,tWeldgun;
    MoveL [[101.379,123.299,3.000],[1,0,0,0]],v50,fine,tWeldgun;
    MoveL [[101.413,123.106,3.000],[1,0,0,0]],v50,fine,tWeldgun;
    MoveL [[101.913,120.291,3.000],[1,0,0,0]],v50,fine,tWeldgun;
    MoveL [[101.939,120.097,3.000],[1,0,0,0]],v50,fine,tWeldgun;
    MoveL [[102.317,117.263,3.000],[1,0,0,0]],v50,fine,tWeldgun;
    MoveL [[102.334,117.068,3.000],[1,0,0,0]],v50,fine,tWeldgun;
    MoveL [[102.588,114.221,3.000],[1,0,0,0]],v50,fine,tWeldgun;
    MoveL [[102.597,114.025,3.000],[1,0,0,0]],v50,fine,tWeldgun;
    MoveL [[102.727,111.169,3.000],[1,0,0,0]],v50,fine,tWeldgun;
    MoveL [[102.728,110.973,3.000],[1,0,0,0]],v50,fine,tWeldgun;
    MoveL [[102.733,108.114,3.000],[1,0,0,0]],v50,fine,tWeldgun;
    MoveL [[102.725,107.919,3.000],[1,0,0,0]],v50,fine,tWeldgun;
    MoveL [[102.606,105.062,3.000],[1,0,0,0]],v50,fine,tWeldgun;
    MoveL [[102.589,104.867,3.000],[1,0,0,0]],v50,fine,tWeldgun;
    MoveL [[102.346,102.018,3.000],[1,0,0,0]],v50,fine,tWeldgun;
    MoveL [[102.321,101.824,3.000],[1,0,0,0]],v50,fine,tWeldgun;
    MoveL [[101.955,98.989,3.000],[1,0,0,0]],v50,fine,tWeldgun;
    MoveL [[101.921,98.796,3.000],[1,0,0,0]],v50,fine,tWeldgun;
    MoveL [[101.431,95.979,3.000],[1,0,0,0]],v50,fine,tWeldgun;
    MoveL [[101.389,95.788,3.000],[1,0,0,0]],v50,fine,tWeldgun;
    MoveL [[100.777,92.995,3.000],[1,0,0,0]],v50,fine,tWeldgun;
    MoveL [[100.727,92.806,3.000],[1,0,0,0]],v50,fine,tWeldgun;
    MoveL [[99.995,90.042,3.000],[1,0,0,0]],v50,fine,tWeldgun;
    MoveL [[99.936,89.855,3.000],[1,0,0,0]],v50,fine,tWeldgun;
    MoveL [[99.084,87.126,3.000],[1,0,0,0]],v50,fine,tWeldgun;
    MoveL [[99.017,86.942,3.000],[1,0,0,0]],v50,fine,tWeldgun;
    MoveL [[98.047,84.253,3.000],[1,0,0,0]],v50,fine,tWeldgun;
    MoveL [[97.973,84.072,3.000],[1,0,0,0]],v50,fine,tWeldgun;
    MoveL [[96.886,81.427,3.000],[1,0,0,0]],v50,fine,tWeldgun;
    MoveL [[96.804,81.250,3.000],[1,0,0,0]],v50,fine,tWeldgun;
    MoveL [[95.604,78.655,3.000],[1,0,0,0]],v50,fine,tWeldgun;
    MoveL [[95.514,78.481,3.000],[1,0,0,0]],v50,fine,tWeldgun;
    MoveL [[94.202,75.941,3.000],[1,0,0,0]],v50,fine,tWeldgun;
    MoveL [[94.105,75.771,3.000],[1,0,0,0]],v50,fine,tWeldgun;
    MoveL [[92.683,73.290,3.000],[1,0,0,0]],v50,fine,tWeldgun;
    MoveL [[92.579,73.125,3.000],[1,0,0,0]],v50,fine,tWeldgun;
    MoveL [[91.051,70.708,3.000],[1,0,0,0]],v50,fine,tWeldgun;
    MoveL [[90.939,70.547,3.000],[1,0,0,0]],v50,fine,tWeldgun;
    MoveL [[89.307,68.200,3.000],[1,0,0,0]],v50,fine,tWeldgun;
    MoveL [[89.189,68.044,3.000],[1,0,0,0]],v50,fine,tWeldgun;
    MoveL [[87.457,65.769,3.000],[1,0,0,0]],v50,fine,tWeldgun;
    MoveL [[87.331,65.619,3.000],[1,0,0,0]],v50,fine,tWeldgun;
    MoveL [[85.502,63.422,3.000],[1,0,0,0]],v50,fine,tWeldgun;
    MoveL [[85.370,63.277,3.000],[1,0,0,0]],v50,fine,tWeldgun;
    MoveL [[83.447,61.162,3.000],[1,0,0,0]],v50,fine,tWeldgun;
    MoveL [[83.309,61.023,3.000],[1,0,0,0]],v50,fine,tWeldgun;
    MoveL [[81.295,58.993,3.000],[1,0,0,0]],v50,fine,tWeldgun;
    MoveL [[81.151,58.860,3.000],[1,0,0,0]],v50,fine,tWeldgun;
    MoveL [[79.051,56.920,3.000],[1,0,0,0]],v50,fine,tWeldgun;
    MoveL [[78.902,56.794,3.000],[1,0,0,0]],v50,fine,tWeldgun;
    MoveL [[76.719,54.947,3.000],[1,0,0,0]],v50,fine,tWeldgun;
    MoveL [[76.565,54.827,3.000],[1,0,0,0]],v50,fine,tWeldgun;
    MoveL [[74.304,53.077,3.000],[1,0,0,0]],v50,fine,tWeldgun;
    MoveL [[74.144,52.964,3.000],[1,0,0,0]],v50,fine,tWeldgun;
    MoveL [[71.809,51.314,3.000],[1,0,0,0]],v50,fine,tWeldgun;
    MoveL [[71.645,51.208,3.000],[1,0,0,0]],v50,fine,tWeldgun;
    MoveL [[69.240,49.661,3.000],[1,0,0,0]],v50,fine,tWeldgun;
    MoveL [[69.071,49.562,3.000],[1,0,0,0]],v50,fine,tWeldgun;
    MoveL [[66.602,48.121,3.000],[1,0,0,0]],v50,fine,tWeldgun;
    MoveL [[66.429,48.030,3.000],[1,0,0,0]],v50,fine,tWeldgun;
    MoveL [[63.899,46.697,3.000],[1,0,0,0]],v50,fine,tWeldgun;
    MoveL [[63.722,46.614,3.000],[1,0,0,0]],v50,fine,tWeldgun;
    MoveL [[61.137,45.393,3.000],[1,0,0,0]],v50,fine,tWeldgun;
    MoveL [[60.956,45.317,3.000],[1,0,0,0]],v50,fine,tWeldgun;
    MoveL [[58.320,44.210,3.000],[1,0,0,0]],v50,fine,tWeldgun;
    MoveL [[58.137,44.142,3.000],[1,0,0,0]],v50,fine,tWeldgun;
    MoveL [[55.455,43.150,3.000],[1,0,0,0]],v50,fine,tWeldgun;
    MoveL [[55.269,43.091,3.000],[1,0,0,0]],v50,fine,tWeldgun;
    MoveL [[54.256,42.766,3.000],[1,0,0,0]],v50,fine,tWeldgun;
    MoveL [[53.057,43.150,3.000],[1,0,0,0]],v50,fine,tWeldgun;
    MoveL [[52.874,43.218,3.000],[1,0,0,0]],v50,fine,tWeldgun;
    MoveL [[50.192,44.210,3.000],[1,0,0,0]],v50,fine,tWeldgun;
    MoveL [[50.012,44.286,3.000],[1,0,0,0]],v50,fine,tWeldgun;
    MoveL [[47.376,45.393,3.000],[1,0,0,0]],v50,fine,tWeldgun;
    MoveL [[47.199,45.477,3.000],[1,0,0,0]],v50,fine,tWeldgun;
    MoveL [[44.614,46.697,3.000],[1,0,0,0]],v50,fine,tWeldgun;
    MoveL [[44.440,46.789,3.000],[1,0,0,0]],v50,fine,tWeldgun;
    MoveL [[41.911,48.121,3.000],[1,0,0,0]],v50,fine,tWeldgun;
    MoveL [[41.742,48.220,3.000],[1,0,0,0]],v50,fine,tWeldgun;
    MoveL [[39.272,49.661,3.000],[1,0,0,0]],v50,fine,tWeldgun;
    MoveL [[39.108,49.766,3.000],[1,0,0,0]],v50,fine,tWeldgun;
    MoveL [[36.703,51.314,3.000],[1,0,0,0]],v50,fine,tWeldgun;
    MoveL [[36.543,51.427,3.000],[1,0,0,0]],v50,fine,tWeldgun;
    MoveL [[34.209,53.077,3.000],[1,0,0,0]],v50,fine,tWeldgun;
    MoveL [[34.054,53.197,3.000],[1,0,0,0]],v50,fine,tWeldgun;
    MoveL [[31.793,54.947,3.000],[1,0,0,0]],v50,fine,tWeldgun;
    MoveL [[31.644,55.073,3.000],[1,0,0,0]],v50,fine,tWeldgun;
    MoveL [[29.461,56.920,3.000],[1,0,0,0]],v50,fine,tWeldgun;
    MoveL [[29.318,57.053,3.000],[1,0,0,0]],v50,fine,tWeldgun;
    MoveL [[27.218,58.993,3.000],[1,0,0,0]],v50,fine,tWeldgun;
    MoveL [[27.080,59.132,3.000],[1,0,0,0]],v50,fine,tWeldgun;
    MoveL [[25.066,61.162,3.000],[1,0,0,0]],v50,fine,tWeldgun;
    MoveL [[24.934,61.307,3.000],[1,0,0,0]],v50,fine,tWeldgun;
    MoveL [[23.011,63.422,3.000],[1,0,0,0]],v50,fine,tWeldgun;
    MoveL [[22.886,63.572,3.000],[1,0,0,0]],v50,fine,tWeldgun;
    MoveL [[21.056,65.769,3.000],[1,0,0,0]],v50,fine,tWeldgun;
    MoveL [[20.937,65.925,3.000],[1,0,0,0]],v50,fine,tWeldgun;
    MoveL [[19.205,68.200,3.000],[1,0,0,0]],v50,fine,tWeldgun;
    MoveL [[19.094,68.360,3.000],[1,0,0,0]],v50,fine,tWeldgun;
    MoveL [[17.462,70.708,3.000],[1,0,0,0]],v50,fine,tWeldgun;
    MoveL [[17.357,70.874,3.000],[1,0,0,0]],v50,fine,tWeldgun;
    MoveL [[15.829,73.290,3.000],[1,0,0,0]],v50,fine,tWeldgun;
    MoveL [[15.732,73.460,3.000],[1,0,0,0]],v50,fine,tWeldgun;
    MoveL [[14.311,75.941,3.000],[1,0,0,0]],v50,fine,tWeldgun;
    MoveL [[14.221,76.115,3.000],[1,0,0,0]],v50,fine,tWeldgun;
    MoveL [[12.909,78.655,3.000],[1,0,0,0]],v50,fine,tWeldgun;
    MoveL [[12.826,78.832,3.000],[1,0,0,0]],v50,fine,tWeldgun;
    MoveL [[11.626,81.427,3.000],[1,0,0,0]],v50,fine,tWeldgun;
    MoveL [[11.552,81.608,3.000],[1,0,0,0]],v50,fine,tWeldgun;
    MoveL [[10.465,84.253,3.000],[1,0,0,0]],v50,fine,tWeldgun;
    MoveL [[10.399,84.437,3.000],[1,0,0,0]],v50,fine,tWeldgun;
    MoveL [[9.429,87.126,3.000],[1,0,0,0]],v50,fine,tWeldgun;
    MoveL [[9.370,87.313,3.000],[1,0,0,0]],v50,fine,tWeldgun;
    MoveL [[8.518,90.042,3.000],[1,0,0,0]],v50,fine,tWeldgun;
    MoveL [[8.468,90.232,3.000],[1,0,0,0]],v50,fine,tWeldgun;
    MoveL [[7.735,92.995,3.000],[1,0,0,0]],v50,fine,tWeldgun;
    MoveL [[7.693,93.186,3.000],[1,0,0,0]],v50,fine,tWeldgun;
    MoveL [[7.081,95.979,3.000],[1,0,0,0]],v50,fine,tWeldgun;
    MoveL [[7.048,96.172,3.000],[1,0,0,0]],v50,fine,tWeldgun;
    MoveL [[6.558,98.989,3.000],[1,0,0,0]],v50,fine,tWeldgun;
    MoveL [[6.533,99.183,3.000],[1,0,0,0]],v50,fine,tWeldgun;
    MoveL [[6.166,102.018,3.000],[1,0,0,0]],v50,fine,tWeldgun;
    MoveL [[6.150,102.213,3.000],[1,0,0,0]],v50,fine,tWeldgun;
    MoveL [[5.907,105.062,3.000],[1,0,0,0]],v50,fine,tWeldgun;
    MoveL [[5.898,105.258,3.000],[1,0,0,0]],v50,fine,tWeldgun;
    MoveL [[5.780,108.114,3.000],[1,0,0,0]],v50,fine,tWeldgun;
    MoveL [[5.780,108.310,3.000],[1,0,0,0]],v50,fine,tWeldgun;
    MoveL [[5.785,111.169,3.000],[1,0,0,0]],v50,fine,tWeldgun;
    MoveL [[5.794,111.365,3.000],[1,0,0,0]],v50,fine,tWeldgun;
    MoveL [[5.924,114.221,3.000],[1,0,0,0]],v50,fine,tWeldgun;
    MoveL [[5.942,114.416,3.000],[1,0,0,0]],v50,fine,tWeldgun;
    MoveL [[6.196,117.263,3.000],[1,0,0,0]],v50,fine,tWeldgun;
    MoveL [[6.222,117.458,3.000],[1,0,0,0]],v50,fine,tWeldgun;
    MoveL [[6.599,120.291,3.000],[1,0,0,0]],v50,fine,tWeldgun;
    MoveL [[6.633,120.484,3.000],[1,0,0,0]],v50,fine,tWeldgun;
    MoveL [[7.134,123.299,3.000],[1,0,0,0]],v50,fine,tWeldgun;
    MoveL [[7.177,123.490,3.000],[1,0,0,0]],v50,fine,tWeldgun;
    MoveL [[7.799,126.281,3.000],[1,0,0,0]],v50,fine,tWeldgun;
    MoveL [[7.850,126.470,3.000],[1,0,0,0]],v50,fine,tWeldgun;
    MoveL [[8.594,129.230,3.000],[1,0,0,0]],v50,fine,tWeldgun;
    MoveL [[8.653,129.417,3.000],[1,0,0,0]],v50,fine,tWeldgun;
    MoveL [[9.516,132.143,3.000],[1,0,0,0]],v50,fine,tWeldgun;
    MoveL [[9.583,132.327,3.000],[1,0,0,0]],v50,fine,tWeldgun;
    MoveL [[10.563,135.012,3.000],[1,0,0,0]],v50,fine,tWeldgun;
    MoveL [[10.638,135.193,3.000],[1,0,0,0]],v50,fine,tWeldgun;
    MoveL [[11.735,137.833,3.000],[1,0,0,0]],v50,fine,tWeldgun;
    MoveL [[11.818,138.011,3.000],[1,0,0,0]],v50,fine,tWeldgun;
    MoveL [[12.686,139.869,3.000],[1,0,0,0]],v50,fine,tWeldgun;
    WaitTime 10.0;
    !   Outer pass 2
    MoveL [[17.780,108.352,3.000],[1,0,0,0]],v500,fine,tool0;
    MoveL [[17.785,110.885,3.000],[1,0,0,0]],v50,fine,tWeldgun;
    MoveL [[17.900,113.415,3.000],[1,0,0,0]],v50,fine,tWeldgun;
    MoveL [[18.125,115.937,3.000],[1,0,0,0]],v50,fine,tWeldgun;
    MoveL [[18.460,118.447,3.000],[1,0,0,0]],v50,fine,tWeldgun;
    MoveL [[18.903,120.941,3.000],[1,0,0,0]],v50,fine,tWeldgun;
    MoveL [[19.454,123.412,3.000],[1,0,0,0]],v50,fine,tWeldgun;
    MoveL [[19.549,123.764,3.000],[1,0,0,0]],v50,fine,tWeldgun;
    MoveL [[19.593,123.752,3.000],[1,0,0,0]],v50,fine,tWeldgun;
    MoveL [[20.731,123.453,3.000],[1,0,0,0]],v50,fine,tWeldgun;
    MoveL [[20.856,123.420,3.000],[1,0,0,0]],v50,fine,tWeldgun;
    MoveL [[21.105,123.358,3.000],[1,0,0,0]],v50,fine,tWeldgun;
    MoveL [[21.355,123.298,3.000],[1,0,0,0]],v50,fine,tWeldgun;
    MoveL [[21.605,123.240,3.000],[1,0,0,0]],v50,fine,tWeldgun;
    MoveL [[22.756,122.990,3.000],[1,0,0,0]],v50,fine,tWeldgun;
    MoveL [[22.881,122.963,3.000],[1,0,0,0]],v50,fine,tWeldgun;
    MoveL [[23.133,122.911,3.000],[1,0,0,0]],v50,fine,tWeldgun;
    MoveL [[23.385,122.861,3.000],[1,0,0,0]],v50,fine,tWeldgun;
    MoveL [[23.638,122.815,3.000],[1,0,0,0]],v50,fine,tWeldgun;
    MoveL [[24.798,122.614,3.000],[1,0,0,0]],v50,fine,tWeldgun;
    MoveL [[24.925,122.592,3.000],[1,0,0,0]],v50,fine,tWeldgun;
    MoveL [[25.179,122.551,3.000],[1,0,0,0]],v50,fine,tWeldgun;
    MoveL [[25.433,122.513,3.000],[1,0,0,0]],v50,fine,tWeldgun;
    MoveL [[25.687,122.477,3.000],[1,0,0,0]],v50,fine,tWeldgun;
    MoveL [[26.855,122.326,3.000],[1,0,0,0]],v50,fine,tWeldgun;
    MoveL [[26.982,122.310,3.000],[1,0,0,0]],v50,fine,tWeldgun;
    MoveL [[27.238,122.279,3.000],[1,0,0,0]],v50,fine,tWeldgun;
    MoveL [[27.493,122.252,3.000],[1,0,0,0]],v50,fine,tWeldgun;
    MoveL [[27.749,122.227,3.000],[1,0,0,0]],v50,fine,tWeldgun;
    MoveL [[28.922,122.126,3.000],[1,0,0,0]],v50,fine,tWeldgun;
    MoveL [[29.050,122.115,3.000],[1,0,0,0]],v50,fine,tWeldgun;
    MoveL [[29.307,122.096,3.000],[1,0,0,0]],v50,fine,tWeldgun;
    MoveL [[29.563,122.080,3.000],[1,0,0,0]],v50,fine,tWeldgun;
    MoveL [[29.820,122.066,3.000],[1,0,0,0]],v50,fine,tWeldgun;
    MoveL [[30.996,122.015,3.000],[1,0,0,0]],v50,fine,tWeldgun;
    MoveL [[31.124,122.010,3.000],[1,0,0,0]],v50,fine,tWeldgun;
    MoveL [[31.381,122.002,3.000],[1,0,0,0]],v50,fine,tWeldgun;
    MoveL [[31.638,121.996,3.000],[1,0,0,0]],v50,fine,tWeldgun;
    MoveL [[31.895,121.993,3.000],[1,0,0,0]],v50,fine,tWeldgun;
    MoveL [[33.201,121.993,3.000],[1,0,0,0]],v50,fine,tWeldgun;
    MoveL [[33.458,121.996,3.000],[1,0,0,0]],v50,fine,tWeldgun;
    MoveL [[33.715,122.002,3.000],[1,0,0,0]],v50,fine,tWeldgun;
    MoveL [[33.972,122.010,3.000],[1,0,0,0]],v50,fine,tWeldgun;
    MoveL [[35.148,122.060,3.000],[1,0,0,0]],v50,fine,tWeldgun;
    MoveL [[35.277,122.066,3.000],[1,0,0,0]],v50,fine,tWeldgun;
    MoveL [[35.534,122.080,3.000],[1,0,0,0]],v50,fine,tWeldgun;
    MoveL [[35.790,122.096,3.000],[1,0,0,0]],v50,fine,tWeldgun;
    MoveL [[36.046,122.115,3.000],[1,0,0,0]],v50,fine,tWeldgun;
    MoveL [[37.219,122.216,3.000],[1,0,0,0]],v50,fine,tWeldgun;
    MoveL [[37.347,122.227,3.000],[1,0,0,0]],v50,fine,tWeldgun;
    MoveL [[37.603,122.252,3.000],[1,0,0,0]],v50,fine,tWeldgun;
    MoveL [[37.859,122.279,3.000],[1,0,0,0]],v50,fine,tWeldgun;
    MoveL [[38.114,122.310,3.000],[1,0,0,0]],v50,fine,tWeldgun;
    MoveL [[39.282,122.460,3.000],[1,0,0,0]],v50,fine,tWeldgun;
    MoveL [[39.409,122.477,3.000],[1,0,0,0]],v50,fine,tWeldgun;
    MoveL [[39.664,122.513,3.000],[1,0,0,0]],v50,fine,tWeldgun;
    MoveL [[39.918,122.551,3.000],[1,0,0,0]],v50,fine,tWeldgun;
    MoveL [[40.172,122.592,3.000],[1,0,0,0]],v50,fine,tWeldgun;
    MoveL [[41.332,122.793,3.000],[1,0,0,0]],v50,fine,tWeldgun;
    MoveL [[41.458,122.815,3.000],[1,0,0,0]],v50,fine,tWeldgun;
    MoveL [[41.711,122.861,3.000],[1,0,0,0]],v50,fine,tWeldgun;
    MoveL [[41.963,122.911,3.000],[1,0,0,0]],v50,fine,tWeldgun;
    MoveL [[42.215,122.963,3.000],[1,0,0,0]],v50,fine,tWeldgun;
    MoveL [[43.366,123.213,3.000],[1,0,0,0]],v50,fine,tWeldgun;
    MoveL [[43.491,123.240,3.000],[1,0,0,0]],v50,fine,tWeldgun;
    MoveL [[43.742,123.298,3.000],[1,0,0,0]],v50,fine,tWeldgun;
    MoveL [[43.992,123.358,3.000],[1,0,0,0]],v50,fine,tWeldgun;
    MoveL [[44.241,123.420,3.000],[1,0,0,0]],v50,fine,tWeldgun;
    MoveL [[45.380,123.720,3.000],[1,0,0,0]],v50,fine,tWeldgun;
    MoveL [[45.504,123.752,3.000],[1,0,0,0]],v50,fine,tWeldgun;
    MoveL [[45.752,123.820,3.000],[1,0,0,0]],v50,fine,tWeldgun;
    MoveL [[45.999,123.891,3.000],[1,0,0,0]],v50,fine,tWeldgun;
    MoveL [[46.245,123.964,3.000],[1,0,0,0]],v50,fine,tWeldgun;
    MoveL [[47.370,124.312,3.000],[1,0,0,0]],v50,fine,tWeldgun;
    MoveL [[47.493,124.350,3.000],[1,0,0,0]],v50,fine,tWeldgun;
    MoveL [[47.738,124.429,3.000],[1,0,0,0]],v50,fine,tWeldgun;
    MoveL [[47.982,124.510,3.000],[1,0,0,0]],v50,fine,tWeldgun;
    MoveL [[48.225,124.594,3.000],[1,0,0,0]],v50,fine,tWeldgun;
    MoveL [[49.333,124.989,3.000],[1,0,0,0]],v50,fine,tWeldgun;
    MoveL [[49.454,125.032,3.000],[1,0,0,0]],v50,fine,tWeldgun;
    MoveL [[49.696,125.121,3.000],[1,0,0,0]],v50,fine,tWeldgun;
    MoveL [[49.936,125.213,3.000],[1,0,0,0]],v50,fine,tWeldgun;
    MoveL [[50.175,125.307,3.000],[1,0,0,0]],v50,fine,tWeldgun;
    MoveL [[51.266,125.750,3.000],[1,0,0,0]],v50,fine,tWeldgun;
    MoveL [[51.385,125.798,3.000],[1,0,0,0]],v50,fine,tWeldgun;
    MoveL [[51.622,125.898,3.000],[1,0,0,0]],v50,fine,tWeldgun;
    MoveL [[51.858,125.999,3.000],[1,0,0,0]],v50,fine,tWeldgun;
    MoveL [[52.093,126.104,3.000],[1,0,0,0]],v50,fine,tWeldgun;
    MoveL [[53.164,126.593,3.000],[1,0,0,0]],v50,fine,tWeldgun;
    MoveL [[53.281,126.646,3.000],[1,0,0,0]],v50,fine,tWeldgun;
    MoveL [[53.514,126.755,3.000],[1,0,0,0]],v50,fine,tWeldgun;
    MoveL [[53.745,126.867,3.000],[1,0,0,0]],v50,fine,tWeldgun;
    MoveL [[53.975,126.981,3.000],[1,0,0,0]],v50,fine,tWeldgun;
    MoveL [[54.256,127.125,3.000],[1,0,0,0]],v50,fine,tWeldgun;
    MoveL [[54.423,127.040,3.000],[1,0,0,0]],v50,fine,tWeldgun;
    MoveL [[54.537,126.981,3.000],[1,0,0,0]],v50,fine,tWeldgun;
    MoveL [[54.768,126.867,3.000],[1,0,0,0]],v50,fine,tWeldgun;
    MoveL [[54.999,126.755,3.000],[1,0,0,0]],v50,fine,tWeldgun;
    MoveL [[55.232,126.646,3.000],[1,0,0,0]],v50,fine,tWeldgun;
    MoveL [[56.303,126.157,3.000],[1,0,0,0]],v50,fine,tWeldgun;
    MoveL [[56.420,126.104,3.000],[1,0,0,0]],v50,fine,tWeldgun;
    MoveL [[56.654,125.999,3.000],[1,0,0,0]],v50,fine,tWeldgun;
    MoveL [[56.891,125.898,3.000],[1,0,0,0]],v50,fine,tWeldgun;
    MoveL [[57.128,125.798,3.000],[1,0,0,0]],v50,fine,tWeldgun;
    MoveL [[58.219,125.356,3.000],[1,0,0,0]],v50,fine,tWeldgun;
    MoveL [[58.338,125.307,3.000],[1,0,0,0]],v50,fine,tWeldgun;
    MoveL [[58.577,125.213,3.000],[1,0,0,0]],v50,fine,tWeldgun;
    MoveL [[58.817,125.121,3.000],[1,0,0,0]],v50,fine,tWeldgun;
    MoveL [[59.058,125.032,3.000],[1,0,0,0]],v50,fine,tWeldgun;
    MoveL [[60.167,124.637,3.000],[1,0,0,0]],v50,fine,tWeldgun;
    MoveL [[60.288,124.594,3.000],[1,0,0,0]],v50,fine,tWeldgun;
    MoveL [[60.531,124.510,3.000],[1,0,0,0]],v50,fine,tWeldgun;
    MoveL [[60.775,124.429,3.000],[1,0,0,0]],v50,fine,tWeldgun;
    MoveL [[61.020,124.350,3.000],[1,0,0,0]],v50,fine,tWeldgun;
    MoveL [[62.144,124.002,3.000],[1,0,0,0]],v50,fine,tWeldgun;
    MoveL [[62.267,123.964,3.000],[1,0,0,0]],v50,fine,tWeldgun;
    MoveL [[62.514,123.891,3.000],[1,0,0,0]],v50,fine,tWeldgun;
    MoveL [[62.761,123.820,3.000],[1,0,0,0]],v50,fine,tWeldgun;
    MoveL [[63.009,123.752,3.000],[1,0,0,0]],v50,fine,tWeldgun;
    MoveL [[64.147,123.453,3.000],[1,0,0,0]],v50,fine,tWeldgun;
    MoveL [[64.272,123.420,3.000],[1,0,0,0]],v50,fine,tWeldgun;
    MoveL [[64.521,123.358,3.000],[1,0,0,0]],v50,fine,tWeldgun;
    MoveL [[64.771,123.298,3.000],[1,0,0,0]],v50,fine,tWeldgun;
    MoveL [[65.021,123.240,3.000],[1,0,0,0]],v50,fine,tWeldgun;
    MoveL [[66.172,122.990,3.000],[1,0,0,0]],v50,fine,tWeldgun;
    MoveL [[66.297,122.963,3.000],[1,0,0,0]],v50,fine,tWeldgun;
    MoveL [[66.549,122.911,3.000],[1,0,0,0]],v50,fine,tWeldgun;
    MoveL [[66.801,122.861,3.000],[1,0,0,0]],v50,fine,tWeldgun;
    MoveL [[67.054,122.815,3.000],[1,0,0,0]],v50,fine,tWeldgun;
    MoveL [[68.214,122.614,3.000],[1,0,0,0]],v50,fine,tWeldgun;
    MoveL [[68.341,122.592,3.000],[1,0,0,0]],v50,fine,tWeldgun;
    MoveL [[68.595,122.551,3.000],[1,0,0,0]],v50,fine,tWeldgun;
    MoveL [[68.849,122.513,3.000],[1,0,0,0]],v50,fine,tWeldgun;
    MoveL [[69.103,122.477,3.000],[1,0,0,0]],v50,fine,tWeldgun;
    MoveL [[70.271,122.326,3.000],[1,0,0,0]],v50,fine,tWeldgun;
    MoveL [[70.398,122.310,3.000],[1,0,0,0]],v50,fine,tWeldgun;
    MoveL [[70.654,122.279,3.000],[1,0,0,0]],v50,fine,tWeldgun;
    MoveL [[70.909,122.252,3.000],[1,0,0,0]],v50,fine,tWeldgun;
    MoveL [[71.165,122.227,3.000],[1,0,0,0]],v50,fine,tWeldgun;
    MoveL [[72.338,122.126,3.000],[1,0,0,0]],v50,fine,tWeldgun;
    MoveL [[72.466,122.115,3.000],[1,0,0,0]],v50,fine,tWeldgun;
    MoveL [[72.723,122.096,3.000],[1,0,0,0]],v50,fine,tWeldgun;
    MoveL [[72.979,122.080,3.000],[1,0,0,0]],v50,fine,tWeldgun;
    MoveL [[73.236,122.066,3.000],[1,0,0,0]],v50,fine,tWeldgun;
    MoveL [[74.412,122.015,3.000],[1,0,0,0]],v50,fine,tWeldgun;
    MoveL [[74.540,122.010,3.000],[1,0,0,0]],v50,fine,tWeldgun;
    MoveL [[74.797,122.002,3.000],[1,0,0,0]],v50,fine,tWeldgun;
    MoveL [[75.054,121.996,3.000],[1,0,0,0]],v50,fine,tWeldgun;
    MoveL [[75.311,121.993,3.000],[1,0,0,0]],v50,fine,tWeldgun;
    MoveL [[76.617,121.993,3.000],[1,0,0,0]],v50,fine,tWeldgun;
    MoveL [[76.874,121.996,3.000],[1,0,0,0]],v50,fine,tWeldgun;
    MoveL [[77.131,122.002,3.000],[1,0,0,0]],v50,fine,tWeldgun;
    MoveL [[77.388,122.010,3.000],[1,0,0,0]],v50,fine,tWeldgun;
    MoveL [[78.564,122.060,3.000],[1,0,0,0]],v50,fine,tWeldgun;
    MoveL [[78.693,122.066,3.000],[1,0,0,0]],v50,fine,tWeldgun;
    MoveL [[78.950,122.080,3.000],[1,0,0,0]],v50,fine,tWeldgun;
    MoveL [[79.206,122.096,3.000],[1,0,0,0]],v50,fine,tWeldgun;
    MoveL [[79.462,122.115,3.000],[1,0,0,0]],v50,fine,tWeldgun;
    MoveL [[80.635,122.216,3.000],[1,0,0,0]],v50,fine,tWeldgun;
    MoveL [[80.763,122.227,3.000],[1,0,0,0]],v50,fine,tWeldgun;
    MoveL [[81.019,122.252,3.000],[1,0,0,0]],v50,fine,tWeldgun;
    MoveL [[81.275,122.279,3.000],[1,0,0,0]],v50,fine,tWeldgun;
    MoveL [[81.530,122.310,3.000],[1,0,0,0]],v50,fine,tWeldgun;
    MoveL [[82.698,122.460,3.000],[1,0,0,0]],v50,fine,tWeldgun;
    MoveL [[82.825,122.477,3.000],[1,0,0,0]],v50,fine,tWeldgun;
    MoveL [[83.080,122.513,3.000],[1,0,0,0]],v50,fine,tWeldgun;
    MoveL [[83.334,122.551,3.000],[1,0,0,0]],v50,fine,tWeldgun;
    MoveL [[83.588,122.592,3.000],[1,0,0,0]],v50,fine,tWeldgun;
    MoveL [[84.748,122.793,3.000],[1,0,0,0]],v50,fine,tWeldgun;
    MoveL [[84.874,122.815,3.000],[1,0,0,0]],v50,fine,tWeldgun;
    MoveL [[85.127,122.861,3.000],[1,0,0,0]],v50,fine,tWeldgun;
    MoveL [[85.379,122.911,3.000],[1,0,0,0]],v50,fine,tWeldgun;
    MoveL [[85.631,122.963,3.000],[1,0,0,0]],v50,fine,tWeldgun;
    MoveL [[86.782,123.213,3.000],[1,0,0,0]],v50,fine,tWeldgun;
    MoveL [[86.907,123.240,3.000],[1,0,0,0]],v50,fine,tWeldgun;
    MoveL [[87.158,123.298,3.000],[1,0,0,0]],v50,fine,tWeldgun;
    MoveL [[87.408,123.358,3.000],[1,0,0,0]],v50,fine,tWeldgun;
    MoveL [[87.657,123.420,3.000],[1,0,0,0]],v50,fine,tWeldgun;
    MoveL [[88.796,123.720,3.000],[1,0,0,0]],v50,fine,tWeldgun;
    MoveL [[88.920,123.752,3.000],[1,0,0,0]],v50,fine,tWeldgun;
    MoveL [[88.963,123.764,3.000],[1,0,0,0]],v50,fine,tWeldgun;
    MoveL [[89.058,123.412,3.000],[1,0,0,0]],v50,fine,tWeldgun;
    MoveL [[89.610,120.941,3.000],[1,0,0,0]],v50,fine,tWeldgun;
    MoveL [[90.053,118.447,3.000],[1,0,0,0]],v50,fine,tWeldgun;
    MoveL [[90.388,115.937,3.000],[1,0,0,0]],v50,fine,tWeldgun;
    MoveL [[90.613,113.415,3.000],[1,0,0,0]],v50,fine,tWeldgun;
    MoveL [[90.728,110.885,3.000],[1,0,0,0]],v50,fine,tWeldgun;
    MoveL [[90.733,108.352,3.000],[1,0,0,0]],v50,fine,tWeldgun;
    MoveL [[90.627,105.822,3.000],[1,0,0,0]],v50,fine,tWeldgun;
    MoveL [[90.412,103.299,3.000],[1,0,0,0]],v50,fine,tWeldgun;
    MoveL [[90.087,100.787,3.000],[1,0,0,0]],v50,fine,tWeldgun;
    MoveL [[89.653,98.292,3.000],[1,0,0,0]],v50,fine,tWeldgun;
    MoveL [[89.111,95.818,3.000],[1,0,0,0]],v50,fine,tWeldgun;
    MoveL [[88.462,93.370,3.000],[1,0,0,0]],v50,fine,tWeldgun;
    MoveL [[87.707,90.953,3.000],[1,0,0,0]],v50,fine,tWeldgun;
    MoveL [[86.848,88.571,3.000],[1,0,0,0]],v50,fine,tWeldgun;
    MoveL [[85.886,86.228,3.000],[1,0,0,0]],v50,fine,tWeldgun;
    MoveL [[84.822,83.930,3.000],[1,0,0,0]],v50,fine,tWeldgun;
    MoveL [[83.660,81.680,3.000],[1,0,0,0]],v50,fine,tWeldgun;
    MoveL [[82.401,79.482,3.000],[1,0,0,0]],v50,fine,tWeldgun;
    MoveL [[81.048,77.342,3.000],[1,0,0,0]],v50,fine,tWeldgun;
    MoveL [[79.602,75.262,3.000],[1,0,0,0]],v50,fine,tWeldgun;
    MoveL [[78.068,73.248,3.000],[1,0,0,0]],v50,fine,tWeldgun;
    MoveL [[76.448,71.302,3.000],[1,0,0,0]],v50,fine,tWeldgun;
    MoveL [[74.744,69.428,3.000],[1,0,0,0]],v50,fine,tWeldgun;
    MoveL [[72.960,67.630,3.000],[1,0,0,0]],v50,fine,tWeldgun;
    MoveL [[71.100,65.912,3.000],[1,0,0,0]],v50,fine,tWeldgun;
    MoveL [[69.167,64.276,3.000],[1,0,0,0]],v50,fine,tWeldgun;
    MoveL [[67.164,62.725,3.000],[1,0,0,0]],v50,fine,tWeldgun;
    MoveL [[65.096,61.264,3.000],[1,0,0,0]],v50,fine,tWeldgun;
    MoveL [[62.967,59.893,3.000],[1,0,0,0]],v50,fine,tWeldgun;
    MoveL [[60.779,58.617,3.000],[1,0,0,0]],v50,fine,tWeldgun;
    MoveL [[58.539,57.437,3.000],[1,0,0,0]],v50,fine,tWeldgun;
    MoveL [[56.249,56.355,3.000],[1,0,0,0]],v50,fine,tWeldgun;
    MoveL [[54.256,55.518,3.000],[1,0,0,0]],v50,fine,tWeldgun;
    MoveL [[52.264,56.355,3.000],[1,0,0,0]],v50,fine,tWeldgun;
    MoveL [[49.974,57.437,3.000],[1,0,0,0]],v50,fine,tWeldgun;
    MoveL [[47.733,58.617,3.000],[1,0,0,0]],v50,fine,tWeldgun;
    MoveL [[45.546,59.893,3.000],[1,0,0,0]],v50,fine,tWeldgun;
    MoveL [[43.416,61.264,3.000],[1,0,0,0]],v50,fine,tWeldgun;
    MoveL [[41.348,62.725,3.000],[1,0,0,0]],v50,fine,tWeldgun;
    MoveL [[39.346,64.276,3.000],[1,0,0,0]],v50,fine,tWeldgun;
    MoveL [[37.413,65.912,3.000],[1,0,0,0]],v50,fine,tWeldgun;
    MoveL [[35.552,67.630,3.000],[1,0,0,0]],v50,fine,tWeldgun;
    MoveL [[33.769,69.428,3.000],[1,0,0,0]],v50,fine,tWeldgun;
    MoveL [[32.065,71.302,3.000],[1,0,0,0]],v50,fine,tWeldgun;
    MoveL [[30.445,73.248,3.000],[1,0,0,0]],v50,fine,tWeldgun;
    MoveL [[28.910,75.262,3.000],[1,0,0,0]],v50,fine,tWeldgun;
    MoveL [[27.465,77.342,3.000],[1,0,0,0]],v50,fine,tWeldgun;
    MoveL [[26.111,79.482,3.000],[1,0,0,0]],v50,fine,tWeldgun;
    MoveL [[24.852,81.680,3.000],[1,0,0,0]],v50,fine,tWeldgun;
    MoveL [[23.690,83.930,3.000],[1,0,0,0]],v50,fine,tWeldgun;
    MoveL [[22.627,86.228,3.000],[1,0,0,0]],v50,fine,tWeldgun;
    MoveL [[21.665,88.571,3.000],[1,0,0,0]],v50,fine,tWeldgun;
    MoveL [[20.805,90.953,3.000],[1,0,0,0]],v50,fine,tWeldgun;
    MoveL [[20.050,93.370,3.000],[1,0,0,0]],v50,fine,tWeldgun;
    MoveL [[19.401,95.818,3.000],[1,0,0,0]],v50,fine,tWeldgun;
    MoveL [[18.859,98.292,3.000],[1,0,0,0]],v50,fine,tWeldgun;
    MoveL [[18.425,100.787,3.000],[1,0,0,0]],v50,fine,tWeldgun;
    MoveL [[18.101,103.299,3.000],[1,0,0,0]],v50,fine,tWeldgun;
    MoveL [[17.885,105.822,3.000],[1,0,0,0]],v50,fine,tWeldgun;
    MoveL [[17.780,108.352,3.000],[1,0,0,0]],v50,fine,tWeldgun;
    WaitTime 10.0;
    !   Infill (zigzag)
    MoveL [[68.370,44.985,3.000],[1,0,0,0]],v500,fine,tool0;
    MoveL [[40.142,44.985,3.000],[1,0,0,0]],v50,fine,tWeldgun;
    WaitTime 10.0;
    MoveL [[24.139,56.985,3.000],[1,0,0,0]],v500,fine,tool0;
    MoveL [[84.374,56.985,3.000],[1,0,0,0]],v50,fine,tWeldgun;
    WaitTime 10.0;
    MoveL [[94.220,68.985,3.000],[1,0,0,0]],v500,fine,tool0;
    MoveL [[14.292,68.985,3.000],[1,0,0,0]],v50,fine,tWeldgun;
    WaitTime 10.0;
    MoveL [[7.916,80.985,3.000],[1,0,0,0]],v500,fine,tool0;
    MoveL [[100.597,80.985,3.000],[1,0,0,0]],v50,fine,tWeldgun;
    WaitTime 10.0;
    MoveL [[104.461,92.985,3.000],[1,0,0,0]],v500,fine,tool0;
    MoveL [[4.052,92.985,3.000],[1,0,0,0]],v50,fine,tWeldgun;
    WaitTime 10.0;
    MoveL [[2.307,104.985,3.000],[1,0,0,0]],v500,fine,tool0;
    MoveL [[106.206,104.985,3.000],[1,0,0,0]],v50,fine,tWeldgun;
    WaitTime 10.0;
    MoveL [[105.956,116.985,3.000],[1,0,0,0]],v500,fine,tool0;
    MoveL [[2.556,116.985,3.000],[1,0,0,0]],v50,fine,tWeldgun;
    WaitTime 10.0;
    MoveL [[4.799,128.985,3.000],[1,0,0,0]],v500,fine,tool0;
    MoveL [[103.713,128.985,3.000],[1,0,0,0]],v50,fine,tWeldgun;
    WaitTime 10.0;
    MoveL [[18.001,140.985,3.000],[1,0,0,0]],v500,fine,tool0;
    MoveL [[9.234,140.985,3.000],[1,0,0,0]],v50,fine,tWeldgun;
    WaitTime 10.0;
    MoveL [[47.096,140.985,3.000],[1,0,0,0]],v500,fine,tool0;
    MoveL [[61.417,140.985,3.000],[1,0,0,0]],v50,fine,tWeldgun;
    WaitTime 10.0;
    MoveL [[99.279,140.985,3.000],[1,0,0,0]],v500,fine,tool0;
    MoveL [[90.512,140.985,3.000],[1,0,0,0]],v50,fine,tWeldgun;
    WaitTime 10.0;
    WaitTime 60.0;
    ! Layer 3
    !   Outer pass 1
    MoveL [[12.722,139.869,5.000],[1,0,0,0]],v500,fine,tool0;
    MoveL [[12.749,139.851,5.000],[1,0,0,0]],v50,fine,tWeldgun;
    MoveL [[13.676,139.274,5.000],[1,0,0,0]],v50,fine,tWeldgun;
    MoveL [[13.858,139.161,5.000],[1,0,0,0]],v50,fine,tWeldgun;
    MoveL [[14.079,139.030,5.000],[1,0,0,0]],v50,fine,tWeldgun;
    MoveL [[15.029,138.493,5.000],[1,0,0,0]],v50,fine,tWeldgun;
    MoveL [[15.216,138.388,5.000],[1,0,0,0]],v50,fine,tWeldgun;
    MoveL [[15.442,138.266,5.000],[1,0,0,0]],v50,fine,tWeldgun;
    MoveL [[16.415,137.770,5.000],[1,0,0,0]],v50,fine,tWeldgun;
    MoveL [[16.606,137.673,5.000],[1,0,0,0]],v50,fine,tWeldgun;
    MoveL [[16.837,137.561,5.000],[1,0,0,0]],v50,fine,tWeldgun;
    MoveL [[17.830,137.108,5.000],[1,0,0,0]],v50,fine,tWeldgun;
    MoveL [[18.025,137.019,5.000],[1,0,0,0]],v50,fine,tWeldgun;
    MoveL [[18.261,136.917,5.000],[1,0,0,0]],v50,fine,tWeldgun;
    MoveL [[19.273,136.507,5.000],[1,0,0,0]],v50,fine,tWeldgun;
    MoveL [[19.471,136.426,5.000],[1,0,0,0]],v50,fine,tWeldgun;
    MoveL [[19.711,136.334,5.000],[1,0,0,0]],v50,fine,tWeldgun;
    MoveL [[20.739,135.968,5.000],[1,0,0,0]],v50,fine,tWeldgun;
    MoveL [[20.941,135.896,5.000],[1,0,0,0]],v50,fine,tWeldgun;
    MoveL [[21.185,135.814,5.000],[1,0,0,0]],v50,fine,tWeldgun;
    MoveL [[22.228,135.492,5.000],[1,0,0,0]],v50,fine,tWeldgun;
    MoveL [[22.433,135.429,5.000],[1,0,0,0]],v50,fine,tWeldgun;
    MoveL [[22.680,135.358,5.000],[1,0,0,0]],v50,fine,tWeldgun;
    MoveL [[23.735,135.080,5.000],[1,0,0,0]],v50,fine,tWeldgun;
    MoveL [[23.943,135.026,5.000],[1,0,0,0]],v50,fine,tWeldgun;
    MoveL [[24.193,134.966,5.000],[1,0,0,0]],v50,fine,tWeldgun;
    MoveL [[25.259,134.734,5.000],[1,0,0,0]],v50,fine,tWeldgun;
    MoveL [[25.469,134.688,5.000],[1,0,0,0]],v50,fine,tWeldgun;
    MoveL [[25.721,134.639,5.000],[1,0,0,0]],v50,fine,tWeldgun;
    MoveL [[26.796,134.453,5.000],[1,0,0,0]],v50,fine,tWeldgun;
    MoveL [[27.008,134.416,5.000],[1,0,0,0]],v50,fine,tWeldgun;
    MoveL [[27.262,134.378,5.000],[1,0,0,0]],v50,fine,tWeldgun;
    MoveL [[28.344,134.238,5.000],[1,0,0,0]],v50,fine,tWeldgun;
    MoveL [[28.557,134.211,5.000],[1,0,0,0]],v50,fine,tWeldgun;
    MoveL [[28.812,134.183,5.000],[1,0,0,0]],v50,fine,tWeldgun;
    MoveL [[29.900,134.090,5.000],[1,0,0,0]],v50,fine,tWeldgun;
    MoveL [[30.113,134.071,5.000],[1,0,0,0]],v50,fine,tWeldgun;
    MoveL [[30.370,134.055,5.000],[1,0,0,0]],v50,fine,tWeldgun;
    MoveL [[31.460,134.008,5.000],[1,0,0,0]],v50,fine,tWeldgun;
    MoveL [[31.674,133.999,5.000],[1,0,0,0]],v50,fine,tWeldgun;
    MoveL [[31.931,133.993,5.000],[1,0,0,0]],v50,fine,tWeldgun;
    MoveL [[33.237,133.993,5.000],[1,0,0,0]],v50,fine,tWeldgun;
    MoveL [[33.494,133.999,5.000],[1,0,0,0]],v50,fine,tWeldgun;
    MoveL [[34.585,134.046,5.000],[1,0,0,0]],v50,fine,tWeldgun;
    MoveL [[34.799,134.055,5.000],[1,0,0,0]],v50,fine,tWeldgun;
    MoveL [[35.055,134.071,5.000],[1,0,0,0]],v50,fine,tWeldgun;
    MoveL [[36.143,134.165,5.000],[1,0,0,0]],v50,fine,tWeldgun;
    MoveL [[36.356,134.183,5.000],[1,0,0,0]],v50,fine,tWeldgun;
    MoveL [[36.612,134.211,5.000],[1,0,0,0]],v50,fine,tWeldgun;
    MoveL [[37.695,134.351,5.000],[1,0,0,0]],v50,fine,tWeldgun;
    MoveL [[37.907,134.378,5.000],[1,0,0,0]],v50,fine,tWeldgun;
    MoveL [[38.161,134.416,5.000],[1,0,0,0]],v50,fine,tWeldgun;
    MoveL [[39.237,134.603,5.000],[1,0,0,0]],v50,fine,tWeldgun;
    MoveL [[39.448,134.639,5.000],[1,0,0,0]],v50,fine,tWeldgun;
    MoveL [[39.700,134.688,5.000],[1,0,0,0]],v50,fine,tWeldgun;
    MoveL [[40.767,134.920,5.000],[1,0,0,0]],v50,fine,tWeldgun;
    MoveL [[40.976,134.966,5.000],[1,0,0,0]],v50,fine,tWeldgun;
    MoveL [[41.226,135.026,5.000],[1,0,0,0]],v50,fine,tWeldgun;
    MoveL [[42.282,135.303,5.000],[1,0,0,0]],v50,fine,tWeldgun;
    MoveL [[42.489,135.358,5.000],[1,0,0,0]],v50,fine,tWeldgun;
    MoveL [[42.736,135.429,5.000],[1,0,0,0]],v50,fine,tWeldgun;
    MoveL [[43.779,135.751,5.000],[1,0,0,0]],v50,fine,tWeldgun;
    MoveL [[43.984,135.814,5.000],[1,0,0,0]],v50,fine,tWeldgun;
    MoveL [[44.228,135.896,5.000],[1,0,0,0]],v50,fine,tWeldgun;
    MoveL [[45.256,136.262,5.000],[1,0,0,0]],v50,fine,tWeldgun;
    MoveL [[45.457,136.334,5.000],[1,0,0,0]],v50,fine,tWeldgun;
    MoveL [[45.698,136.426,5.000],[1,0,0,0]],v50,fine,tWeldgun;
    MoveL [[46.709,136.837,5.000],[1,0,0,0]],v50,fine,tWeldgun;
    MoveL [[46.908,136.917,5.000],[1,0,0,0]],v50,fine,tWeldgun;
    MoveL [[47.144,137.019,5.000],[1,0,0,0]],v50,fine,tWeldgun;
    MoveL [[48.137,137.472,5.000],[1,0,0,0]],v50,fine,tWeldgun;
    MoveL [[48.331,137.561,5.000],[1,0,0,0]],v50,fine,tWeldgun;
    MoveL [[48.563,137.673,5.000],[1,0,0,0]],v50,fine,tWeldgun;
    MoveL [[49.535,138.169,5.000],[1,0,0,0]],v50,fine,tWeldgun;
    MoveL [[49.726,138.266,5.000],[1,0,0,0]],v50,fine,tWeldgun;
    MoveL [[49.953,138.388,5.000],[1,0,0,0]],v50,fine,tWeldgun;
    MoveL [[50.903,138.925,5.000],[1,0,0,0]],v50,fine,tWeldgun;
    MoveL [[51.090,139.030,5.000],[1,0,0,0]],v50,fine,tWeldgun;
    MoveL [[51.311,139.161,5.000],[1,0,0,0]],v50,fine,tWeldgun;
    MoveL [[52.237,139.738,5.000],[1,0,0,0]],v50,fine,tWeldgun;
    MoveL [[52.419,139.851,5.000],[1,0,0,0]],v50,fine,tWeldgun;
    MoveL [[52.635,139.992,5.000],[1,0,0,0]],v50,fine,tWeldgun;
    MoveL [[53.536,140.608,5.000],[1,0,0,0]],v50,fine,tWeldgun;
    MoveL [[53.712,140.729,5.000],[1,0,0,0]],v50,fine,tWeldgun;
    MoveL [[53.921,140.879,5.000],[1,0,0,0]],v50,fine,tWeldgun;
    MoveL [[54.292,141.156,5.000],[1,0,0,0]],v50,fine,tWeldgun;
    MoveL [[54.492,141.007,5.000],[1,0,0,0]],v50,fine,tWeldgun;
    MoveL [[54.663,140.879,5.000],[1,0,0,0]],v50,fine,tWeldgun;
    MoveL [[54.872,140.729,5.000],[1,0,0,0]],v50,fine,tWeldgun;
    MoveL [[55.773,140.113,5.000],[1,0,0,0]],v50,fine,tWeldgun;
    MoveL [[55.950,139.992,5.000],[1,0,0,0]],v50,fine,tWeldgun;
    MoveL [[56.165,139.851,5.000],[1,0,0,0]],v50,fine,tWeldgun;
    MoveL [[57.092,139.274,5.000],[1,0,0,0]],v50,fine,tWeldgun;
    MoveL [[57.274,139.161,5.000],[1,0,0,0]],v50,fine,tWeldgun;
    MoveL [[57.495,139.030,5.000],[1,0,0,0]],v50,fine,tWeldgun;
    MoveL [[58.445,138.493,5.000],[1,0,0,0]],v50,fine,tWeldgun;
    MoveL [[58.632,138.388,5.000],[1,0,0,0]],v50,fine,tWeldgun;
    MoveL [[58.858,138.266,5.000],[1,0,0,0]],v50,fine,tWeldgun;
    MoveL [[59.831,137.770,5.000],[1,0,0,0]],v50,fine,tWeldgun;
    MoveL [[60.022,137.673,5.000],[1,0,0,0]],v50,fine,tWeldgun;
    MoveL [[60.253,137.561,5.000],[1,0,0,0]],v50,fine,tWeldgun;
    MoveL [[61.246,137.108,5.000],[1,0,0,0]],v50,fine,tWeldgun;
    MoveL [[61.441,137.019,5.000],[1,0,0,0]],v50,fine,tWeldgun;
    MoveL [[61.677,136.917,5.000],[1,0,0,0]],v50,fine,tWeldgun;
    MoveL [[62.689,136.507,5.000],[1,0,0,0]],v50,fine,tWeldgun;
    MoveL [[62.887,136.426,5.000],[1,0,0,0]],v50,fine,tWeldgun;
    MoveL [[63.127,136.334,5.000],[1,0,0,0]],v50,fine,tWeldgun;
    MoveL [[64.155,135.968,5.000],[1,0,0,0]],v50,fine,tWeldgun;
    MoveL [[64.357,135.896,5.000],[1,0,0,0]],v50,fine,tWeldgun;
    MoveL [[64.601,135.814,5.000],[1,0,0,0]],v50,fine,tWeldgun;
    MoveL [[65.644,135.492,5.000],[1,0,0,0]],v50,fine,tWeldgun;
    MoveL [[65.849,135.429,5.000],[1,0,0,0]],v50,fine,tWeldgun;
    MoveL [[66.096,135.358,5.000],[1,0,0,0]],v50,fine,tWeldgun;
    MoveL [[67.151,135.080,5.000],[1,0,0,0]],v50,fine,tWeldgun;
    MoveL [[67.359,135.026,5.000],[1,0,0,0]],v50,fine,tWeldgun;
    MoveL [[67.609,134.966,5.000],[1,0,0,0]],v50,fine,tWeldgun;
    MoveL [[68.675,134.734,5.000],[1,0,0,0]],v50,fine,tWeldgun;
    MoveL [[68.885,134.688,5.000],[1,0,0,0]],v50,fine,tWeldgun;
    MoveL [[69.137,134.639,5.000],[1,0,0,0]],v50,fine,tWeldgun;
    MoveL [[70.212,134.453,5.000],[1,0,0,0]],v50,fine,tWeldgun;
    MoveL [[70.424,134.416,5.000],[1,0,0,0]],v50,fine,tWeldgun;
    MoveL [[70.678,134.378,5.000],[1,0,0,0]],v50,fine,tWeldgun;
    MoveL [[71.760,134.238,5.000],[1,0,0,0]],v50,fine,tWeldgun;
    MoveL [[71.973,134.211,5.000],[1,0,0,0]],v50,fine,tWeldgun;
    MoveL [[72.228,134.183,5.000],[1,0,0,0]],v50,fine,tWeldgun;
    MoveL [[73.316,134.090,5.000],[1,0,0,0]],v50,fine,tWeldgun;
    MoveL [[73.529,134.071,5.000],[1,0,0,0]],v50,fine,tWeldgun;
    MoveL [[73.786,134.055,5.000],[1,0,0,0]],v50,fine,tWeldgun;
    MoveL [[74.876,134.008,5.000],[1,0,0,0]],v50,fine,tWeldgun;
    MoveL [[75.090,133.999,5.000],[1,0,0,0]],v50,fine,tWeldgun;
    MoveL [[75.347,133.993,5.000],[1,0,0,0]],v50,fine,tWeldgun;
    MoveL [[76.653,133.993,5.000],[1,0,0,0]],v50,fine,tWeldgun;
    MoveL [[76.910,133.999,5.000],[1,0,0,0]],v50,fine,tWeldgun;
    MoveL [[78.001,134.046,5.000],[1,0,0,0]],v50,fine,tWeldgun;
    MoveL [[78.215,134.055,5.000],[1,0,0,0]],v50,fine,tWeldgun;
    MoveL [[78.471,134.071,5.000],[1,0,0,0]],v50,fine,tWeldgun;
    MoveL [[79.559,134.165,5.000],[1,0,0,0]],v50,fine,tWeldgun;
    MoveL [[79.772,134.183,5.000],[1,0,0,0]],v50,fine,tWeldgun;
    MoveL [[80.028,134.211,5.000],[1,0,0,0]],v50,fine,tWeldgun;
    MoveL [[81.111,134.351,5.000],[1,0,0,0]],v50,fine,tWeldgun;
    MoveL [[81.323,134.378,5.000],[1,0,0,0]],v50,fine,tWeldgun;
    MoveL [[81.577,134.416,5.000],[1,0,0,0]],v50,fine,tWeldgun;
    MoveL [[82.653,134.603,5.000],[1,0,0,0]],v50,fine,tWeldgun;
    MoveL [[82.864,134.639,5.000],[1,0,0,0]],v50,fine,tWeldgun;
    MoveL [[83.116,134.688,5.000],[1,0,0,0]],v50,fine,tWeldgun;
    MoveL [[84.183,134.920,5.000],[1,0,0,0]],v50,fine,tWeldgun;
    MoveL [[84.392,134.966,5.000],[1,0,0,0]],v50,fine,tWeldgun;
    MoveL [[84.642,135.026,5.000],[1,0,0,0]],v50,fine,tWeldgun;
    MoveL [[85.698,135.303,5.000],[1,0,0,0]],v50,fine,tWeldgun;
    MoveL [[85.905,135.358,5.000],[1,0,0,0]],v50,fine,tWeldgun;
    MoveL [[86.152,135.429,5.000],[1,0,0,0]],v50,fine,tWeldgun;
    MoveL [[87.195,135.751,5.000],[1,0,0,0]],v50,fine,tWeldgun;
    MoveL [[87.400,135.814,5.000],[1,0,0,0]],v50,fine,tWeldgun;
    MoveL [[87.644,135.896,5.000],[1,0,0,0]],v50,fine,tWeldgun;
    MoveL [[88.672,136.262,5.000],[1,0,0,0]],v50,fine,tWeldgun;
    MoveL [[88.873,136.334,5.000],[1,0,0,0]],v50,fine,tWeldgun;
    MoveL [[89.114,136.426,5.000],[1,0,0,0]],v50,fine,tWeldgun;
    MoveL [[90.125,136.837,5.000],[1,0,0,0]],v50,fine,tWeldgun;
    MoveL [[90.324,136.917,5.000],[1,0,0,0]],v50,fine,tWeldgun;
    MoveL [[90.560,137.019,5.000],[1,0,0,0]],v50,fine,tWeldgun;
    MoveL [[91.553,137.472,5.000],[1,0,0,0]],v50,fine,tWeldgun;
    MoveL [[91.747,137.561,5.000],[1,0,0,0]],v50,fine,tWeldgun;
    MoveL [[91.979,137.673,5.000],[1,0,0,0]],v50,fine,tWeldgun;
    MoveL [[92.952,138.169,5.000],[1,0,0,0]],v50,fine,tWeldgun;
    MoveL [[93.142,138.266,5.000],[1,0,0,0]],v50,fine,tWeldgun;
    MoveL [[93.369,138.388,5.000],[1,0,0,0]],v50,fine,tWeldgun;
    MoveL [[94.319,138.925,5.000],[1,0,0,0]],v50,fine,tWeldgun;
    MoveL [[94.506,139.030,5.000],[1,0,0,0]],v50,fine,tWeldgun;
    MoveL [[94.727,139.161,5.000],[1,0,0,0]],v50,fine,tWeldgun;
    MoveL [[95.654,139.738,5.000],[1,0,0,0]],v50,fine,tWeldgun;
    MoveL [[95.835,139.851,5.000],[1,0,0,0]],v50,fine,tWeldgun;
    MoveL [[95.863,139.869,5.000],[1,0,0,0]],v50,fine,tWeldgun;
    MoveL [[96.814,137.833,5.000],[1,0,0,0]],v50,fine,tWeldgun;
    MoveL [[96.972,137.452,5.000],[1,0,0,0]],v50,fine,tWeldgun;
    MoveL [[97.985,135.012,5.000],[1,0,0,0]],v50,fine,tWeldgun;
    MoveL [[98.127,134.624,5.000],[1,0,0,0]],v50,fine,tWeldgun;
    MoveL [[99.033,132.143,5.000],[1,0,0,0]],v50,fine,tWeldgun;
    MoveL [[99.158,131.749,5.000],[1,0,0,0]],v50,fine,tWeldgun;
    MoveL [[99.955,129.230,5.000],[1,0,0,0]],v50,fine,tWeldgun;
    MoveL [[100.063,128.831,5.000],[1,0,0,0]],v50,fine,tWeldgun;
    MoveL [[100.749,126.281,5.000],[1,0,0,0]],v50,fine,tWeldgun;
    MoveL [[100.839,125.877,5.000],[1,0,0,0]],v50,fine,tWeldgun;
    MoveL [[101.415,123.299,5.000],[1,0,0,0]],v50,fine,tWeldgun;
    MoveL [[101.487,122.892,5.000],[1,0,0,0]],v50,fine,tWeldgun;
    MoveL [[101.950,120.291,5.000],[1,0,0,0]],v50,fine,tWeldgun;
    MoveL [[102.004,119.882,5.000],[1,0,0,0]],v50,fine,tWeldgun;
    MoveL [[102.353,117.263,5.000],[1,0,0,0]],v50,fine,tWeldgun;
    MoveL [[102.390,116.852,5.000],[1,0,0,0]],v50,fine,tWeldgun;
    MoveL [[102.624,114.221,5.000],[1,0,0,0]],v50,fine,tWeldgun;
    MoveL [[102.643,113.808,5.000],[1,0,0,0]],v50,fine,tWeldgun;
    MoveL [[102.763,111.169,5.000],[1,0,0,0]],v50,fine,tWeldgun;
    MoveL [[102.764,110.756,5.000],[1,0,0,0]],v50,fine,tWeldgun;
    MoveL [[102.769,108.114,5.000],[1,0,0,0]],v50,fine,tWeldgun;
    MoveL [[102.752,107.701,5.000],[1,0,0,0]],v50,fine,tWeldgun;
    MoveL [[102.642,105.062,5.000],[1,0,0,0]],v50,fine,tWeldgun;
    MoveL [[102.607,104.650,5.000],[1,0,0,0]],v50,fine,tWeldgun;
    MoveL [[102.382,102.018,5.000],[1,0,0,0]],v50,fine,tWeldgun;
    MoveL [[102.329,101.608,5.000],[1,0,0,0]],v50,fine,tWeldgun;
    MoveL [[101.991,98.989,5.000],[1,0,0,0]],v50,fine,tWeldgun;
    MoveL [[101.920,98.582,5.000],[1,0,0,0]],v50,fine,tWeldgun;
    MoveL [[101.467,95.979,5.000],[1,0,0,0]],v50,fine,tWeldgun;
    MoveL [[101.379,95.575,5.000],[1,0,0,0]],v50,fine,tWeldgun;
    MoveL [[100.814,92.995,5.000],[1,0,0,0]],v50,fine,tWeldgun;
    MoveL [[100.708,92.596,5.000],[1,0,0,0]],v50,fine,tWeldgun;
    MoveL [[100.031,90.042,5.000],[1,0,0,0]],v50,fine,tWeldgun;
    MoveL [[99.907,89.648,5.000],[1,0,0,0]],v50,fine,tWeldgun;
    MoveL [[99.120,87.126,5.000],[1,0,0,0]],v50,fine,tWeldgun;
    MoveL [[98.980,86.738,5.000],[1,0,0,0]],v50,fine,tWeldgun;
    MoveL [[98.083,84.253,5.000],[1,0,0,0]],v50,fine,tWeldgun;
    MoveL [[97.926,83.871,5.000],[1,0,0,0]],v50,fine,tWeldgun;
    MoveL [[96.923,81.427,5.000],[1,0,0,0]],v50,fine,tWeldgun;
    MoveL [[96.749,81.052,5.000],[1,0,0,0]],v50,fine,tWeldgun;
    MoveL [[95.640,78.655,5.000],[1,0,0,0]],v50,fine,tWeldgun;
    MoveL [[95.450,78.287,5.000],[1,0,0,0]],v50,fine,tWeldgun;
    MoveL [[94.238,75.941,5.000],[1,0,0,0]],v50,fine,tWeldgun;
    MoveL [[94.033,75.582,5.000],[1,0,0,0]],v50,fine,tWeldgun;
    MoveL [[92.719,73.290,5.000],[1,0,0,0]],v50,fine,tWeldgun;
    MoveL [[92.498,72.941,5.000],[1,0,0,0]],v50,fine,tWeldgun;
    MoveL [[91.087,70.708,5.000],[1,0,0,0]],v50,fine,tWeldgun;
    MoveL [[90.851,70.369,5.000],[1,0,0,0]],v50,fine,tWeldgun;
    MoveL [[89.343,68.200,5.000],[1,0,0,0]],v50,fine,tWeldgun;
    MoveL [[89.093,67.871,5.000],[1,0,0,0]],v50,fine,tWeldgun;
    MoveL [[87.493,65.769,5.000],[1,0,0,0]],v50,fine,tWeldgun;
    MoveL [[87.228,65.452,5.000],[1,0,0,0]],v50,fine,tWeldgun;
    MoveL [[85.538,63.422,5.000],[1,0,0,0]],v50,fine,tWeldgun;
    MoveL [[85.260,63.116,5.000],[1,0,0,0]],v50,fine,tWeldgun;
    MoveL [[83.483,61.162,5.000],[1,0,0,0]],v50,fine,tWeldgun;
    MoveL [[83.192,60.868,5.000],[1,0,0,0]],v50,fine,tWeldgun;
    MoveL [[81.331,58.993,5.000],[1,0,0,0]],v50,fine,tWeldgun;
    MoveL [[81.028,58.713,5.000],[1,0,0,0]],v50,fine,tWeldgun;
    MoveL [[79.087,56.920,5.000],[1,0,0,0]],v50,fine,tWeldgun;
    MoveL [[78.772,56.653,5.000],[1,0,0,0]],v50,fine,tWeldgun;
    MoveL [[76.755,54.947,5.000],[1,0,0,0]],v50,fine,tWeldgun;
    MoveL [[76.429,54.694,5.000],[1,0,0,0]],v50,fine,tWeldgun;
    MoveL [[74.340,53.077,5.000],[1,0,0,0]],v50,fine,tWeldgun;
    MoveL [[74.002,52.838,5.000],[1,0,0,0]],v50,fine,tWeldgun;
    MoveL [[71.845,51.314,5.000],[1,0,0,0]],v50,fine,tWeldgun;
    MoveL [[71.498,51.090,5.000],[1,0,0,0]],v50,fine,tWeldgun;
    MoveL [[69.276,49.661,5.000],[1,0,0,0]],v50,fine,tWeldgun;
    MoveL [[68.919,49.452,5.000],[1,0,0,0]],v50,fine,tWeldgun;
    MoveL [[66.638,48.121,5.000],[1,0,0,0]],v50,fine,tWeldgun;
    MoveL [[66.272,47.928,5.000],[1,0,0,0]],v50,fine,tWeldgun;
    MoveL [[63.935,46.697,5.000],[1,0,0,0]],v50,fine,tWeldgun;
    MoveL [[63.561,46.521,5.000],[1,0,0,0]],v50,fine,tWeldgun;
    MoveL [[61.173,45.393,5.000],[1,0,0,0]],v50,fine,tWeldgun;
    MoveL [[60.792,45.233,5.000],[1,0,0,0]],v50,fine,tWeldgun;
    MoveL [[58.356,44.210,5.000],[1,0,0,0]],v50,fine,tWeldgun;
    MoveL [[57.969,44.067,5.000],[1,0,0,0]],v50,fine,tWeldgun;
    MoveL [[55.491,43.150,5.000],[1,0,0,0]],v50,fine,tWeldgun;
    MoveL [[55.098,43.024,5.000],[1,0,0,0]],v50,fine,tWeldgun;
    MoveL [[54.292,42.766,5.000],[1,0,0,0]],v50,fine,tWeldgun;
    MoveL [[53.093,43.150,5.000],[1,0,0,0]],v50,fine,tWeldgun;
    MoveL [[52.706,43.294,5.000],[1,0,0,0]],v50,fine,tWeldgun;
    MoveL [[50.228,44.210,5.000],[1,0,0,0]],v50,fine,tWeldgun;
    MoveL [[49.847,44.370,5.000],[1,0,0,0]],v50,fine,tWeldgun;
    MoveL [[47.412,45.393,5.000],[1,0,0,0]],v50,fine,tWeldgun;
    MoveL [[47.038,45.569,5.000],[1,0,0,0]],v50,fine,tWeldgun;
    MoveL [[44.650,46.697,5.000],[1,0,0,0]],v50,fine,tWeldgun;
    MoveL [[44.284,46.890,5.000],[1,0,0,0]],v50,fine,tWeldgun;
    MoveL [[41.947,48.121,5.000],[1,0,0,0]],v50,fine,tWeldgun;
    MoveL [[41.590,48.329,5.000],[1,0,0,0]],v50,fine,tWeldgun;
    MoveL [[39.308,49.661,5.000],[1,0,0,0]],v50,fine,tWeldgun;
    MoveL [[38.961,49.884,5.000],[1,0,0,0]],v50,fine,tWeldgun;
    MoveL [[36.739,51.314,5.000],[1,0,0,0]],v50,fine,tWeldgun;
    MoveL [[36.402,51.552,5.000],[1,0,0,0]],v50,fine,tWeldgun;
    MoveL [[34.245,53.077,5.000],[1,0,0,0]],v50,fine,tWeldgun;
    MoveL [[33.918,53.330,5.000],[1,0,0,0]],v50,fine,tWeldgun;
    MoveL [[31.829,54.947,5.000],[1,0,0,0]],v50,fine,tWeldgun;
    MoveL [[31.514,55.214,5.000],[1,0,0,0]],v50,fine,tWeldgun;
    MoveL [[29.497,56.920,5.000],[1,0,0,0]],v50,fine,tWeldgun;
    MoveL [[29.194,57.201,5.000],[1,0,0,0]],v50,fine,tWeldgun;
    MoveL [[27.254,58.993,5.000],[1,0,0,0]],v50,fine,tWeldgun;
    MoveL [[26.962,59.287,5.000],[1,0,0,0]],v50,fine,tWeldgun;
    MoveL [[25.102,61.162,5.000],[1,0,0,0]],v50,fine,tWeldgun;
    MoveL [[24.824,61.468,5.000],[1,0,0,0]],v50,fine,tWeldgun;
    MoveL [[23.047,63.422,5.000],[1,0,0,0]],v50,fine,tWeldgun;
    MoveL [[22.782,63.740,5.000],[1,0,0,0]],v50,fine,tWeldgun;
    MoveL [[21.092,65.769,5.000],[1,0,0,0]],v50,fine,tWeldgun;
    MoveL [[20.842,66.098,5.000],[1,0,0,0]],v50,fine,tWeldgun;
    MoveL [[19.241,68.200,5.000],[1,0,0,0]],v50,fine,tWeldgun;
    MoveL [[19.005,68.539,5.000],[1,0,0,0]],v50,fine,tWeldgun;
    MoveL [[17.498,70.708,5.000],[1,0,0,0]],v50,fine,tWeldgun;
    MoveL [[17.277,71.058,5.000],[1,0,0,0]],v50,fine,tWeldgun;
    MoveL [[15.865,73.290,5.000],[1,0,0,0]],v50,fine,tWeldgun;
    MoveL [[15.660,73.649,5.000],[1,0,0,0]],v50,fine,tWeldgun;
    MoveL [[14.347,75.941,5.000],[1,0,0,0]],v50,fine,tWeldgun;
    MoveL [[14.157,76.308,5.000],[1,0,0,0]],v50,fine,tWeldgun;
    MoveL [[12.945,78.655,5.000],[1,0,0,0]],v50,fine,tWeldgun;
    MoveL [[12.771,79.030,5.000],[1,0,0,0]],v50,fine,tWeldgun;
    MoveL [[11.662,81.427,5.000],[1,0,0,0]],v50,fine,tWeldgun;
    MoveL [[11.505,81.810,5.000],[1,0,0,0]],v50,fine,tWeldgun;
    MoveL [[10.502,84.253,5.000],[1,0,0,0]],v50,fine,tWeldgun;
    MoveL [[10.361,84.642,5.000],[1,0,0,0]],v50,fine,tWeldgun;
    MoveL [[9.465,87.126,5.000],[1,0,0,0]],v50,fine,tWeldgun;
    MoveL [[9.342,87.521,5.000],[1,0,0,0]],v50,fine,tWeldgun;
    MoveL [[8.554,90.042,5.000],[1,0,0,0]],v50,fine,tWeldgun;
    MoveL [[8.448,90.442,5.000],[1,0,0,0]],v50,fine,tWeldgun;
    MoveL [[7.771,92.995,5.000],[1,0,0,0]],v50,fine,tWeldgun;
    MoveL [[7.683,93.399,5.000],[1,0,0,0]],v50,fine,tWeldgun;
    MoveL [[7.117,95.979,5.000],[1,0,0,0]],v50,fine,tWeldgun;
    MoveL [[7.047,96.386,5.000],[1,0,0,0]],v50,fine,tWeldgun;
    MoveL [[6.594,98.989,5.000],[1,0,0,0]],v50,fine,tWeldgun;
    MoveL [[6.541,99.399,5.000],[1,0,0,0]],v50,fine,tWeldgun;
    MoveL [[6.202,102.018,5.000],[1,0,0,0]],v50,fine,tWeldgun;
    MoveL [[6.167,102.430,5.000],[1,0,0,0]],v50,fine,tWeldgun;
    MoveL [[5.943,105.062,5.000],[1,0,0,0]],v50,fine,tWeldgun;
    MoveL [[5.925,105.475,5.000],[1,0,0,0]],v50,fine,tWeldgun;
    MoveL [[5.816,108.114,5.000],[1,0,0,0]],v50,fine,tWeldgun;
    MoveL [[5.816,108.528,5.000],[1,0,0,0]],v50,fine,tWeldgun;
    MoveL [[5.821,111.169,5.000],[1,0,0,0]],v50,fine,tWeldgun;
    MoveL [[5.840,111.582,5.000],[1,0,0,0]],v50,fine,tWeldgun;
    MoveL [[5.960,114.221,5.000],[1,0,0,0]],v50,fine,tWeldgun;
    MoveL [[5.997,114.632,5.000],[1,0,0,0]],v50,fine,tWeldgun;
    MoveL [[6.232,117.263,5.000],[1,0,0,0]],v50,fine,tWeldgun;
    MoveL [[6.286,117.673,5.000],[1,0,0,0]],v50,fine,tWeldgun;
    MoveL [[6.635,120.291,5.000],[1,0,0,0]],v50,fine,tWeldgun;
    MoveL [[6.708,120.698,5.000],[1,0,0,0]],v50,fine,tWeldgun;
    MoveL [[7.170,123.299,5.000],[1,0,0,0]],v50,fine,tWeldgun;
    MoveL [[7.260,123.703,5.000],[1,0,0,0]],v50,fine,tWeldgun;
    MoveL [[7.835,126.281,5.000],[1,0,0,0]],v50,fine,tWeldgun;
    MoveL [[7.943,126.680,5.000],[1,0,0,0]],v50,fine,tWeldgun;
    MoveL [[8.630,129.230,5.000],[1,0,0,0]],v50,fine,tWeldgun;
    MoveL [[8.754,129.624,5.000],[1,0,0,0]],v50,fine,tWeldgun;
    MoveL [[9.552,132.143,5.000],[1,0,0,0]],v50,fine,tWeldgun;
    MoveL [[9.693,132.531,5.000],[1,0,0,0]],v50,fine,tWeldgun;
    MoveL [[10.599,135.012,5.000],[1,0,0,0]],v50,fine,tWeldgun;
    MoveL [[10.758,135.394,5.000],[1,0,0,0]],v50,fine,tWeldgun;
    MoveL [[11.771,137.833,5.000],[1,0,0,0]],v50,fine,tWeldgun;
    MoveL [[11.946,138.208,5.000],[1,0,0,0]],v50,fine,tWeldgun;
    MoveL [[12.722,139.869,5.000],[1,0,0,0]],v50,fine,tWeldgun;
    WaitTime 10.0;
    !   Outer pass 2
    MoveL [[19.585,123.764,5.000],[1,0,0,0]],v500,fine,tool0;
    MoveL [[19.629,123.752,5.000],[1,0,0,0]],v50,fine,tWeldgun;
    MoveL [[20.684,123.475,5.000],[1,0,0,0]],v50,fine,tWeldgun;
    MoveL [[20.892,123.420,5.000],[1,0,0,0]],v50,fine,tWeldgun;
    MoveL [[21.141,123.358,5.000],[1,0,0,0]],v50,fine,tWeldgun;
    MoveL [[21.391,123.298,5.000],[1,0,0,0]],v50,fine,tWeldgun;
    MoveL [[21.641,123.240,5.000],[1,0,0,0]],v50,fine,tWeldgun;
    MoveL [[22.708,123.008,5.000],[1,0,0,0]],v50,fine,tWeldgun;
    MoveL [[22.917,122.963,5.000],[1,0,0,0]],v50,fine,tWeldgun;
    MoveL [[23.169,122.911,5.000],[1,0,0,0]],v50,fine,tWeldgun;
    MoveL [[23.421,122.861,5.000],[1,0,0,0]],v50,fine,tWeldgun;
    MoveL [[23.674,122.815,5.000],[1,0,0,0]],v50,fine,tWeldgun;
    MoveL [[24.750,122.629,5.000],[1,0,0,0]],v50,fine,tWeldgun;
    MoveL [[24.961,122.592,5.000],[1,0,0,0]],v50,fine,tWeldgun;
    MoveL [[25.215,122.551,5.000],[1,0,0,0]],v50,fine,tWeldgun;
    MoveL [[25.469,122.513,5.000],[1,0,0,0]],v50,fine,tWeldgun;
    MoveL [[25.723,122.477,5.000],[1,0,0,0]],v50,fine,tWeldgun;
    MoveL [[26.806,122.337,5.000],[1,0,0,0]],v50,fine,tWeldgun;
    MoveL [[27.019,122.310,5.000],[1,0,0,0]],v50,fine,tWeldgun;
    MoveL [[27.274,122.279,5.000],[1,0,0,0]],v50,fine,tWeldgun;
    MoveL [[27.529,122.252,5.000],[1,0,0,0]],v50,fine,tWeldgun;
    MoveL [[27.785,122.227,5.000],[1,0,0,0]],v50,fine,tWeldgun;
    MoveL [[28.873,122.134,5.000],[1,0,0,0]],v50,fine,tWeldgun;
    MoveL [[29.086,122.115,5.000],[1,0,0,0]],v50,fine,tWeldgun;
    MoveL [[29.343,122.096,5.000],[1,0,0,0]],v50,fine,tWeldgun;
    MoveL [[29.599,122.080,5.000],[1,0,0,0]],v50,fine,tWeldgun;
    MoveL [[29.856,122.066,5.000],[1,0,0,0]],v50,fine,tWeldgun;
    MoveL [[30.946,122.019,5.000],[1,0,0,0]],v50,fine,tWeldgun;
    MoveL [[31.160,122.010,5.000],[1,0,0,0]],v50,fine,tWeldgun;
    MoveL [[31.417,122.002,5.000],[1,0,0,0]],v50,fine,tWeldgun;
    MoveL [[31.674,121.996,5.000],[1,0,0,0]],v50,fine,tWeldgun;
    MoveL [[31.931,121.993,5.000],[1,0,0,0]],v50,fine,tWeldgun;
    MoveL [[33.237,121.993,5.000],[1,0,0,0]],v50,fine,tWeldgun;
    MoveL [[33.494,121.996,5.000],[1,0,0,0]],v50,fine,tWeldgun;
    MoveL [[33.751,122.002,5.000],[1,0,0,0]],v50,fine,tWeldgun;
    MoveL [[34.008,122.010,5.000],[1,0,0,0]],v50,fine,tWeldgun;
    MoveL [[35.099,122.057,5.000],[1,0,0,0]],v50,fine,tWeldgun;
    MoveL [[35.313,122.066,5.000],[1,0,0,0]],v50,fine,tWeldgun;
    MoveL [[35.570,122.080,5.000],[1,0,0,0]],v50,fine,tWeldgun;
    MoveL [[35.826,122.096,5.000],[1,0,0,0]],v50,fine,tWeldgun;
    MoveL [[36.082,122.115,5.000],[1,0,0,0]],v50,fine,tWeldgun;
    MoveL [[37.170,122.209,5.000],[1,0,0,0]],v50,fine,tWeldgun;
    MoveL [[37.383,122.227,5.000],[1,0,0,0]],v50,fine,tWeldgun;
    MoveL [[37.639,122.252,5.000],[1,0,0,0]],v50,fine,tWeldgun;
    MoveL [[37.895,122.279,5.000],[1,0,0,0]],v50,fine,tWeldgun;
    MoveL [[38.150,122.310,5.000],[1,0,0,0]],v50,fine,tWeldgun;
    MoveL [[39.233,122.450,5.000],[1,0,0,0]],v50,fine,tWeldgun;
    MoveL [[39.445,122.477,5.000],[1,0,0,0]],v50,fine,tWeldgun;
    MoveL [[39.700,122.513,5.000],[1,0,0,0]],v50,fine,tWeldgun;
    MoveL [[39.954,122.551,5.000],[1,0,0,0]],v50,fine,tWeldgun;
    MoveL [[40.208,122.592,5.000],[1,0,0,0]],v50,fine,tWeldgun;
    MoveL [[41.283,122.778,5.000],[1,0,0,0]],v50,fine,tWeldgun;
    MoveL [[41.494,122.815,5.000],[1,0,0,0]],v50,fine,tWeldgun;
    MoveL [[41.747,122.861,5.000],[1,0,0,0]],v50,fine,tWeldgun;
    MoveL [[42.000,122.911,5.000],[1,0,0,0]],v50,fine,tWeldgun;
    MoveL [[42.251,122.963,5.000],[1,0,0,0]],v50,fine,tWeldgun;
    MoveL [[43.318,123.195,5.000],[1,0,0,0]],v50,fine,tWeldgun;
    MoveL [[43.527,123.240,5.000],[1,0,0,0]],v50,fine,tWeldgun;
    MoveL [[43.778,123.298,5.000],[1,0,0,0]],v50,fine,tWeldgun;
    MoveL [[44.028,123.358,5.000],[1,0,0,0]],v50,fine,tWeldgun;
    MoveL [[44.277,123.420,5.000],[1,0,0,0]],v50,fine,tWeldgun;
    MoveL [[45.333,123.698,5.000],[1,0,0,0]],v50,fine,tWeldgun;
    MoveL [[45.540,123.752,5.000],[1,0,0,0]],v50,fine,tWeldgun;
    MoveL [[45.788,123.820,5.000],[1,0,0,0]],v50,fine,tWeldgun;
    MoveL [[46.035,123.891,5.000],[1,0,0,0]],v50,fine,tWeldgun;
    MoveL [[46.281,123.964,5.000],[1,0,0,0]],v50,fine,tWeldgun;
    MoveL [[47.324,124.287,5.000],[1,0,0,0]],v50,fine,tWeldgun;
    MoveL [[47.529,124.350,5.000],[1,0,0,0]],v50,fine,tWeldgun;
    MoveL [[47.774,124.429,5.000],[1,0,0,0]],v50,fine,tWeldgun;
    MoveL [[48.018,124.510,5.000],[1,0,0,0]],v50,fine,tWeldgun;
    MoveL [[48.261,124.594,5.000],[1,0,0,0]],v50,fine,tWeldgun;
    MoveL [[49.289,124.961,5.000],[1,0,0,0]],v50,fine,tWeldgun;
    MoveL [[49.491,125.032,5.000],[1,0,0,0]],v50,fine,tWeldgun;
    MoveL [[49.732,125.121,5.000],[1,0,0,0]],v50,fine,tWeldgun;
    MoveL [[49.972,125.213,5.000],[1,0,0,0]],v50,fine,tWeldgun;
    MoveL [[50.211,125.307,5.000],[1,0,0,0]],v50,fine,tWeldgun;
    MoveL [[51.223,125.718,5.000],[1,0,0,0]],v50,fine,tWeldgun;
    MoveL [[51.421,125.798,5.000],[1,0,0,0]],v50,fine,tWeldgun;
    MoveL [[51.658,125.898,5.000],[1,0,0,0]],v50,fine,tWeldgun;
    MoveL [[51.894,125.999,5.000],[1,0,0,0]],v50,fine,tWeldgun;
    MoveL [[52.129,126.104,5.000],[1,0,0,0]],v50,fine,tWeldgun;
    MoveL [[53.122,126.557,5.000],[1,0,0,0]],v50,fine,tWeldgun;
    MoveL [[53.317,126.646,5.000],[1,0,0,0]],v50,fine,tWeldgun;
    MoveL [[53.550,126.755,5.000],[1,0,0,0]],v50,fine,tWeldgun;
    MoveL [[53.781,126.867,5.000],[1,0,0,0]],v50,fine,tWeldgun;
    MoveL [[54.011,126.981,5.000],[1,0,0,0]],v50,fine,tWeldgun;
    MoveL [[54.292,127.125,5.000],[1,0,0,0]],v50,fine,tWeldgun;
    MoveL [[54.383,127.079,5.000],[1,0,0,0]],v50,fine,tWeldgun;
    MoveL [[54.573,126.981,5.000],[1,0,0,0]],v50,fine,tWeldgun;
    MoveL [[54.804,126.867,5.000],[1,0,0,0]],v50,fine,tWeldgun;
    MoveL [[55.035,126.755,5.000],[1,0,0,0]],v50,fine,tWeldgun;
    MoveL [[55.268,126.646,5.000],[1,0,0,0]],v50,fine,tWeldgun;
    MoveL [[56.261,126.193,5.000],[1,0,0,0]],v50,fine,tWeldgun;
    MoveL [[56.456,126.104,5.000],[1,0,0,0]],v50,fine,tWeldgun;
    MoveL [[56.691,125.999,5.000],[1,0,0,0]],v50,fine,tWeldgun;
    MoveL [[56.927,125.898,5.000],[1,0,0,0]],v50,fine,tWeldgun;
    MoveL [[57.164,125.798,5.000],[1,0,0,0]],v50,fine,tWeldgun;
    MoveL [[58.175,125.388,5.000],[1,0,0,0]],v50,fine,tWeldgun;
    MoveL [[58.374,125.307,5.000],[1,0,0,0]],v50,fine,tWeldgun;
    MoveL [[58.613,125.213,5.000],[1,0,0,0]],v50,fine,tWeldgun;
    MoveL [[58.853,125.121,5.000],[1,0,0,0]],v50,fine,tWeldgun;
    MoveL [[59.094,125.032,5.000],[1,0,0,0]],v50,fine,tWeldgun;
    MoveL [[60.122,124.666,5.000],[1,0,0,0]],v50,fine,tWeldgun;
    MoveL [[60.324,124.594,5.000],[1,0,0,0]],v50,fine,tWeldgun;
    MoveL [[60.567,124.510,5.000],[1,0,0,0]],v50,fine,tWeldgun;
    MoveL [[60.811,124.429,5.000],[1,0,0,0]],v50,fine,tWeldgun;
    MoveL [[61.056,124.350,5.000],[1,0,0,0]],v50,fine,tWeldgun;
    MoveL [[62.099,124.028,5.000],[1,0,0,0]],v50,fine,tWeldgun;
    MoveL [[62.303,123.964,5.000],[1,0,0,0]],v50,fine,tWeldgun;
    MoveL [[62.550,123.891,5.000],[1,0,0,0]],v50,fine,tWeldgun;
    MoveL [[62.797,123.820,5.000],[1,0,0,0]],v50,fine,tWeldgun;
    MoveL [[63.045,123.752,5.000],[1,0,0,0]],v50,fine,tWeldgun;
    MoveL [[64.100,123.475,5.000],[1,0,0,0]],v50,fine,tWeldgun;
    MoveL [[64.308,123.420,5.000],[1,0,0,0]],v50,fine,tWeldgun;
    MoveL [[64.557,123.358,5.000],[1,0,0,0]],v50,fine,tWeldgun;
    MoveL [[64.807,123.298,5.000],[1,0,0,0]],v50,fine,tWeldgun;
    MoveL [[65.057,123.240,5.000],[1,0,0,0]],v50,fine,tWeldgun;
    MoveL [[66.124,123.008,5.000],[1,0,0,0]],v50,fine,tWeldgun;
    MoveL [[66.333,122.963,5.000],[1,0,0,0]],v50,fine,tWeldgun;
    MoveL [[66.585,122.911,5.000],[1,0,0,0]],v50,fine,tWeldgun;
    MoveL [[66.838,122.861,5.000],[1,0,0,0]],v50,fine,tWeldgun;
    MoveL [[67.090,122.815,5.000],[1,0,0,0]],v50,fine,tWeldgun;
    MoveL [[68.166,122.629,5.000],[1,0,0,0]],v50,fine,tWeldgun;
    MoveL [[68.377,122.592,5.000],[1,0,0,0]],v50,fine,tWeldgun;
    MoveL [[68.631,122.551,5.000],[1,0,0,0]],v50,fine,tWeldgun;
    MoveL [[68.885,122.513,5.000],[1,0,0,0]],v50,fine,tWeldgun;
    MoveL [[69.140,122.477,5.000],[1,0,0,0]],v50,fine,tWeldgun;
    MoveL [[70.222,122.337,5.000],[1,0,0,0]],v50,fine,tWeldgun;
    MoveL [[70.435,122.310,5.000],[1,0,0,0]],v50,fine,tWeldgun;
    MoveL [[70.690,122.279,5.000],[1,0,0,0]],v50,fine,tWeldgun;
    MoveL [[70.945,122.252,5.000],[1,0,0,0]],v50,fine,tWeldgun;
    MoveL [[71.201,122.227,5.000],[1,0,0,0]],v50,fine,tWeldgun;
    MoveL [[72.289,122.134,5.000],[1,0,0,0]],v50,fine,tWeldgun;
    MoveL [[72.502,122.115,5.000],[1,0,0,0]],v50,fine,tWeldgun;
    MoveL [[72.759,122.096,5.000],[1,0,0,0]],v50,fine,tWeldgun;
    MoveL [[73.015,122.080,5.000],[1,0,0,0]],v50,fine,tWeldgun;
    MoveL [[73.272,122.066,5.000],[1,0,0,0]],v50,fine,tWeldgun;
    MoveL [[74.362,122.019,5.000],[1,0,0,0]],v50,fine,tWeldgun;
    MoveL [[74.576,122.010,5.000],[1,0,0,0]],v50,fine,tWeldgun;
    MoveL [[74.833,122.002,5.000],[1,0,0,0]],v50,fine,tWeldgun;
    MoveL [[75.090,121.996,5.000],[1,0,0,0]],v50,fine,tWeldgun;
    MoveL [[75.347,121.993,5.000],[1,0,0,0]],v50,fine,tWeldgun;
    MoveL [[76.653,121.993,5.000],[1,0,0,0]],v50,fine,tWeldgun;
    MoveL [[76.910,121.996,5.000],[1,0,0,0]],v50,fine,tWeldgun;
    MoveL [[77.167,122.002,5.000],[1,0,0,0]],v50,fine,tWeldgun;
    MoveL [[77.424,122.010,5.000],[1,0,0,0]],v50,fine,tWeldgun;
    MoveL [[78.515,122.057,5.000],[1,0,0,0]],v50,fine,tWeldgun;
    MoveL [[78.729,122.066,5.000],[1,0,0,0]],v50,fine,tWeldgun;
    MoveL [[78.986,122.080,5.000],[1,0,0,0]],v50,fine,tWeldgun;
    MoveL [[79.242,122.096,5.000],[1,0,0,0]],v50,fine,tWeldgun;
    MoveL [[79.498,122.115,5.000],[1,0,0,0]],v50,fine,tWeldgun;
    MoveL [[80.586,122.209,5.000],[1,0,0,0]],v50,fine,tWeldgun;
    MoveL [[80.799,122.227,5.000],[1,0,0,0]],v50,fine,tWeldgun;
    MoveL [[81.055,122.252,5.000],[1,0,0,0]],v50,fine,tWeldgun;
    MoveL [[81.311,122.279,5.000],[1,0,0,0]],v50,fine,tWeldgun;
    MoveL [[81.566,122.310,5.000],[1,0,0,0]],v50,fine,tWeldgun;
    MoveL [[82.649,122.450,5.000],[1,0,0,0]],v50,fine,tWeldgun;
    MoveL [[82.861,122.477,5.000],[1,0,0,0]],v50,fine,tWeldgun;
