MODULE WAAM

PROC Main()

    ! ===== PASS 1 =====
    MoveL [[6.000,6.000,0.000],[1,0,0,0]],v500,fine,tool0;
    ! Outer contour 0
    ArcLStart [[6.000,6.000,0.000],[1,0,0,0]],v50,tool0;
    ArcL [[94.000,94.000,0.000],[1,0,0,0]],v50,tool0;
    ArcL [[94.000,6.000,0.000],[1,0,0,0]],v50,tool0;
    ArcLEnd [[6.000,6.000,0.000],[1,0,0,0]],v50,tool0;
    ! Hole 0 of poly 0
    MoveL [[31.500,31.500,0.000],[1,0,0,0]],v500,fine,tool0;
    MoveL [[68.500,31.500,0.000],[1,0,0,0]],v50,fine,tool0;
    MoveL [[68.500,68.500,0.000],[1,0,0,0]],v50,fine,tool0;
    MoveL [[31.500,68.500,0.000],[1,0,0,0]],v50,fine,tool0;
    MoveL [[31.500,31.500,0.000],[1,0,0,0]],v50,fine,tool0;
    MoveL [[31.500,31.500,0.000],[1,0,0,0]],v50,fine,tool0;
